(G-CODE GENERATED BY FLATCAM v8.994 - www.flatcam.org - Version Date: 2020/11/7)

(Name: ina_v1.cmp_ncc_cnc)
(Type: G-code from Geometry)
(Units: MM)

(Created on Wednesday, 14 April 2021 at 15:07)

(This preprocessor is the default preprocessor used by FlatCAM.)
(It is made to work with MACH3 compatible motion controllers.)

(TOOL DIAMETER: 0.1 mm)
(Feedrate_XY: 2000.0 mm/min)
(Feedrate_Z: 60.0 mm/min)
(Feedrate rapids 1500.0 mm/min)

(Z_Cut: -2.4 mm)
(Z_Move: 2.0 mm)
(Z Start: None mm)
(Z End: 15.0 mm)
(X,Y End: None mm)
(Steps per circle: 64)
(Preprocessor Geometry: default)

(X range:   89.0500 ...  123.3608  mm)
(Y range:  119.0500 ...  154.4685  mm)

(Spindle Speed: 10.0 RPM)
G21
G90
G94

G01 F2000.00

M5
G00 Z15.0000
G00 X0.0000 Y0.0000
G00 Z15.0000

M03 S10.0
G01 F2000.00
G00 X93.4600 Y119.3866
G01 F60.00
G01 Z-2.4000
G01 F2000.00
G01 X93.4600 Y123.2170
G01 X93.3700 Y123.3070
G01 X93.3700 Y119.4719
G01 X93.2800 Y119.5619
G01 X93.2800 Y123.3970
G01 X93.1900 Y123.4870
G01 X93.1900 Y119.6519
G01 X93.1000 Y119.7419
G01 X93.1000 Y123.5770
G00 Z2.0000
G00 X93.0100 Y119.8319
G01 F60.00
G01 Z-2.4000
G01 F2000.00
G01 X93.0100 Y123.6291
G01 X92.9200 Y123.6811
G01 X92.9200 Y119.9219
G01 X92.8300 Y120.0119
G01 X92.8300 Y123.7330
G01 X92.7400 Y123.7850
G01 X92.7400 Y120.1019
G01 X92.6500 Y120.1919
G01 X92.6500 Y123.8369
G01 X92.5600 Y123.8889
G01 X92.5600 Y120.2819
G01 X92.4700 Y120.3719
G01 X92.4700 Y123.9270
G01 X92.3800 Y123.9511
G01 X92.3800 Y120.4619
G01 X92.2900 Y120.5519
G01 X92.2900 Y123.9753
G01 X92.2000 Y123.9994
G01 X92.2000 Y120.6419
G01 X92.1100 Y120.7319
G01 X92.1100 Y124.0235
G01 X92.0200 Y124.0476
G01 X92.0200 Y120.8219
G01 X91.9300 Y120.9119
G01 X91.9300 Y124.0717
G00 Z2.0000
G00 X91.8400 Y124.0899
G01 F60.00
G01 Z-2.4000
G01 F2000.00
G01 X91.8400 Y121.0019
G01 X91.7500 Y121.0919
G01 X91.7500 Y124.0899
G01 X91.6600 Y124.0899
G01 X91.6600 Y121.1819
G01 X91.5700 Y121.2719
G01 X91.5700 Y124.0899
G01 X91.4800 Y124.0899
G01 X91.4800 Y121.3619
G01 X91.3900 Y121.4519
G01 X91.3900 Y124.0899
G01 X91.3000 Y124.0899
G01 X91.3000 Y121.5419
G01 X91.2100 Y121.6319
G01 X91.2100 Y124.0899
G01 X91.1200 Y124.0722
G01 X91.1200 Y121.7219
G01 X91.0300 Y121.8119
G01 X91.0300 Y124.0481
G01 X90.9400 Y124.0240
G01 X90.9400 Y121.9019
G01 X90.8500 Y121.9919
G01 X90.8500 Y123.9998
G01 X90.7600 Y123.9757
G01 X90.7600 Y122.0819
G01 X90.6700 Y122.1719
G01 X90.6700 Y123.9516
G01 X90.5800 Y123.9275
G01 X90.5800 Y122.2619
G01 X90.4900 Y122.3519
G01 X90.4900 Y123.9051
G00 Z2.0000
G00 X90.4000 Y123.8974
G01 F60.00
G01 Z-2.4000
G01 F2000.00
G01 X90.4000 Y122.4419
G01 X90.3100 Y122.5319
G01 X90.3100 Y123.9076
G00 Z2.0000
G00 X90.2200 Y123.9371
G01 F60.00
G01 Z-2.4000
G01 F2000.00
G01 X90.2200 Y122.6219
G01 X90.1300 Y122.7119
G01 X90.1300 Y123.9911
G00 Z2.0000
G00 X90.0400 Y124.0823
G01 F60.00
G01 Z-2.4000
G01 F2000.00
G01 X90.0400 Y122.8019
G01 X89.9500 Y122.8919
G01 X89.9500 Y124.3538
G01 X89.1400 Y123.8676
G01 X89.1400 Y149.6606
G01 X89.2300 Y149.8495
G01 X89.2300 Y123.6793
G01 X89.3200 Y123.5421
G01 X89.3200 Y149.9869
G01 X89.4100 Y150.0954
G01 X89.4100 Y123.4336
G01 X89.5000 Y123.3419
G01 X89.5000 Y150.1864
G01 X89.5900 Y150.2761
G01 X89.5900 Y123.2519
G01 X89.6800 Y123.1619
G01 X89.6800 Y150.3658
G01 X89.7700 Y150.4555
G01 X89.7700 Y123.0719
G01 X89.8600 Y122.9819
G01 X89.8600 Y150.5452
G01 X89.9500 Y150.6349
G01 X89.9500 Y149.1746
G00 Z2.0000
G00 X89.9507 Y149.1896
G01 F60.00
G01 Z-2.4000
G01 F2000.00
G01 X89.9500 Y149.1746
G01 X89.9500 Y124.3538
G01 X89.9521 Y124.3098
G01 X89.9585 Y124.2662
G01 X89.9690 Y124.2235
G01 X89.9836 Y124.1819
G01 X90.0021 Y124.1420
G01 X90.0231 Y124.1061
G01 X90.0502 Y124.0684
G01 X90.0810 Y124.0337
G01 X90.1115 Y124.0053
G01 X90.1464 Y123.9785
G01 X90.1838 Y123.9552
G01 X90.2210 Y123.9366
G01 X90.2643 Y123.9199
G01 X90.3091 Y123.9077
G01 X90.3501 Y123.9007
G01 X90.3928 Y123.8974
G01 X90.4404 Y123.8985
G01 X90.4817 Y123.9034
G01 X90.5236 Y123.9124
G01 X91.1863 Y124.0899
G01 X91.8621 Y124.0899
G01 X92.5146 Y123.9151
G01 X93.0996 Y123.5774
G01 X93.5774 Y123.0996
G01 X93.9151 Y122.5146
G01 X94.0899 Y121.8621
G01 X94.0899 Y121.1863
G01 X93.9121 Y120.5224
G01 X93.9034 Y120.4817
G01 X93.8982 Y120.4380
G01 X93.8973 Y120.3940
G01 X93.9007 Y120.3501
G01 X93.9088 Y120.3044
G01 X93.9199 Y120.2643
G01 X93.9356 Y120.2232
G01 X93.9552 Y120.1838
G01 X93.9772 Y120.1484
G01 X94.0053 Y120.1115
G01 X94.0354 Y120.0793
G01 X94.0665 Y120.0517
G01 X94.1040 Y120.0243
G01 X94.1442 Y120.0010
G01 X94.1819 Y119.9836
G01 X94.2212 Y119.9697
G01 X94.2686 Y119.9581
G01 X94.3098 Y119.9521
G01 X94.3538 Y119.9500
G01 X101.7728 Y119.9500
G01 X101.8176 Y119.9522
G01 X101.8619 Y119.9588
G01 X101.9054 Y119.9697
G01 X101.9476 Y119.9848
G01 X101.9881 Y120.0039
G01 X102.0265 Y120.0270
G01 X102.0625 Y120.0536
G01 X102.0957 Y120.0837
G01 X102.1258 Y120.1169
G01 X102.1525 Y120.1529
G01 X102.1755 Y120.1914
G01 X102.1937 Y120.2296
G01 X102.2104 Y120.2764
G01 X102.2207 Y120.3175
G01 X102.2274 Y120.3643
G01 X102.2294 Y120.4066
G01 X102.2272 Y120.4514
G01 X102.2207 Y120.4957
G01 X102.2098 Y120.5391
G01 X102.1947 Y120.5813
G01 X102.1755 Y120.6218
G01 X102.1525 Y120.6603
G01 X102.1258 Y120.6963
G01 X102.0957 Y120.7295
G01 X101.8279 Y120.9973
G01 X101.7956 Y121.0265
G01 X101.7616 Y121.0518
G01 X101.7211 Y121.0762
G01 X101.6783 Y121.0963
G01 X101.6384 Y121.1105
G01 X101.5962 Y121.1211
G01 X101.5506 Y121.1280
G01 X101.5059 Y121.1302
G01 X99.6145 Y121.1302
G01 X99.3190 Y121.2526
G01 X99.2779 Y121.2673
G01 X99.2309 Y121.2790
G01 X99.1890 Y121.2852
G01 X99.1442 Y121.2874
G01 X99.0994 Y121.2852
G01 X99.0575 Y121.2790
G01 X99.0105 Y121.2673
G01 X98.9694 Y121.2526
G01 X98.6739 Y121.1302
G01 X96.7705 Y121.1302
G01 X96.4903 Y121.2463
G01 X96.2757 Y121.4608
G01 X96.1596 Y121.7410
G01 X96.1596 Y122.6459
G01 X96.1572 Y122.6910
G01 X96.1502 Y122.7369
G01 X96.1385 Y122.7818
G01 X96.1228 Y122.8242
G01 X96.1018 Y122.8670
G01 X96.0756 Y122.9084
G01 X96.0486 Y122.9430
G01 X95.9104 Y123.1030
G01 X95.8877 Y123.1275
G01 X95.6131 Y123.4021
G01 X95.4352 Y123.8317
G01 X95.4352 Y124.6230
G01 X95.4329 Y124.6690
G01 X95.4264 Y124.7121
G01 X95.4155 Y124.7555
G01 X95.4004 Y124.7977
G01 X95.3824 Y124.8360
G01 X95.3568 Y124.8787
G01 X95.3316 Y124.9127
G01 X95.3015 Y124.9459
G01 X95.2683 Y124.9760
G01 X95.2323 Y125.0027
G01 X95.1938 Y125.0257
G01 X95.1556 Y125.0439
G01 X95.1088 Y125.0606
G01 X95.0677 Y125.0708
G01 X95.0209 Y125.0776
G01 X94.9786 Y125.0796
G01 X92.9988 Y125.0796
G01 X92.4387 Y125.3116
G01 X92.0096 Y125.7407
G01 X91.7776 Y126.3008
G01 X91.7776 Y126.9076
G01 X92.0096 Y127.4677
G01 X92.4983 Y127.9565
G01 X92.5275 Y127.9889
G01 X92.5548 Y128.0260
G01 X92.5782 Y128.0658
G01 X92.5979 Y128.1088
G01 X92.6125 Y128.1512
G01 X92.6224 Y128.1937
G01 X92.6289 Y128.2419
G01 X92.6302 Y128.2880
G01 X92.6270 Y128.3314
G01 X92.6185 Y128.3806
G01 X92.6054 Y128.4261
G01 X92.5893 Y128.4666
G01 X92.5687 Y128.5065
G01 X92.5436 Y128.5451
G01 X92.4760 Y128.6381
G01 X92.4508 Y128.6876
G01 X92.6306 Y128.6876
G01 X92.6742 Y128.6288
G01 X92.7261 Y128.5715
G01 X92.7850 Y128.5178
G01 X92.8509 Y128.4687
G01 X92.9171 Y128.4290
G01 X92.9913 Y128.3937
G01 X93.0664 Y128.3668
G01 X93.1437 Y128.3474
G01 X93.2201 Y128.3360
G01 X93.3022 Y128.3318
G01 X94.8262 Y128.3318
G01 X94.9083 Y128.3360
G01 X94.9847 Y128.3474
G01 X95.0620 Y128.3668
G01 X95.1371 Y128.3937
G01 X95.2092 Y128.4277
G01 X95.2775 Y128.4687
G01 X95.3416 Y128.5162
G01 X95.4006 Y128.5698
G01 X95.4526 Y128.6270
G01 X95.5030 Y128.6949
G01 X95.5427 Y128.7612
G01 X95.5776 Y128.8356
G01 X95.6036 Y128.9084
G01 X95.6230 Y128.9857
G01 X95.6347 Y129.0646
G01 X95.6386 Y129.1430
G01 X95.6347 Y129.2238
G01 X95.6230 Y129.3027
G01 X95.6036 Y129.3800
G01 X95.5776 Y129.4528
G01 X95.5414 Y129.5293
G01 X95.5017 Y129.5955
G01 X95.4526 Y129.6614
G01 X95.4006 Y129.7186
G01 X95.3416 Y129.7722
G01 X95.2775 Y129.8197
G01 X95.2092 Y129.8607
G01 X95.1371 Y129.8947
G01 X95.0620 Y129.9216
G01 X94.9847 Y129.9410
G01 X94.9083 Y129.9524
G01 X94.8262 Y129.9566
G01 X93.3022 Y129.9566
G01 X93.2201 Y129.9524
G01 X93.1437 Y129.9410
G01 X93.0664 Y129.9216
G01 X92.9913 Y129.8947
G01 X92.9171 Y129.8594
G01 X92.8509 Y129.8197
G01 X92.7850 Y129.7706
G01 X92.7261 Y129.7169
G01 X92.6742 Y129.6596
G01 X92.6306 Y129.6008
G01 X92.4508 Y129.6008
G01 X92.4760 Y129.6503
G01 X92.5436 Y129.7433
G01 X92.5687 Y129.7819
G01 X92.5893 Y129.8218
G01 X92.6054 Y129.8623
G01 X92.6185 Y129.9078
G01 X92.6270 Y129.9570
G01 X92.6302 Y130.0004
G01 X92.6289 Y130.0465
G01 X92.6224 Y130.0947
G01 X92.6125 Y130.1372
G01 X92.5979 Y130.1796
G01 X92.5782 Y130.2226
G01 X92.5548 Y130.2624
G01 X92.5275 Y130.2995
G01 X92.4983 Y130.3319
G01 X92.0096 Y130.8207
G01 X91.7776 Y131.3808
G01 X91.7776 Y131.9876
G01 X92.0096 Y132.5477
G01 X92.0940 Y132.6322
G01 X92.1241 Y132.6655
G01 X92.1513 Y132.7026
G01 X92.1730 Y132.7390
G01 X92.1912 Y132.7772
G01 X92.2073 Y132.8217
G01 X92.2182 Y132.8651
G01 X92.2247 Y132.9094
G01 X92.2269 Y132.9542
G01 X92.2247 Y132.9990
G01 X92.2182 Y133.0433
G01 X92.2073 Y133.0867
G01 X92.1912 Y133.1312
G01 X92.1730 Y133.1694
G01 X92.1513 Y133.2058
G01 X92.1241 Y133.2429
G01 X92.0940 Y133.2762
G01 X92.0096 Y133.3607
G01 X91.7776 Y133.9208
G01 X91.7776 Y134.5276
G01 X92.0096 Y135.0877
G01 X92.4983 Y135.5765
G01 X92.5275 Y135.6089
G01 X92.5548 Y135.6460
G01 X92.5782 Y135.6858
G01 X92.5979 Y135.7288
G01 X92.6125 Y135.7712
G01 X92.6224 Y135.8137
G01 X92.6289 Y135.8619
G01 X92.6302 Y135.9080
G01 X92.6270 Y135.9514
G01 X92.6185 Y136.0006
G01 X92.6054 Y136.0461
G01 X92.5893 Y136.0866
G01 X92.5687 Y136.1265
G01 X92.5436 Y136.1651
G01 X92.4764 Y136.2576
G01 X92.4508 Y136.3076
G01 X92.6306 Y136.3076
G01 X92.6742 Y136.2488
G01 X92.7261 Y136.1915
G01 X92.7850 Y136.1378
G01 X92.8509 Y136.0887
G01 X92.9171 Y136.0490
G01 X92.9913 Y136.0137
G01 X93.0664 Y135.9868
G01 X93.1437 Y135.9674
G01 X93.2201 Y135.9560
G01 X93.3022 Y135.9518
G01 X94.8262 Y135.9518
G01 X94.9070 Y135.9559
G01 X94.9847 Y135.9674
G01 X95.0620 Y135.9868
G01 X95.1371 Y136.0137
G01 X95.2070 Y136.0466
G01 X95.2795 Y136.0901
G01 X95.3416 Y136.1362
G01 X95.4006 Y136.1898
G01 X95.4542 Y136.2488
G01 X95.5017 Y136.3129
G01 X95.5427 Y136.3812
G01 X95.5757 Y136.4511
G01 X95.6043 Y136.5307
G01 X95.6230 Y136.6057
G01 X95.6348 Y136.6858
G01 X95.6386 Y136.7642
G01 X95.6347 Y136.8438
G01 X95.6230 Y136.9227
G01 X95.6036 Y137.0000
G01 X95.5767 Y137.0751
G01 X95.5427 Y137.1472
G01 X95.5017 Y137.2155
G01 X95.4557 Y137.2776
G01 X95.4006 Y137.3386
G01 X95.3434 Y137.3906
G01 X95.2755 Y137.4410
G01 X95.2092 Y137.4807
G01 X95.1371 Y137.5147
G01 X95.0620 Y137.5416
G01 X94.9835 Y137.5612
G01 X94.9058 Y137.5727
G01 X94.8262 Y137.5766
G01 X93.3022 Y137.5766
G01 X93.2214 Y137.5725
G01 X93.1437 Y137.5610
G01 X93.0664 Y137.5416
G01 X92.9913 Y137.5147
G01 X92.9171 Y137.4794
G01 X92.8509 Y137.4397
G01 X92.7850 Y137.3906
G01 X92.7261 Y137.3369
G01 X92.6742 Y137.2796
G01 X92.6306 Y137.2208
G01 X92.4508 Y137.2208
G01 X92.4760 Y137.2703
G01 X92.5436 Y137.3633
G01 X92.5681 Y137.4009
G01 X92.5893 Y137.4418
G01 X92.6066 Y137.4859
G01 X92.6188 Y137.5291
G01 X92.6264 Y137.5720
G01 X92.6302 Y137.6204
G01 X92.6289 Y137.6665
G01 X92.6234 Y137.7098
G01 X92.6125 Y137.7572
G01 X92.5975 Y137.8008
G01 X92.5782 Y137.8426
G01 X92.5548 Y137.8824
G01 X92.5258 Y137.9214
G01 X92.4965 Y137.9537
G01 X92.0096 Y138.4407
G01 X91.7776 Y139.0008
G01 X91.7776 Y139.6076
G01 X92.0096 Y140.1677
G01 X92.4983 Y140.6565
G01 X92.5275 Y140.6889
G01 X92.5548 Y140.7260
G01 X92.5782 Y140.7658
G01 X92.5979 Y140.8088
G01 X92.6125 Y140.8512
G01 X92.6224 Y140.8937
G01 X92.6289 Y140.9419
G01 X92.6302 Y140.9880
G01 X92.6270 Y141.0314
G01 X92.6185 Y141.0806
G01 X92.6054 Y141.1261
G01 X92.5893 Y141.1666
G01 X92.5687 Y141.2065
G01 X92.5436 Y141.2451
G01 X92.4760 Y141.3381
G01 X92.4508 Y141.3876
G01 X92.6306 Y141.3876
G01 X92.6742 Y141.3288
G01 X92.7278 Y141.2698
G01 X92.7868 Y141.2162
G01 X92.8509 Y141.1687
G01 X92.9192 Y141.1277
G01 X92.9913 Y141.0937
G01 X93.0664 Y141.0668
G01 X93.1461 Y141.0470
G01 X93.2226 Y141.0357
G01 X93.3022 Y141.0318
G01 X94.8262 Y141.0318
G01 X94.9058 Y141.0357
G01 X94.9871 Y141.0480
G01 X95.0620 Y141.0668
G01 X95.1348 Y141.0928
G01 X95.2092 Y141.1277
G01 X95.2775 Y141.1687
G01 X95.3434 Y141.2178
G01 X95.4023 Y141.2715
G01 X95.4542 Y141.3288
G01 X95.4978 Y141.3876
G01 X95.6776 Y141.3876
G01 X95.6524 Y141.3381
G01 X95.5848 Y141.2451
G01 X95.5597 Y141.2065
G01 X95.5391 Y141.1666
G01 X95.5230 Y141.1261
G01 X95.5099 Y141.0806
G01 X95.5014 Y141.0314
G01 X95.4982 Y140.9880
G01 X95.4995 Y140.9419
G01 X95.5054 Y140.8961
G01 X95.5153 Y140.8537
G01 X95.5314 Y140.8065
G01 X95.5502 Y140.7658
G01 X95.5736 Y140.7260
G01 X95.6009 Y140.6889
G01 X95.6301 Y140.6565
G01 X96.1188 Y140.1677
G01 X96.3508 Y139.6076
G01 X96.3508 Y139.2664
G01 X96.3531 Y139.2204
G01 X96.3596 Y139.1773
G01 X96.3712 Y139.1315
G01 X96.3856 Y139.0916
G01 X96.4036 Y139.0533
G01 X96.4271 Y139.0137
G01 X96.4544 Y138.9767
G01 X96.4863 Y138.9418
G01 X96.5177 Y138.9134
G01 X96.5517 Y138.8881
G01 X96.5922 Y138.8637
G01 X96.6327 Y138.8445
G01 X96.6772 Y138.8288
G01 X96.7183 Y138.8185
G01 X96.7602 Y138.8123
G01 X96.8062 Y138.8098
G01 X96.8522 Y138.8120
G01 X96.8965 Y138.8185
G01 X96.9399 Y138.8294
G01 X96.9844 Y138.8455
G01 X97.0226 Y138.8637
G01 X97.0590 Y138.8854
G01 X97.0961 Y138.9126
G01 X97.1294 Y138.9426
G01 X97.2121 Y139.0253
G01 X97.6417 Y139.2032
G01 X98.2442 Y139.2032
G01 X98.2878 Y139.2054
G01 X98.3321 Y139.2120
G01 X98.3756 Y139.2229
G01 X98.4177 Y139.2380
G01 X98.4582 Y139.2571
G01 X98.4967 Y139.2802
G01 X98.5327 Y139.3068
G01 X98.5659 Y139.3369
G01 X98.5960 Y139.3701
G01 X98.6212 Y139.4041
G01 X98.6468 Y139.4468
G01 X98.6649 Y139.4851
G01 X98.6799 Y139.5273
G01 X98.6913 Y139.5731
G01 X98.6974 Y139.6150
G01 X98.6996 Y139.6586
G01 X98.6996 Y141.6274
G01 X98.8157 Y141.9076
G01 X99.0303 Y142.1221
G01 X99.3105 Y142.2382
G01 X101.2139 Y142.2382
G01 X101.5094 Y142.1158
G01 X101.5505 Y142.1011
G01 X101.5975 Y142.0894
G01 X101.6394 Y142.0832
G01 X101.6842 Y142.0810
G01 X101.7290 Y142.0832
G01 X101.7709 Y142.0894
G01 X101.8179 Y142.1011
G01 X101.8590 Y142.1158
G01 X102.1545 Y142.2382
G01 X104.0579 Y142.2382
G01 X104.3381 Y142.1221
G01 X104.5527 Y141.9076
G01 X104.6975 Y141.5582
G01 X104.7172 Y141.5170
G01 X104.7402 Y141.4791
G01 X104.7700 Y141.4396
G01 X104.8040 Y141.4036
G01 X104.8375 Y141.3745
G01 X104.8738 Y141.3490
G01 X104.9146 Y141.3259
G01 X104.9600 Y141.3061
G01 X105.0048 Y141.2921
G01 X105.8237 Y141.0810
G01 X105.8652 Y141.0724
G01 X105.9120 Y141.0673
G01 X105.9531 Y141.0668
G01 X105.9965 Y141.0703
G01 X106.0416 Y141.0786
G01 X106.0812 Y141.0897
G01 X106.1218 Y141.1053
G01 X106.1608 Y141.1247
G01 X106.1957 Y141.1465
G01 X106.2322 Y141.1742
G01 X106.2657 Y141.2056
G01 X106.2930 Y141.2364
G01 X106.3187 Y141.2715
G01 X106.3409 Y141.3089
G01 X106.3590 Y141.3472
G01 X106.4863 Y141.6541
G01 X106.7045 Y141.8723
G01 X106.7144 Y141.8772
G01 X106.7526 Y141.9004
G01 X106.7874 Y141.9264
G01 X106.8205 Y141.9565
G01 X106.8504 Y141.9897
G01 X106.8755 Y142.0237
G01 X106.9009 Y142.0662
G01 X106.9197 Y142.1067
G01 X106.9338 Y142.1465
G01 X106.9441 Y142.1875
G01 X106.9512 Y142.2341
G01 X106.9533 Y142.2763
G01 X106.9508 Y142.3258
G01 X106.9448 Y142.3663
G01 X106.9290 Y142.4462
G01 X106.9290 Y142.8095
G01 X107.0828 Y142.8095
G01 X107.0830 Y142.4612
G01 X107.0843 Y142.4540
G01 X107.0870 Y142.4459
G01 X107.0912 Y142.4383
G01 X107.0957 Y142.4325
G01 X107.1020 Y142.4267
G01 X107.1092 Y142.4220
G01 X107.1159 Y142.4190
G01 X107.1242 Y142.4169
G01 X107.1328 Y142.4161
G01 X108.9356 Y142.4161
G01 X108.9454 Y142.4171
G01 X108.9548 Y142.4199
G01 X108.9603 Y142.4226
G01 X108.9644 Y142.4252
G01 X108.9719 Y142.4316
G01 X108.9772 Y142.4383
G01 X108.9818 Y142.4470
G01 X108.9847 Y142.4564
G01 X108.9856 Y142.4661
G01 X108.9856 Y144.0661
G01 X108.9849 Y144.0746
G01 X108.9831 Y144.0817
G01 X108.9797 Y144.0896
G01 X108.9751 Y144.0968
G01 X108.9710 Y144.1014
G01 X108.9664 Y144.1055
G01 X108.9624 Y144.1083
G01 X108.9570 Y144.1113
G01 X108.9513 Y144.1135
G01 X108.9466 Y144.1148
G01 X108.9418 Y144.1157
G01 X108.9356 Y144.1161
G01 X107.1328 Y144.1161
G01 X107.1230 Y144.1151
G01 X107.1159 Y144.1131
G01 X107.1081 Y144.1096
G01 X107.1010 Y144.1047
G01 X107.0957 Y144.0996
G01 X107.0912 Y144.0938
G01 X107.0870 Y144.0863
G01 X107.0846 Y144.0794
G01 X107.0830 Y144.0710
G01 X107.0828 Y143.7227
G01 X106.9290 Y143.7227
G01 X106.9289 Y143.9445
G01 X106.9267 Y143.9889
G01 X106.9198 Y144.0340
G01 X106.9077 Y144.0807
G01 X106.8929 Y144.1212
G01 X106.8741 Y144.1601
G01 X106.8491 Y144.2012
G01 X106.8214 Y144.2376
G01 X106.7903 Y144.2710
G01 X106.7560 Y144.3011
G01 X106.7188 Y144.3277
G01 X106.6791 Y144.3503
G01 X106.6374 Y144.3690
G01 X106.5941 Y144.3833
G01 X106.5495 Y144.3933
G01 X106.5042 Y144.3987
G01 X106.4585 Y144.3996
G01 X106.0641 Y144.3877
G01 X106.0224 Y144.3844
G01 X105.9823 Y144.3775
G01 X105.9362 Y144.3649
G01 X105.8981 Y144.3505
G01 X105.8595 Y144.3316
G01 X105.8228 Y144.3091
G01 X105.7883 Y144.2833
G01 X105.7565 Y144.2543
G01 X105.5577 Y144.0558
G01 X105.2774 Y143.9396
G01 X103.1710 Y143.9396
G01 X102.8908 Y144.0557
G01 X102.6763 Y144.2703
G01 X102.5602 Y144.5505
G01 X102.5601 Y145.0113
G01 X102.5581 Y145.0536
G01 X102.5518 Y145.0968
G01 X102.5415 Y145.1392
G01 X102.5272 Y145.1804
G01 X102.5090 Y145.2200
G01 X102.4884 Y145.2557
G01 X102.4602 Y145.2951
G01 X102.4331 Y145.3261
G01 X102.3996 Y145.3576
G01 X102.3671 Y145.3829
G01 X101.0016 Y146.3479
G01 X100.9609 Y146.3735
G01 X100.9201 Y146.3937
G01 X100.8763 Y146.4102
G01 X100.8310 Y146.4220
G01 X100.7835 Y146.4293
G01 X100.7381 Y146.4316
G01 X100.0636 Y146.4316
G01 X99.4158 Y146.6999
G01 X98.9199 Y147.1958
G01 X98.6516 Y147.8436
G01 X98.6516 Y148.5448
G01 X98.9199 Y149.1926
G01 X99.4158 Y149.6885
G01 X100.0636 Y149.9568
G01 X100.7648 Y149.9568
G01 X101.4126 Y149.6885
G01 X101.8551 Y149.2460
G01 X101.8902 Y149.2144
G01 X101.9243 Y149.1892
G01 X101.9627 Y149.1662
G01 X102.0032 Y149.1470
G01 X102.0430 Y149.1327
G01 X102.0912 Y149.1206
G01 X102.1331 Y149.1145
G01 X102.1766 Y149.1123
G01 X102.2226 Y149.1144
G01 X102.2645 Y149.1206
G01 X102.3127 Y149.1326
G01 X102.3525 Y149.1469
G01 X102.3930 Y149.1660
G01 X102.4314 Y149.1891
G01 X102.4674 Y149.2157
G01 X102.5006 Y149.2458
G01 X102.5307 Y149.2789
G01 X102.5574 Y149.3149
G01 X102.5799 Y149.3522
G01 X102.5997 Y149.3938
G01 X102.6762 Y149.5780
G01 X102.8908 Y149.7927
G01 X103.1710 Y149.9088
G01 X105.2774 Y149.9088
G01 X105.5576 Y149.7927
G01 X105.7014 Y149.6488
G01 X105.7328 Y149.6203
G01 X105.7706 Y149.5920
G01 X105.8091 Y149.5690
G01 X105.8519 Y149.5490
G01 X105.8918 Y149.5348
G01 X105.9328 Y149.5244
G01 X105.9795 Y149.5173
G01 X106.0243 Y149.5151
G01 X111.3153 Y149.5151
G01 X111.3589 Y149.5173
G01 X111.4056 Y149.5244
G01 X111.4466 Y149.5348
G01 X111.4865 Y149.5490
G01 X111.5283 Y149.5684
G01 X111.5678 Y149.5920
G01 X111.6047 Y149.6195
G01 X111.6370 Y149.6488
G01 X111.7303 Y149.7421
G01 X112.0105 Y149.8582
G01 X113.9139 Y149.8582
G01 X114.2094 Y149.7358
G01 X114.2505 Y149.7211
G01 X114.2975 Y149.7094
G01 X114.3394 Y149.7032
G01 X114.3842 Y149.7010
G01 X114.4290 Y149.7032
G01 X114.4709 Y149.7094
G01 X114.5179 Y149.7211
G01 X114.5590 Y149.7358
G01 X114.8545 Y149.8582
G01 X116.7579 Y149.8582
G01 X117.0381 Y149.7421
G01 X117.2833 Y149.4969
G01 X117.3175 Y149.4661
G01 X117.3546 Y149.4388
G01 X117.3910 Y149.4171
G01 X117.4292 Y149.3990
G01 X117.4736 Y149.3829
G01 X117.5195 Y149.3716
G01 X117.5614 Y149.3654
G01 X117.6062 Y149.3632
G01 X119.9143 Y149.3632
G01 X119.9590 Y149.3654
G01 X120.0022 Y149.3717
G01 X120.0468 Y149.3829
G01 X120.0890 Y149.3980
G01 X120.1295 Y149.4171
G01 X120.1659 Y149.4388
G01 X120.2040 Y149.4668
G01 X120.2354 Y149.4952
G01 X120.2688 Y149.5321
G01 X120.2939 Y149.5661
G01 X120.3170 Y149.6046
G01 X120.3361 Y149.6451
G01 X120.3512 Y149.6873
G01 X120.3621 Y149.7307
G01 X120.3687 Y149.7750
G01 X120.3709 Y149.8198
G01 X120.3687 Y149.8646
G01 X120.3621 Y149.9089
G01 X120.3505 Y149.9547
G01 X120.3361 Y149.9945
G01 X120.3181 Y150.0328
G01 X120.2939 Y150.0735
G01 X120.2672 Y150.1095
G01 X120.2380 Y150.1418
G01 X119.9510 Y150.4288
G01 X119.6133 Y151.0138
G01 X119.4385 Y151.6663
G01 X119.4385 Y152.3422
G01 X119.6129 Y152.9938
G01 X119.6179 Y153.0155
G01 X119.6222 Y153.0368
G01 X119.6274 Y153.0806
G01 X119.6283 Y153.1221
G01 X119.6249 Y153.1685
G01 X119.6168 Y153.2142
G01 X119.6057 Y153.2543
G01 X119.5904 Y153.2943
G01 X119.5691 Y153.3369
G01 X119.5470 Y153.3721
G01 X119.5202 Y153.4070
G01 X119.4902 Y153.4392
G01 X119.4591 Y153.4668
G01 X119.4216 Y153.4942
G01 X119.3836 Y153.5164
G01 X119.3459 Y153.5340
G01 X119.3021 Y153.5495
G01 X119.2594 Y153.5600
G01 X119.2182 Y153.5661
G01 X119.1718 Y153.5685
G01 X94.3566 Y153.5685
G01 X94.3102 Y153.5661
G01 X94.2690 Y153.5600
G01 X94.2263 Y153.5495
G01 X94.1848 Y153.5349
G01 X94.1470 Y153.5175
G01 X94.1049 Y153.4928
G01 X94.0712 Y153.4683
G01 X94.0400 Y153.4408
G01 X94.0066 Y153.4052
G01 X93.9814 Y153.3721
G01 X93.9580 Y153.3348
G01 X93.9384 Y153.2954
G01 X93.9235 Y153.2565
G01 X93.9110 Y153.2118
G01 X93.9035 Y153.1685
G01 X93.9001 Y153.1234
G01 X93.9011 Y153.0793
G01 X93.9060 Y153.0380
G01 X93.9103 Y153.0167
G01 X93.9155 Y152.9938
G01 X94.0899 Y152.3422
G01 X94.0899 Y151.6663
G01 X93.9151 Y151.0138
G01 X93.5774 Y150.4288
G01 X93.0996 Y149.9510
G01 X92.5146 Y149.6133
G01 X91.8621 Y149.4385
G01 X91.1863 Y149.4385
G01 X90.5248 Y149.6157
G01 X90.4969 Y149.6222
G01 X90.4798 Y149.6253
G01 X90.4514 Y149.6290
G01 X90.4352 Y149.6303
G01 X90.4066 Y149.6312
G01 X90.3904 Y149.6309
G01 X90.3618 Y149.6290
G01 X90.3458 Y149.6272
G01 X90.3187 Y149.6227
G01 X90.3017 Y149.6190
G01 X90.2741 Y149.6116
G01 X90.2587 Y149.6066
G01 X90.2330 Y149.5969
G01 X90.2170 Y149.5900
G01 X90.1924 Y149.5779
G01 X90.1772 Y149.5694
G01 X90.1540 Y149.5550
G01 X90.1406 Y149.5458
G01 X90.1179 Y149.5284
G01 X90.1065 Y149.5187
G01 X90.0829 Y149.4966
G01 X90.0725 Y149.4859
G01 X90.0544 Y149.4652
G01 X90.0436 Y149.4516
G01 X90.0276 Y149.4293
G01 X90.0182 Y149.4147
G01 X90.0045 Y149.3910
G01 X89.9971 Y149.3766
G01 X89.9852 Y149.3505
G01 X89.9793 Y149.3355
G01 X89.9700 Y149.3084
G01 X89.9659 Y149.2940
G01 X89.9588 Y149.2637
G01 X89.9559 Y149.2478
G01 X89.9522 Y149.2194
G01 X89.9509 Y149.2033
G01 X89.9507 Y149.1896
G00 Z2.0000
G00 X90.0400 Y149.4464
G01 F60.00
G01 Z-2.4000
G01 F2000.00
G01 X90.0400 Y150.7247
G01 X90.1300 Y150.8144
G01 X90.1300 Y149.5374
G00 Z2.0000
G00 X90.2200 Y149.5913
G01 F60.00
G01 Z-2.4000
G01 F2000.00
G01 X90.2200 Y150.9041
G01 X90.3100 Y150.9938
G01 X90.3100 Y149.6207
G00 Z2.0000
G00 X90.4000 Y149.6310
G01 F60.00
G01 Z-2.4000
G01 F2000.00
G01 X90.4000 Y151.0835
G01 X90.4900 Y151.1732
G01 X90.4900 Y149.6234
G00 Z2.0000
G00 X90.5800 Y149.6009
G01 F60.00
G01 Z-2.4000
G01 F2000.00
G01 X90.5800 Y151.2629
G01 X90.6700 Y151.3526
G01 X90.6700 Y149.5768
G01 X90.7600 Y149.5527
G01 X90.7600 Y151.4423
G01 X90.8500 Y151.5320
G01 X90.8500 Y149.5286
G01 X90.9400 Y149.5044
G01 X90.9400 Y151.6217
G01 X91.0300 Y151.7115
G01 X91.0300 Y149.4803
G01 X91.1200 Y149.4562
G01 X91.1200 Y151.8012
G01 X91.2100 Y151.8909
G01 X91.2100 Y149.4385
G01 X91.3000 Y149.4385
G01 X91.3000 Y151.9806
G01 X91.3900 Y152.0703
G01 X91.3900 Y149.4385
G01 X91.4800 Y149.4385
G01 X91.4800 Y152.1600
G01 X91.5700 Y152.2497
G01 X91.5700 Y149.4385
G01 X91.6600 Y149.4385
G01 X91.6600 Y152.3394
G01 X91.7500 Y152.4291
G01 X91.7500 Y149.4385
G01 X91.8400 Y149.4385
G01 X91.8400 Y152.5188
G01 X91.9300 Y152.6086
G01 X91.9300 Y149.4567
G01 X92.0200 Y149.4808
G01 X92.0200 Y152.6983
G01 X92.1100 Y152.7880
G01 X92.1100 Y149.5049
G01 X92.2000 Y149.5290
G01 X92.2000 Y152.8777
G01 X92.2900 Y152.9674
G01 X92.2900 Y149.5531
G01 X92.3800 Y149.5773
G01 X92.3800 Y153.0571
G01 X92.4700 Y153.1468
G01 X92.4700 Y149.6014
G01 X92.5600 Y149.6395
G01 X92.5600 Y153.2365
G01 X92.6500 Y153.3262
G01 X92.6500 Y149.6915
G01 X92.7400 Y149.7434
G01 X92.7400 Y153.4159
G01 X92.8300 Y153.5057
G01 X92.8300 Y149.7954
G01 X92.9200 Y149.8473
G01 X92.9200 Y153.5954
G01 X93.0100 Y153.6851
G01 X93.0100 Y149.8993
G01 X93.1000 Y149.9514
G01 X93.1000 Y153.7748
G01 X93.1900 Y153.8645
G01 X93.1900 Y150.0414
G01 X93.2800 Y150.1314
G01 X93.2800 Y153.9542
G01 X93.3700 Y154.0439
G01 X93.3700 Y150.2214
G01 X93.4600 Y150.3114
G01 X93.4600 Y154.1294
G01 X93.5500 Y154.2022
G01 X93.5500 Y150.4014
G01 X93.6400 Y150.5373
G01 X93.6400 Y154.2638
G01 X93.7300 Y154.3162
G01 X93.7300 Y150.6932
G01 X93.8200 Y150.8491
G01 X93.8200 Y154.3579
G01 X93.9100 Y154.3924
G01 X93.9100 Y153.2063
G00 Z2.0000
G00 X93.9100 Y153.0181
G01 F60.00
G01 Z-2.4000
G01 F2000.00
G01 X93.9100 Y151.0050
G01 X94.0000 Y151.3307
G01 X94.0000 Y152.6781
G00 Z2.0000
G00 X94.0000 Y153.3965
G01 F60.00
G01 Z-2.4000
G01 F2000.00
G01 X94.0000 Y154.4207
G01 X94.0900 Y154.4429
G01 X94.0900 Y153.4820
G00 Z2.0000
G00 X94.1800 Y153.5328
G01 F60.00
G01 Z-2.4000
G01 F2000.00
G01 X94.1800 Y154.4566
G01 X94.2700 Y154.4654
G01 X94.2700 Y153.5602
G00 Z2.0000
G00 X94.3600 Y153.5685
G01 F60.00
G01 Z-2.4000
G01 F2000.00
G01 X94.3600 Y154.4685
G01 X94.4500 Y154.4685
G01 X94.4500 Y153.5685
G01 X94.5400 Y153.5685
G01 X94.5400 Y154.4685
G01 X94.6300 Y154.4685
G01 X94.6300 Y153.5685
G01 X94.7200 Y153.5685
G01 X94.7200 Y154.4685
G01 X94.8100 Y154.4685
G01 X94.8100 Y153.5685
G01 X94.9000 Y153.5685
G01 X94.9000 Y154.4685
G01 X94.9900 Y154.4685
G01 X94.9900 Y153.5685
G01 X95.0800 Y153.5685
G01 X95.0800 Y154.4685
G01 X95.1700 Y154.4685
G01 X95.1700 Y153.5685
G01 X95.2600 Y153.5685
G01 X95.2600 Y154.4685
G01 X95.3500 Y154.4685
G01 X95.3500 Y153.5685
G01 X95.4400 Y153.5685
G01 X95.4400 Y154.4685
G01 X95.5300 Y154.4685
G01 X95.5300 Y153.5685
G01 X95.6200 Y153.5685
G01 X95.6200 Y154.4685
G01 X95.7100 Y154.4685
G01 X95.7100 Y153.5685
G01 X95.8000 Y153.5685
G01 X95.8000 Y154.4685
G01 X95.8900 Y154.4685
G01 X95.8900 Y153.5685
G01 X95.9800 Y153.5685
G01 X95.9800 Y154.4685
G01 X96.0700 Y154.4685
G01 X96.0700 Y153.5685
G01 X96.1600 Y153.5685
G01 X96.1600 Y154.4685
G01 X96.2500 Y154.4685
G01 X96.2500 Y153.5685
G01 X96.3400 Y153.5685
G01 X96.3400 Y154.4685
G01 X96.4300 Y154.4685
G01 X96.4300 Y153.5685
G01 X96.5200 Y153.5685
G01 X96.5200 Y154.4685
G01 X96.6100 Y154.4685
G01 X96.6100 Y153.5685
G01 X96.7000 Y153.5685
G01 X96.7000 Y154.4685
G01 X96.7900 Y154.4685
G01 X96.7900 Y153.5685
G01 X96.8800 Y153.5685
G01 X96.8800 Y154.4685
G01 X96.9700 Y154.4685
G01 X96.9700 Y153.5685
G01 X97.0600 Y153.5685
G01 X97.0600 Y154.4685
G01 X97.1500 Y154.4685
G01 X97.1500 Y153.5685
G01 X97.2400 Y153.5685
G01 X97.2400 Y154.4685
G01 X97.3300 Y154.4685
G01 X97.3300 Y153.5685
G01 X97.4200 Y153.5685
G01 X97.4200 Y154.4685
G01 X97.5100 Y154.4685
G01 X97.5100 Y153.5685
G01 X97.6000 Y153.5685
G01 X97.6000 Y154.4685
G01 X97.6900 Y154.4685
G01 X97.6900 Y153.5685
G01 X97.7800 Y153.5685
G01 X97.7800 Y154.4685
G01 X97.8700 Y154.4685
G01 X97.8700 Y153.5685
G01 X97.9600 Y153.5685
G01 X97.9600 Y154.4685
G01 X98.0500 Y154.4685
G01 X98.0500 Y153.5685
G01 X98.1400 Y153.5685
G01 X98.1400 Y154.4685
G01 X98.2300 Y154.4685
G01 X98.2300 Y153.5685
G01 X98.3200 Y153.5685
G01 X98.3200 Y154.4685
G01 X98.4100 Y154.4685
G01 X98.4100 Y153.5685
G01 X98.5000 Y153.5685
G01 X98.5000 Y154.4685
G01 X98.5900 Y154.4685
G01 X98.5900 Y153.5685
G01 X98.6800 Y153.5685
G01 X98.6800 Y154.4685
G01 X98.7700 Y154.4685
G01 X98.7700 Y153.5685
G01 X98.8600 Y153.5685
G01 X98.8600 Y154.4685
G01 X98.9500 Y154.4685
G01 X98.9500 Y153.5685
G01 X99.0400 Y153.5685
G01 X99.0400 Y154.4685
G01 X99.1300 Y154.4685
G01 X99.1300 Y153.5685
G01 X99.2200 Y153.5685
G01 X99.2200 Y154.4685
G01 X99.3100 Y154.4685
G01 X99.3100 Y153.5685
G01 X99.4000 Y153.5685
G01 X99.4000 Y154.4685
G01 X99.4900 Y154.4685
G01 X99.4900 Y153.5685
G01 X99.5800 Y153.5685
G01 X99.5800 Y154.4685
G01 X99.6700 Y154.4685
G01 X99.6700 Y153.5685
G01 X99.7600 Y153.5685
G01 X99.7600 Y154.4685
G01 X99.8500 Y154.4685
G01 X99.8500 Y153.5685
G01 X99.9400 Y153.5685
G01 X99.9400 Y154.4685
G01 X100.0300 Y154.4685
G01 X100.0300 Y153.5685
G01 X100.1200 Y153.5685
G01 X100.1200 Y154.4685
G01 X100.2100 Y154.4685
G01 X100.2100 Y153.5685
G01 X100.3000 Y153.5685
G01 X100.3000 Y154.4685
G01 X100.3900 Y154.4685
G01 X100.3900 Y153.5685
G01 X100.4800 Y153.5685
G01 X100.4800 Y154.4685
G01 X100.5700 Y154.4685
G01 X100.5700 Y153.5685
G01 X100.6600 Y153.5685
G01 X100.6600 Y154.4685
G01 X100.7500 Y154.4685
G01 X100.7500 Y153.5685
G01 X100.8400 Y153.5685
G01 X100.8400 Y154.4685
G01 X100.9300 Y154.4685
G01 X100.9300 Y153.5685
G01 X101.0200 Y153.5685
G01 X101.0200 Y154.4685
G01 X101.1100 Y154.4685
G01 X101.1100 Y153.5685
G01 X101.2000 Y153.5685
G01 X101.2000 Y154.4685
G01 X101.2900 Y154.4685
G01 X101.2900 Y153.5685
G01 X101.3800 Y153.5685
G01 X101.3800 Y154.4685
G01 X101.4700 Y154.4685
G01 X101.4700 Y153.5685
G01 X101.5600 Y153.5685
G01 X101.5600 Y154.4685
G01 X101.6500 Y154.4685
G01 X101.6500 Y153.5685
G01 X101.7400 Y153.5685
G01 X101.7400 Y154.4685
G01 X101.8300 Y154.4685
G01 X101.8300 Y153.5685
G01 X101.9200 Y153.5685
G01 X101.9200 Y154.4685
G01 X102.0100 Y154.4685
G01 X102.0100 Y153.5685
G01 X102.1000 Y153.5685
G01 X102.1000 Y154.4685
G01 X102.1900 Y154.4685
G01 X102.1900 Y153.5685
G01 X102.2800 Y153.5685
G01 X102.2800 Y154.4685
G01 X102.3700 Y154.4685
G01 X102.3700 Y153.5685
G01 X102.4600 Y153.5685
G01 X102.4600 Y154.4685
G01 X102.5500 Y154.4685
G01 X102.5500 Y153.5685
G01 X102.6400 Y153.5685
G01 X102.6400 Y154.4685
G01 X102.7300 Y154.4685
G01 X102.7300 Y153.5685
G01 X102.8200 Y153.5685
G01 X102.8200 Y154.4685
G01 X102.9100 Y154.4685
G01 X102.9100 Y153.5685
G01 X103.0000 Y153.5685
G01 X103.0000 Y154.4685
G01 X103.0900 Y154.4685
G01 X103.0900 Y153.5685
G01 X103.1800 Y153.5685
G01 X103.1800 Y154.4685
G01 X103.2700 Y154.4685
G01 X103.2700 Y153.5685
G01 X103.3600 Y153.5685
G01 X103.3600 Y154.4685
G01 X103.4500 Y154.4685
G01 X103.4500 Y153.5685
G01 X103.5400 Y153.5685
G01 X103.5400 Y154.4685
G01 X103.6300 Y154.4685
G01 X103.6300 Y153.5685
G01 X103.7200 Y153.5685
G01 X103.7200 Y154.4685
G01 X103.8100 Y154.4685
G01 X103.8100 Y153.5685
G01 X103.9000 Y153.5685
G01 X103.9000 Y154.4685
G01 X103.9900 Y154.4685
G01 X103.9900 Y153.5685
G01 X104.0800 Y153.5685
G01 X104.0800 Y154.4685
G01 X104.1700 Y154.4685
G01 X104.1700 Y153.5685
G01 X104.2600 Y153.5685
G01 X104.2600 Y154.4685
G01 X104.3500 Y154.4685
G01 X104.3500 Y153.5685
G01 X104.4400 Y153.5685
G01 X104.4400 Y154.4685
G01 X104.5300 Y154.4685
G01 X104.5300 Y153.5685
G01 X104.6200 Y153.5685
G01 X104.6200 Y154.4685
G01 X104.7100 Y154.4685
G01 X104.7100 Y153.5685
G01 X104.8000 Y153.5685
G01 X104.8000 Y154.4685
G01 X104.8900 Y154.4685
G01 X104.8900 Y153.5685
G01 X104.9800 Y153.5685
G01 X104.9800 Y154.4685
G01 X105.0700 Y154.4685
G01 X105.0700 Y153.5685
G01 X105.1600 Y153.5685
G01 X105.1600 Y154.4685
G01 X105.2500 Y154.4685
G01 X105.2500 Y153.5685
G01 X105.3400 Y153.5685
G01 X105.3400 Y154.4685
G01 X105.4300 Y154.4685
G01 X105.4300 Y153.5685
G01 X105.5200 Y153.5685
G01 X105.5200 Y154.4685
G01 X105.6100 Y154.4685
G01 X105.6100 Y153.5685
G01 X105.7000 Y153.5685
G01 X105.7000 Y154.4685
G01 X105.7900 Y154.4685
G01 X105.7900 Y153.5685
G01 X105.8800 Y153.5685
G01 X105.8800 Y154.4685
G01 X105.9700 Y154.4685
G01 X105.9700 Y153.5685
G01 X106.0600 Y153.5685
G01 X106.0600 Y154.4685
G01 X106.1500 Y154.4685
G01 X106.1500 Y153.5685
G01 X106.2400 Y153.5685
G01 X106.2400 Y154.4685
G01 X106.3300 Y154.4685
G01 X106.3300 Y153.5685
G01 X106.4200 Y153.5685
G01 X106.4200 Y154.4685
G01 X106.5100 Y154.4685
G01 X106.5100 Y153.5685
G01 X106.6000 Y153.5685
G01 X106.6000 Y154.4685
G01 X106.6900 Y154.4685
G01 X106.6900 Y153.5685
G01 X106.7800 Y153.5685
G01 X106.7800 Y154.4685
G01 X106.8700 Y154.4685
G01 X106.8700 Y153.5685
G01 X106.9600 Y153.5685
G01 X106.9600 Y154.4685
G01 X107.0500 Y154.4685
G01 X107.0500 Y153.5685
G01 X107.1400 Y153.5685
G01 X107.1400 Y154.4685
G01 X107.2300 Y154.4685
G01 X107.2300 Y153.5685
G01 X107.3200 Y153.5685
G01 X107.3200 Y154.4685
G01 X107.4100 Y154.4685
G01 X107.4100 Y153.5685
G01 X107.5000 Y153.5685
G01 X107.5000 Y154.4685
G01 X107.5900 Y154.4685
G01 X107.5900 Y153.5685
G01 X107.6800 Y153.5685
G01 X107.6800 Y154.4685
G01 X107.7700 Y154.4685
G01 X107.7700 Y153.5685
G01 X107.8600 Y153.5685
G01 X107.8600 Y154.4685
G01 X107.9500 Y154.4685
G01 X107.9500 Y153.5685
G01 X108.0400 Y153.5685
G01 X108.0400 Y154.4685
G01 X108.1300 Y154.4685
G01 X108.1300 Y153.5685
G01 X108.2200 Y153.5685
G01 X108.2200 Y154.4685
G01 X108.3100 Y154.4685
G01 X108.3100 Y153.5685
G01 X108.4000 Y153.5685
G01 X108.4000 Y154.4685
G01 X108.4900 Y154.4685
G01 X108.4900 Y153.5685
G01 X108.5800 Y153.5685
G01 X108.5800 Y154.4685
G01 X108.6700 Y154.4685
G01 X108.6700 Y153.5685
G01 X108.7600 Y153.5685
G01 X108.7600 Y154.4685
G01 X108.8500 Y154.4685
G01 X108.8500 Y153.5685
G01 X108.9400 Y153.5685
G01 X108.9400 Y154.4685
G01 X109.0300 Y154.4685
G01 X109.0300 Y153.5685
G01 X109.1200 Y153.5685
G01 X109.1200 Y154.4685
G01 X109.2100 Y154.4685
G01 X109.2100 Y153.5685
G01 X109.3000 Y153.5685
G01 X109.3000 Y154.4685
G01 X109.3900 Y154.4685
G01 X109.3900 Y153.5685
G01 X109.4800 Y153.5685
G01 X109.4800 Y154.4685
G01 X109.5700 Y154.4685
G01 X109.5700 Y153.5685
G01 X109.6600 Y153.5685
G01 X109.6600 Y154.4685
G01 X109.7500 Y154.4685
G01 X109.7500 Y153.5685
G01 X109.8400 Y153.5685
G01 X109.8400 Y154.4685
G01 X109.9300 Y154.4685
G01 X109.9300 Y153.5685
G01 X110.0200 Y153.5685
G01 X110.0200 Y154.4685
G01 X110.1100 Y154.4685
G01 X110.1100 Y153.5685
G01 X110.2000 Y153.5685
G01 X110.2000 Y154.4685
G01 X110.2900 Y154.4685
G01 X110.2900 Y153.5685
G01 X110.3800 Y153.5685
G01 X110.3800 Y154.4685
G01 X110.4700 Y154.4685
G01 X110.4700 Y153.5685
G01 X110.5600 Y153.5685
G01 X110.5600 Y154.4685
G01 X110.6500 Y154.4685
G01 X110.6500 Y153.5685
G01 X110.7400 Y153.5685
G01 X110.7400 Y154.4685
G01 X110.8300 Y154.4685
G01 X110.8300 Y153.5685
G01 X110.9200 Y153.5685
G01 X110.9200 Y154.4685
G01 X111.0100 Y154.4685
G01 X111.0100 Y153.5685
G01 X111.1000 Y153.5685
G01 X111.1000 Y154.4685
G01 X111.1900 Y154.4685
G01 X111.1900 Y153.5685
G01 X111.2800 Y153.5685
G01 X111.2800 Y154.4685
G01 X111.3700 Y154.4685
G01 X111.3700 Y153.5685
G01 X111.4600 Y153.5685
G01 X111.4600 Y154.4685
G01 X111.5500 Y154.4685
G01 X111.5500 Y153.5685
G01 X111.6400 Y153.5685
G01 X111.6400 Y154.4685
G01 X111.7300 Y154.4685
G01 X111.7300 Y153.5685
G01 X111.8200 Y153.5685
G01 X111.8200 Y154.4685
G01 X111.9100 Y154.4685
G01 X111.9100 Y153.5685
G01 X112.0000 Y153.5685
G01 X112.0000 Y154.4685
G01 X112.0900 Y154.4685
G01 X112.0900 Y153.5685
G01 X112.1800 Y153.5685
G01 X112.1800 Y154.4685
G01 X112.2700 Y154.4685
G01 X112.2700 Y153.5685
G01 X112.3600 Y153.5685
G01 X112.3600 Y154.4685
G01 X112.4500 Y154.4685
G01 X112.4500 Y153.5685
G01 X112.5400 Y153.5685
G01 X112.5400 Y154.4685
G01 X112.6300 Y154.4685
G01 X112.6300 Y153.5685
G01 X112.7200 Y153.5685
G01 X112.7200 Y154.4685
G01 X112.8100 Y154.4685
G01 X112.8100 Y153.5685
G01 X112.9000 Y153.5685
G01 X112.9000 Y154.4685
G01 X112.9900 Y154.4685
G01 X112.9900 Y153.5685
G01 X113.0800 Y153.5685
G01 X113.0800 Y154.4685
G01 X113.1700 Y154.4685
G01 X113.1700 Y153.5685
G01 X113.2600 Y153.5685
G01 X113.2600 Y154.4685
G01 X113.3500 Y154.4685
G01 X113.3500 Y153.5685
G01 X113.4400 Y153.5685
G01 X113.4400 Y154.4685
G01 X113.5300 Y154.4685
G01 X113.5300 Y153.5685
G01 X113.6200 Y153.5685
G01 X113.6200 Y154.4685
G01 X113.7100 Y154.4685
G01 X113.7100 Y153.5685
G01 X113.8000 Y153.5685
G01 X113.8000 Y154.4685
G01 X113.8900 Y154.4685
G01 X113.8900 Y153.5685
G01 X113.9800 Y153.5685
G01 X113.9800 Y154.4685
G01 X114.0700 Y154.4685
G01 X114.0700 Y153.5685
G01 X114.1600 Y153.5685
G01 X114.1600 Y154.4685
G01 X114.2500 Y154.4685
G01 X114.2500 Y153.5685
G01 X114.3400 Y153.5685
G01 X114.3400 Y154.4685
G01 X114.4300 Y154.4685
G01 X114.4300 Y153.5685
G01 X114.5200 Y153.5685
G01 X114.5200 Y154.4685
G01 X114.6100 Y154.4685
G01 X114.6100 Y153.5685
G01 X114.7000 Y153.5685
G01 X114.7000 Y154.4685
G01 X114.7900 Y154.4685
G01 X114.7900 Y153.5685
G01 X114.8800 Y153.5685
G01 X114.8800 Y154.4685
G01 X114.9700 Y154.4685
G01 X114.9700 Y153.5685
G01 X115.0600 Y153.5685
G01 X115.0600 Y154.4685
G01 X115.1500 Y154.4685
G01 X115.1500 Y153.5685
G01 X115.2400 Y153.5685
G01 X115.2400 Y154.4685
G01 X115.3300 Y154.4685
G01 X115.3300 Y153.5685
G01 X115.4200 Y153.5685
G01 X115.4200 Y154.4685
G01 X115.5100 Y154.4685
G01 X115.5100 Y153.5685
G01 X115.6000 Y153.5685
G01 X115.6000 Y154.4685
G01 X115.6900 Y154.4685
G01 X115.6900 Y153.5685
G01 X115.7800 Y153.5685
G01 X115.7800 Y154.4685
G01 X115.8700 Y154.4685
G01 X115.8700 Y153.5685
G01 X115.9600 Y153.5685
G01 X115.9600 Y154.4685
G01 X116.0500 Y154.4685
G01 X116.0500 Y153.5685
G01 X116.1400 Y153.5685
G01 X116.1400 Y154.4685
G01 X116.2300 Y154.4685
G01 X116.2300 Y153.5685
G01 X116.3200 Y153.5685
G01 X116.3200 Y154.4685
G01 X116.4100 Y154.4685
G01 X116.4100 Y153.5685
G01 X116.5000 Y153.5685
G01 X116.5000 Y154.4685
G01 X116.5900 Y154.4685
G01 X116.5900 Y153.5685
G01 X116.6800 Y153.5685
G01 X116.6800 Y154.4685
G01 X116.7700 Y154.4685
G01 X116.7700 Y153.5685
G01 X116.8600 Y153.5685
G01 X116.8600 Y154.4685
G01 X116.9500 Y154.4685
G01 X116.9500 Y153.5685
G01 X117.0400 Y153.5685
G01 X117.0400 Y154.4685
G01 X117.1300 Y154.4685
G01 X117.1300 Y153.5685
G01 X117.2200 Y153.5685
G01 X117.2200 Y154.4685
G01 X117.3100 Y154.4685
G01 X117.3100 Y153.5685
G01 X117.4000 Y153.5685
G01 X117.4000 Y154.4685
G01 X117.4900 Y154.4685
G01 X117.4900 Y153.5685
G01 X117.5800 Y153.5685
G01 X117.5800 Y154.4685
G01 X117.6700 Y154.4685
G01 X117.6700 Y153.5685
G01 X117.7600 Y153.5685
G01 X117.7600 Y154.4685
G01 X117.8500 Y154.4685
G01 X117.8500 Y153.5685
G01 X117.9400 Y153.5685
G01 X117.9400 Y154.4685
G01 X118.0300 Y154.4685
G01 X118.0300 Y153.5685
G01 X118.1200 Y153.5685
G01 X118.1200 Y154.4685
G01 X118.2100 Y154.4685
G01 X118.2100 Y153.5685
G01 X118.3000 Y153.5685
G01 X118.3000 Y154.4685
G01 X118.3900 Y154.4685
G01 X118.3900 Y153.5685
G01 X118.4800 Y153.5685
G01 X118.4800 Y154.4685
G01 X118.5700 Y154.4685
G01 X118.5700 Y153.5685
G01 X118.6600 Y153.5685
G01 X118.6600 Y154.4685
G01 X118.7500 Y154.4685
G01 X118.7500 Y153.5685
G01 X118.8400 Y153.5685
G01 X118.8400 Y154.4685
G01 X118.9300 Y154.4685
G01 X118.9300 Y153.5685
G01 X119.0200 Y153.5685
G01 X119.0200 Y154.4685
G01 X119.1100 Y154.4685
G01 X119.1100 Y153.5685
G00 Z2.0000
G00 X119.2000 Y153.5672
G01 F60.00
G01 Z-2.4000
G01 F2000.00
G01 X119.2000 Y154.4682
G01 X119.2900 Y154.4639
G01 X119.2900 Y153.5526
G00 Z2.0000
G00 X119.3800 Y153.5182
G01 F60.00
G01 Z-2.4000
G01 F2000.00
G01 X119.3800 Y154.4520
G01 X119.4700 Y154.4351
G01 X119.4700 Y153.4571
G00 Z2.0000
G00 X119.5600 Y153.3515
G01 F60.00
G01 Z-2.4000
G01 F2000.00
G01 X119.5600 Y154.4129
G01 X119.6500 Y154.3813
G01 X119.6500 Y150.9503
G01 X119.7400 Y150.7944
G01 X119.7400 Y154.3433
G01 X119.8300 Y154.2981
G01 X119.8300 Y150.6384
G01 X119.9200 Y150.4825
G01 X119.9200 Y154.2445
G01 X120.0100 Y154.1793
G01 X120.0100 Y150.3698
G01 X120.1000 Y150.2798
G01 X120.1000 Y154.1015
G01 X120.1900 Y154.0086
G01 X120.1900 Y150.1898
G00 Z2.0000
G00 X120.2800 Y150.0924
G01 F60.00
G01 Z-2.4000
G01 F2000.00
G01 X120.2800 Y153.8954
G01 X120.3700 Y153.7481
G01 X120.3700 Y149.8391
G00 Z2.0000
G00 X120.3700 Y149.8005
G01 F60.00
G01 Z-2.4000
G01 F2000.00
G01 X120.3700 Y148.6508
G01 X120.2800 Y148.6508
G01 X120.2800 Y149.5472
G00 Z2.0000
G00 X120.1900 Y149.4564
G01 F60.00
G01 Z-2.4000
G01 F2000.00
G01 X120.1900 Y148.6508
G01 X120.1000 Y148.6508
G01 X120.1000 Y149.4031
G00 Z2.0000
G00 X120.0100 Y149.3736
G01 F60.00
G01 Z-2.4000
G01 F2000.00
G01 X120.0100 Y148.6508
G01 X119.9200 Y148.6508
G01 X119.9200 Y149.3634
G00 Z2.0000
G00 X119.8300 Y149.3632
G01 F60.00
G01 Z-2.4000
G01 F2000.00
G01 X119.8300 Y148.6508
G01 X119.7400 Y148.6508
G01 X119.7400 Y149.3632
G01 X119.6500 Y149.3632
G01 X119.6500 Y148.6508
G01 X119.5600 Y148.6508
G01 X119.5600 Y149.3632
G01 X119.4700 Y149.3632
G01 X119.4700 Y148.6508
G01 X119.3800 Y148.6508
G01 X119.3800 Y149.3632
G01 X119.2900 Y149.3632
G01 X119.2900 Y148.6508
G01 X119.2000 Y148.6508
G01 X119.2000 Y149.3632
G01 X119.1100 Y149.3632
G01 X119.1100 Y148.6508
G01 X119.0200 Y148.6508
G01 X119.0200 Y149.3632
G01 X118.9300 Y149.3632
G01 X118.9300 Y148.6508
G01 X118.8400 Y148.6508
G01 X118.8400 Y149.3632
G01 X118.7500 Y149.3632
G01 X118.7500 Y148.6508
G01 X118.6600 Y148.6508
G01 X118.6600 Y149.3632
G01 X118.5700 Y149.3632
G01 X118.5700 Y148.6508
G01 X118.4800 Y148.6508
G01 X118.4800 Y149.3632
G01 X118.3900 Y149.3632
G01 X118.3900 Y148.6508
G01 X118.3000 Y148.6508
G01 X118.3000 Y149.3632
G01 X118.2100 Y149.3632
G01 X118.2100 Y148.6508
G01 X118.1200 Y148.6508
G01 X118.1200 Y149.3632
G01 X118.0300 Y149.3632
G01 X118.0300 Y148.6508
G01 X117.9400 Y148.6508
G01 X117.9400 Y149.3632
G01 X117.8500 Y149.3632
G01 X117.8500 Y148.6508
G01 X117.7600 Y148.6508
G01 X117.7600 Y149.3632
G01 X117.6700 Y149.3632
G01 X117.6700 Y148.6508
G01 X117.5800 Y148.6508
G01 X117.5800 Y149.3644
G00 Z2.0000
G00 X117.4900 Y149.3787
G01 F60.00
G01 Z-2.4000
G01 F2000.00
G01 X117.4900 Y148.6508
G01 X117.4000 Y148.6508
G01 X117.4000 Y149.4128
G00 Z2.0000
G00 X117.3100 Y149.4727
G01 F60.00
G01 Z-2.4000
G01 F2000.00
G01 X117.3100 Y148.6508
G01 X117.2200 Y148.6508
G01 X117.2200 Y149.5603
G01 X117.1300 Y149.6503
G01 X117.1300 Y148.6508
G01 X117.0400 Y148.6508
G01 X117.0400 Y149.7403
G01 X116.9500 Y149.7786
G01 X116.9500 Y148.6508
G01 X116.8600 Y148.6508
G01 X116.8600 Y149.8159
G01 X116.7700 Y149.8532
G01 X116.7700 Y148.6508
G01 X116.6800 Y148.6508
G01 X116.6800 Y149.8582
G01 X116.5900 Y149.8582
G01 X116.5900 Y149.1456
G01 X116.5000 Y149.1456
G01 X116.5000 Y149.8582
G01 X116.4100 Y149.8582
G01 X116.4100 Y149.1456
G01 X116.3200 Y149.1456
G01 X116.3200 Y149.8582
G01 X116.2300 Y149.8582
G01 X116.2300 Y149.1456
G01 X116.1400 Y149.1456
G01 X116.1400 Y149.8582
G01 X116.0500 Y149.8582
G01 X116.0500 Y149.1456
G01 X115.9600 Y149.1456
G01 X115.9600 Y149.8582
G01 X115.8700 Y149.8582
G01 X115.8700 Y149.1456
G01 X115.7800 Y149.1456
G01 X115.7800 Y149.8582
G01 X115.6900 Y149.8582
G01 X115.6900 Y149.1456
G01 X115.6000 Y149.1456
G01 X115.6000 Y149.8582
G01 X115.5100 Y149.8582
G01 X115.5100 Y149.1456
G01 X115.4200 Y149.1456
G01 X115.4200 Y149.8582
G01 X115.3300 Y149.8582
G01 X115.3300 Y149.1456
G01 X115.2400 Y149.1456
G01 X115.2400 Y149.8582
G01 X115.1500 Y149.8582
G01 X115.1500 Y149.1456
G01 X115.0600 Y149.1456
G01 X115.0600 Y149.8582
G01 X114.9700 Y149.8582
G01 X114.9700 Y149.1302
G01 X114.7000 Y149.7942
G01 X114.7000 Y146.6056
G00 Z2.0000
G00 X114.7900 Y146.6056
G01 F60.00
G01 Z-2.4000
G01 F2000.00
G01 X114.7900 Y149.8315
G01 X114.8800 Y149.8582
G01 X114.8800 Y146.6056
G01 X114.9700 Y146.6056
G01 X114.9700 Y147.2582
G00 Z2.0000
G00 X115.0600 Y147.2428
G01 F60.00
G01 Z-2.4000
G01 F2000.00
G01 X115.0600 Y146.6056
G01 X115.1500 Y146.6056
G01 X115.1500 Y147.2428
G01 X115.2400 Y147.2428
G01 X115.2400 Y146.6056
G01 X115.3300 Y146.6056
G01 X115.3300 Y147.2428
G00 Z2.0000
G00 X116.3200 Y147.2428
G01 F60.00
G01 Z-2.4000
G01 F2000.00
G01 X116.3200 Y146.6024
G00 Z2.0000
G00 X116.4100 Y147.2428
G01 F60.00
G01 Z-2.4000
G01 F2000.00
G01 X116.4100 Y143.9902
G01 X116.3200 Y143.9902
G01 X116.3200 Y144.7060
G00 Z2.0000
G00 X116.2300 Y144.7028
G01 F60.00
G01 Z-2.4000
G01 F2000.00
G01 X116.2300 Y143.9902
G01 X116.1400 Y143.9902
G01 X116.1400 Y144.7028
G01 X116.0500 Y144.7028
G01 X116.0500 Y143.9902
G01 X115.9600 Y143.9902
G01 X115.9600 Y144.7028
G01 X115.8700 Y144.7028
G01 X115.8700 Y143.9902
G01 X115.7800 Y143.9902
G01 X115.7800 Y144.7028
G01 X115.6900 Y144.7028
G01 X115.6900 Y143.9902
G01 X115.6000 Y143.9902
G01 X115.6000 Y144.7028
G01 X115.5100 Y144.7028
G01 X115.5100 Y143.9902
G01 X115.4200 Y143.9902
G01 X115.4200 Y144.7028
G01 X115.3300 Y144.7028
G01 X115.3300 Y143.9902
G01 X115.2400 Y143.9902
G01 X115.2400 Y144.7028
G01 X115.1500 Y144.7028
G01 X115.1500 Y143.9902
G01 X115.0600 Y143.9902
G01 X115.0600 Y144.7028
G01 X114.9700 Y144.7028
G01 X114.9700 Y143.9902
G01 X114.8800 Y143.9902
G01 X114.8800 Y144.7028
G01 X114.7900 Y144.7028
G01 X114.7900 Y143.9902
G00 Z2.0000
G00 X114.7000 Y143.9883
G01 F60.00
G01 Z-2.4000
G01 F2000.00
G01 X114.7000 Y144.7028
G00 Z2.0000
G00 X114.6100 Y143.9712
G01 F60.00
G01 Z-2.4000
G01 F2000.00
G01 X114.6100 Y149.7569
G00 Z2.0000
G00 X114.5200 Y149.7218
G01 F60.00
G01 Z-2.4000
G01 F2000.00
G01 X114.5200 Y143.9336
G00 Z2.0000
G00 X114.4300 Y143.8683
G01 F60.00
G01 Z-2.4000
G01 F2000.00
G01 X114.4300 Y149.7033
G00 Z2.0000
G00 X114.3400 Y149.7032
G01 F60.00
G01 Z-2.4000
G01 F2000.00
G01 X114.3400 Y143.7537
G00 Z2.0000
G00 X113.5300 Y144.5719
G01 F60.00
G01 Z-2.4000
G01 F2000.00
G01 X113.5300 Y147.2428
G01 X113.4400 Y147.2428
G01 X113.4400 Y144.7039
G00 Z2.0000
G00 X113.3500 Y144.7941
G01 F60.00
G01 Z-2.4000
G01 F2000.00
G01 X113.3500 Y147.2428
G01 X113.2600 Y147.2428
G01 X113.2600 Y144.8841
G01 X113.1700 Y144.9741
G01 X113.1700 Y147.2428
G01 X113.0800 Y147.2428
G01 X113.0800 Y145.0641
G01 X112.9900 Y145.1541
G01 X112.9900 Y147.2428
G01 X112.9000 Y147.2428
G01 X112.9000 Y145.2441
G01 X112.8100 Y145.3341
G01 X112.8100 Y147.2428
G01 X112.7200 Y147.2428
G01 X112.7200 Y145.4241
G01 X112.6300 Y145.5141
G01 X112.6300 Y147.2428
G01 X112.5400 Y147.2428
G01 X112.5400 Y145.6041
G01 X112.4500 Y145.6941
G01 X112.4500 Y147.2428
G01 X112.3600 Y147.2428
G01 X112.3600 Y145.7841
G01 X112.2700 Y145.8741
G01 X112.2700 Y147.2428
G01 X112.1800 Y147.2428
G01 X112.1800 Y145.9641
G01 X112.0900 Y146.0541
G01 X112.0900 Y147.8895
G01 X112.0000 Y147.8895
G01 X112.0000 Y146.1441
G01 X111.9100 Y146.2341
G01 X111.9100 Y147.8895
G01 X111.8200 Y147.8895
G01 X111.8200 Y146.3241
G01 X111.7300 Y146.4141
G01 X111.7300 Y147.8895
G01 X111.6400 Y147.8895
G01 X111.6400 Y146.5041
G01 X111.5500 Y146.5941
G01 X111.5500 Y147.8895
G01 X111.4600 Y147.8895
G01 X111.4600 Y146.6841
G01 X111.3700 Y146.7741
G01 X111.3700 Y147.8895
G01 X111.2800 Y147.8895
G01 X111.2800 Y146.8641
G01 X111.1900 Y146.9541
G01 X111.1900 Y147.8895
G01 X111.1000 Y147.8895
G01 X111.1000 Y147.0441
G00 Z2.0000
G00 X110.4700 Y146.3827
G01 F60.00
G01 Z-2.4000
G01 F2000.00
G01 X110.4700 Y145.1341
G01 X110.5600 Y145.0441
G01 X110.5600 Y146.2927
G01 X110.6500 Y146.2027
G01 X110.6500 Y144.9541
G01 X110.7400 Y144.8641
G01 X110.7400 Y146.1127
G01 X110.8300 Y146.0227
G01 X110.8300 Y144.7741
G01 X110.9200 Y144.6841
G01 X110.9200 Y145.9327
G01 X111.0100 Y145.8427
G01 X111.0100 Y144.5941
G01 X111.1000 Y144.5041
G01 X111.1000 Y145.7527
G01 X111.1900 Y145.6627
G01 X111.1900 Y144.4141
G01 X111.2800 Y144.3241
G01 X111.2800 Y145.5727
G01 X111.3700 Y145.4827
G01 X111.3700 Y144.2341
G01 X111.4600 Y144.1441
G01 X111.4600 Y145.3927
G01 X111.5500 Y145.3027
G01 X111.5500 Y144.0541
G01 X111.6400 Y143.9641
G01 X111.6400 Y145.2127
G01 X111.7300 Y145.1227
G01 X111.7300 Y143.8741
G01 X111.8200 Y143.7841
G01 X111.8200 Y145.0327
G01 X111.9100 Y144.9427
G01 X111.9100 Y143.6941
G01 X112.0000 Y143.6041
G01 X112.0000 Y144.8527
G01 X112.0900 Y144.7627
G01 X112.0900 Y143.5141
G00 Z2.0000
G00 X112.1800 Y143.4229
G01 F60.00
G01 Z-2.4000
G01 F2000.00
G01 X112.1800 Y144.6727
G01 X112.2700 Y144.5827
G01 X112.2700 Y143.2781
G00 Z2.0000
G00 X111.3700 Y142.9427
G01 F60.00
G01 Z-2.4000
G01 F2000.00
G01 X111.3700 Y135.3441
G01 X111.2800 Y135.4341
G01 X111.2800 Y143.0327
G01 X111.1900 Y143.1227
G01 X111.1900 Y135.5241
G01 X111.1000 Y135.6141
G01 X111.1000 Y143.2127
G01 X111.0100 Y143.3027
G01 X111.0100 Y138.1704
G00 Z2.0000
G00 X110.9200 Y138.3322
G01 F60.00
G01 Z-2.4000
G01 F2000.00
G01 X110.9200 Y143.3927
G01 X110.8300 Y143.4827
G01 X110.8300 Y138.4119
G00 Z2.0000
G00 X110.7400 Y138.4618
G01 F60.00
G01 Z-2.4000
G01 F2000.00
G01 X110.7400 Y143.5727
G01 X110.6500 Y143.6627
G01 X110.6500 Y138.5068
G01 X110.5600 Y138.5518
G01 X110.5600 Y143.7527
G01 X110.4700 Y143.8427
G01 X110.4700 Y138.5968
G01 X110.3800 Y138.6418
G01 X110.3800 Y143.9327
G01 X110.2900 Y144.0227
G01 X110.2900 Y138.6868
G01 X110.2000 Y138.7318
G01 X110.2000 Y144.1127
G01 X110.1100 Y144.2027
G01 X110.1100 Y138.7768
G01 X110.0200 Y138.8218
G01 X110.0200 Y144.2927
G01 X109.9300 Y144.3827
G01 X109.9300 Y138.8668
G01 X109.8400 Y138.9118
G01 X109.8400 Y144.4727
G01 X109.7500 Y144.5627
G01 X109.7500 Y138.9568
G01 X109.6600 Y139.0018
G01 X109.6600 Y144.6527
G01 X109.5700 Y144.7427
G01 X109.5700 Y139.0468
G01 X109.4800 Y139.0918
G01 X109.4800 Y144.8327
G01 X109.3900 Y144.9227
G01 X109.3900 Y139.1368
G01 X109.3000 Y139.1818
G01 X109.3000 Y145.0127
G01 X109.2100 Y145.1027
G01 X109.2100 Y139.2268
G01 X109.1200 Y139.2718
G01 X109.1200 Y145.1919
G01 X109.0300 Y145.1892
G01 X109.0300 Y139.3168
G01 X108.9400 Y139.3618
G01 X108.9400 Y139.5725
G00 Z2.0000
G00 X108.8500 Y139.5723
G01 F60.00
G01 Z-2.4000
G01 F2000.00
G01 X108.8500 Y139.4068
G01 X108.7600 Y139.4518
G01 X108.7600 Y139.5723
G01 X108.6700 Y139.5723
G01 X108.6700 Y139.4968
G01 X108.5800 Y139.5418
G01 X108.5800 Y139.5723
G00 Z2.0000
G00 X107.0500 Y140.0294
G01 F60.00
G01 Z-2.4000
G01 F2000.00
G01 X107.0500 Y142.8095
G01 X106.9600 Y142.8095
G01 X106.9600 Y140.0526
G01 X106.8700 Y140.0757
G01 X106.8700 Y142.0162
G00 Z2.0000
G00 X106.7800 Y141.9208
G01 F60.00
G01 Z-2.4000
G01 F2000.00
G01 X106.7800 Y140.0989
G01 X106.6900 Y140.1221
G01 X106.6900 Y141.8578
G01 X106.6000 Y141.7678
G01 X106.6000 Y140.1453
G01 X106.5100 Y140.1685
G01 X106.5100 Y141.6778
G01 X106.4200 Y141.4943
G01 X106.4200 Y140.1917
G01 X106.3300 Y140.2149
G01 X106.3300 Y141.2904
G00 Z2.0000
G00 X106.2400 Y141.1814
G01 F60.00
G01 Z-2.4000
G01 F2000.00
G01 X106.2400 Y140.2381
G01 X106.1500 Y140.2613
G01 X106.1500 Y141.1193
G00 Z2.0000
G00 X106.0600 Y141.0837
G01 F60.00
G01 Z-2.4000
G01 F2000.00
G01 X106.0600 Y140.2845
G01 X105.9700 Y140.3077
G01 X105.9700 Y141.0681
G00 Z2.0000
G00 X105.8800 Y141.0706
G01 F60.00
G01 Z-2.4000
G01 F2000.00
G01 X105.8800 Y140.3309
G01 X105.7900 Y140.3541
G01 X105.7900 Y141.0897
G01 X105.7000 Y141.1129
G01 X105.7000 Y140.3773
G01 X105.6100 Y140.4005
G01 X105.6100 Y141.1361
G01 X105.5200 Y141.1593
G01 X105.5200 Y140.4236
G01 X105.4300 Y140.4468
G01 X105.4300 Y141.1825
G01 X105.3400 Y141.2057
G01 X105.3400 Y140.4700
G01 X105.2500 Y140.4932
G01 X105.2500 Y141.2289
G01 X105.1600 Y141.2521
G01 X105.1600 Y140.5164
G01 X105.0700 Y140.5396
G01 X105.0700 Y141.2753
G00 Z2.0000
G00 X104.9800 Y141.2998
G01 F60.00
G01 Z-2.4000
G01 F2000.00
G01 X104.9800 Y140.5628
G01 X104.8900 Y140.5860
G01 X104.8900 Y141.3396
G00 Z2.0000
G00 X104.8000 Y141.4074
G01 F60.00
G01 Z-2.4000
G01 F2000.00
G01 X104.8000 Y140.6092
G01 X104.7100 Y140.6324
G01 X104.7100 Y141.5319
G00 Z2.0000
G00 X104.6200 Y141.7451
G01 F60.00
G01 Z-2.4000
G01 F2000.00
G01 X104.6200 Y140.6556
G01 X104.5300 Y140.6788
G01 X104.5300 Y141.9303
G01 X104.4400 Y142.0203
G01 X104.4400 Y140.7020
G01 X104.3500 Y140.7252
G01 X104.3500 Y142.1103
G01 X104.2600 Y142.1545
G01 X104.2600 Y140.7484
G01 X104.1700 Y140.7715
G01 X104.1700 Y142.1918
G01 X104.0800 Y142.2291
G01 X104.0800 Y140.7947
G01 X103.9900 Y140.8179
G01 X103.9900 Y142.2382
G01 X103.9000 Y142.2382
G01 X103.9000 Y141.5256
G01 X103.8100 Y141.5256
G01 X103.8100 Y142.2382
G01 X103.7200 Y142.2382
G01 X103.7200 Y141.5256
G01 X103.6300 Y141.5256
G01 X103.6300 Y142.2382
G01 X103.5400 Y142.2382
G01 X103.5400 Y141.5256
G01 X103.4500 Y141.5256
G01 X103.4500 Y142.2382
G01 X103.3600 Y142.2382
G01 X103.3600 Y141.5256
G01 X103.2700 Y141.5256
G01 X103.2700 Y142.2382
G01 X103.1800 Y142.2382
G01 X103.1800 Y141.5256
G01 X103.0900 Y141.5256
G01 X103.0900 Y142.2382
G01 X103.0000 Y142.2382
G01 X103.0000 Y141.5256
G01 X102.9100 Y141.5256
G01 X102.9100 Y142.2382
G01 X102.8200 Y142.2382
G01 X102.8200 Y141.5256
G01 X102.7300 Y141.5256
G01 X102.7300 Y142.2382
G01 X102.6400 Y142.2382
G01 X102.6400 Y141.5256
G01 X102.5500 Y141.5256
G01 X102.5500 Y142.2382
G01 X102.4600 Y142.2382
G01 X102.4600 Y141.5256
G01 X102.3700 Y141.5256
G01 X102.3700 Y142.2382
G01 X102.2800 Y142.2382
G01 X102.2800 Y141.5183
G01 X102.0100 Y142.1784
G01 X102.0100 Y138.4908
G01 X102.1000 Y138.4908
G01 X102.1000 Y142.2157
G01 X102.1900 Y142.2382
G01 X102.1900 Y138.4908
G01 X101.9200 Y138.4908
G01 X101.9200 Y142.1411
G00 Z2.0000
G00 X101.8300 Y142.1054
G01 F60.00
G01 Z-2.4000
G01 F2000.00
G01 X101.8300 Y138.4908
G01 X101.7400 Y138.4908
G01 X101.7400 Y142.0848
G00 Z2.0000
G00 X101.6500 Y142.0826
G01 F60.00
G01 Z-2.4000
G01 F2000.00
G01 X101.6500 Y138.4908
G01 X101.5600 Y138.4908
G01 X101.5600 Y142.0985
G00 Z2.0000
G00 X101.4700 Y142.1321
G01 F60.00
G01 Z-2.4000
G01 F2000.00
G01 X101.4700 Y138.4908
G01 X101.3800 Y138.4908
G01 X101.3800 Y142.1694
G01 X101.2900 Y142.2067
G01 X101.2900 Y138.4908
G01 X101.2000 Y138.4908
G01 X101.2000 Y142.2382
G01 X101.1100 Y142.2382
G01 X101.1100 Y141.4906
G00 Z2.0000
G00 X101.0200 Y141.5256
G01 F60.00
G01 Z-2.4000
G01 F2000.00
G01 X101.0200 Y142.2382
G01 X100.9300 Y142.2382
G01 X100.9300 Y141.5256
G01 X100.8400 Y141.5256
G01 X100.8400 Y142.2382
G01 X100.7500 Y142.2382
G01 X100.7500 Y141.5256
G01 X100.6600 Y141.5256
G01 X100.6600 Y142.2382
G01 X100.5700 Y142.2382
G01 X100.5700 Y141.5256
G01 X100.4800 Y141.5256
G01 X100.4800 Y142.2382
G01 X100.3900 Y142.2382
G01 X100.3900 Y141.5256
G01 X100.3000 Y141.5256
G01 X100.3000 Y142.2382
G01 X100.2100 Y142.2382
G01 X100.2100 Y141.5256
G01 X100.1200 Y141.5256
G01 X100.1200 Y142.2382
G01 X100.0300 Y142.2382
G01 X100.0300 Y141.5256
G01 X99.9400 Y141.5256
G01 X99.9400 Y142.2382
G01 X99.8500 Y142.2382
G01 X99.8500 Y141.5256
G01 X99.7600 Y141.5256
G01 X99.7600 Y142.2382
G01 X99.6700 Y142.2382
G01 X99.6700 Y141.5256
G01 X99.5800 Y141.5256
G01 X99.5800 Y142.2382
G01 X99.4900 Y142.2382
G01 X99.4900 Y141.5256
G00 Z2.0000
G00 X99.8500 Y139.6228
G01 F60.00
G01 Z-2.4000
G01 F2000.00
G01 X99.8500 Y138.4908
G01 X99.7600 Y138.4908
G01 X99.7600 Y139.6228
G01 X99.6700 Y139.6228
G01 X99.6700 Y138.4908
G01 X99.5800 Y138.4908
G01 X99.5800 Y139.6228
G01 X99.4900 Y139.6228
G01 X99.4900 Y138.4908
G01 X99.4000 Y138.4908
G01 X99.4000 Y142.2382
G01 X99.3100 Y142.2380
G01 X99.3100 Y138.4908
G01 X99.2200 Y138.4908
G01 X99.2200 Y142.2007
G01 X99.1300 Y142.1634
G01 X99.1300 Y138.4908
G01 X99.0400 Y138.4908
G01 X99.0400 Y142.1262
G01 X98.9500 Y142.0419
G01 X98.9500 Y138.4908
G01 X98.8600 Y138.4908
G01 X98.8600 Y141.9519
G01 X98.7700 Y141.7972
G01 X98.7700 Y138.4908
G01 X98.6800 Y138.4908
G01 X98.6800 Y139.5274
G00 Z2.0000
G00 X100.8400 Y139.6228
G01 F60.00
G01 Z-2.4000
G01 F2000.00
G01 X100.8400 Y138.5630
G01 X100.9300 Y138.4908
G01 X100.9300 Y139.6228
G01 X101.0200 Y139.6228
G01 X101.0200 Y138.4908
G01 X101.1100 Y138.4908
G01 X101.1100 Y139.6578
G00 Z2.0000
G00 X102.2561 Y139.6728
G01 F60.00
G01 Z-2.4000
G01 F2000.00
G01 X102.2571 Y139.6630
G01 X102.2599 Y139.6536
G01 X102.2645 Y139.6450
G01 X102.2699 Y139.6383
G01 X102.2773 Y139.6319
G01 X102.2859 Y139.6270
G01 X102.2952 Y139.6240
G01 X102.3049 Y139.6228
G01 X103.9061 Y139.6228
G01 X103.9122 Y139.6231
G01 X103.9206 Y139.6249
G01 X103.9274 Y139.6276
G01 X103.9338 Y139.6312
G01 X103.9405 Y139.6365
G01 X103.9462 Y139.6430
G01 X103.9502 Y139.6492
G01 X103.9535 Y139.6571
G01 X103.9553 Y139.6642
G01 X103.9561 Y139.6728
G01 X103.9561 Y139.8836
G01 X107.8733 Y138.8741
G01 X110.1176 Y137.7520
G01 X110.1176 Y135.4930
G01 X110.1198 Y135.4494
G01 X110.1264 Y135.4051
G01 X110.1373 Y135.3617
G01 X110.1515 Y135.3218
G01 X110.1715 Y135.2790
G01 X110.1946 Y135.2405
G01 X110.2212 Y135.2045
G01 X110.2505 Y135.1722
G01 X111.5213 Y133.9013
G01 X111.5555 Y133.8705
G01 X111.5905 Y133.8446
G01 X111.6268 Y133.8227
G01 X111.6695 Y133.8024
G01 X111.7117 Y133.7873
G01 X111.7527 Y133.7769
G01 X111.8007 Y133.7697
G01 X111.8442 Y133.7676
G01 X113.1741 Y133.7676
G01 X113.2189 Y133.7698
G01 X113.2632 Y133.7764
G01 X113.3067 Y133.7873
G01 X113.3466 Y133.8015
G01 X113.3894 Y133.8215
G01 X113.4257 Y133.8432
G01 X113.4619 Y133.8697
G01 X113.4672 Y133.8742
G01 X114.2753 Y133.8742
G01 X114.2826 Y133.8750
G01 X114.2898 Y133.8768
G01 X114.2966 Y133.8796
G01 X114.3019 Y133.8827
G01 X114.3067 Y133.8864
G01 X114.3119 Y133.8916
G01 X114.3163 Y133.8975
G01 X114.3193 Y133.9029
G01 X114.3212 Y133.9074
G01 X114.3229 Y133.9133
G01 X114.3238 Y133.9193
G01 X114.3241 Y133.9242
G01 X114.3241 Y134.5254
G01 X114.3235 Y134.5315
G01 X114.3223 Y134.5375
G01 X114.3203 Y134.5433
G01 X114.3170 Y134.5499
G01 X114.3127 Y134.5559
G01 X114.3086 Y134.5604
G01 X114.3029 Y134.5651
G01 X114.2977 Y134.5683
G01 X114.2921 Y134.5708
G01 X114.2862 Y134.5727
G01 X114.2802 Y134.5738
G01 X114.2741 Y134.5742
G01 X113.4672 Y134.5742
G01 X113.4619 Y134.5787
G01 X113.4257 Y134.6052
G01 X113.3894 Y134.6269
G01 X113.3489 Y134.6460
G01 X113.3067 Y134.6611
G01 X113.2656 Y134.6715
G01 X113.2165 Y134.6788
G01 X113.1741 Y134.6808
G01 X112.0333 Y134.6808
G01 X111.0308 Y135.6833
G01 X111.0308 Y138.0355
G01 X111.0285 Y138.0801
G01 X111.0220 Y138.1230
G01 X111.0101 Y138.1700
G01 X110.9933 Y138.2154
G01 X110.9742 Y138.2544
G01 X110.9507 Y138.2924
G01 X110.9221 Y138.3299
G01 X110.8888 Y138.3651
G01 X110.8559 Y138.3935
G01 X110.8205 Y138.4186
G01 X110.7795 Y138.4420
G01 X108.5189 Y139.5723
G01 X108.9393 Y139.5725
G01 X108.9478 Y139.5738
G01 X108.9548 Y139.5761
G01 X108.9624 Y139.5801
G01 X108.9683 Y139.5845
G01 X108.9735 Y139.5897
G01 X108.9779 Y139.5956
G01 X108.9814 Y139.6021
G01 X108.9841 Y139.6102
G01 X108.9853 Y139.6162
G01 X108.9856 Y139.6223
G01 X108.9856 Y141.2235
G01 X108.9849 Y141.2308
G01 X108.9835 Y141.2368
G01 X108.9808 Y141.2437
G01 X108.9772 Y141.2501
G01 X108.9727 Y141.2559
G01 X108.9683 Y141.2601
G01 X108.9624 Y141.2645
G01 X108.9570 Y141.2675
G01 X108.9513 Y141.2698
G01 X108.9466 Y141.2711
G01 X108.9418 Y141.2719
G01 X108.9356 Y141.2723
G01 X107.1328 Y141.2723
G01 X107.1254 Y141.2717
G01 X107.1182 Y141.2701
G01 X107.1114 Y141.2675
G01 X107.1050 Y141.2639
G01 X107.1010 Y141.2609
G01 X107.0965 Y141.2568
G01 X107.0926 Y141.2521
G01 X107.0893 Y141.2469
G01 X107.0866 Y141.2414
G01 X107.0846 Y141.2356
G01 X107.0833 Y141.2296
G01 X107.0828 Y141.2235
G01 X107.0828 Y140.0209
G01 X103.9561 Y140.8267
G01 X103.9560 Y141.4781
G01 X103.9551 Y141.4854
G01 X103.9527 Y141.4936
G01 X103.9496 Y141.5003
G01 X103.9455 Y141.5064
G01 X103.9396 Y141.5127
G01 X103.9338 Y141.5172
G01 X103.9274 Y141.5208
G01 X103.9206 Y141.5235
G01 X103.9134 Y141.5251
G01 X103.9061 Y141.5256
G01 X102.3061 Y141.5256
G01 X102.3000 Y141.5253
G01 X102.2940 Y141.5241
G01 X102.2859 Y141.5214
G01 X102.2794 Y141.5179
G01 X102.2725 Y141.5127
G01 X102.2675 Y141.5074
G01 X102.2632 Y141.5013
G01 X102.2595 Y141.4936
G01 X102.2571 Y141.4854
G01 X102.2561 Y141.4769
G01 X102.2561 Y139.6728
G00 Z2.0000
G00 X102.2800 Y139.6301
G01 F60.00
G01 Z-2.4000
G01 F2000.00
G01 X102.2800 Y138.4908
G01 X102.3700 Y138.4908
G01 X102.3700 Y139.6228
G01 X102.4600 Y139.6228
G01 X102.4600 Y138.4908
G01 X102.5500 Y138.4908
G01 X102.5500 Y139.6228
G01 X102.6400 Y139.6228
G01 X102.6400 Y138.4908
G01 X102.7300 Y138.4908
G01 X102.7300 Y139.6228
G01 X102.8200 Y139.6228
G01 X102.8200 Y138.4908
G01 X102.9100 Y138.4908
G01 X102.9100 Y139.6228
G01 X103.0000 Y139.6228
G01 X103.0000 Y138.4908
G01 X103.0900 Y138.4908
G01 X103.0900 Y139.6228
G01 X103.1800 Y139.6228
G01 X103.1800 Y138.4908
G01 X103.2700 Y138.4908
G01 X103.2700 Y139.6228
G01 X103.3600 Y139.6228
G01 X103.3600 Y138.4908
G01 X103.4500 Y138.4908
G01 X103.4500 Y139.6228
G01 X103.5400 Y139.6228
G01 X103.5400 Y138.4908
G01 X103.6300 Y138.4908
G01 X103.6300 Y139.6228
G01 X103.7200 Y139.6228
G01 X103.7200 Y138.4908
G01 X103.8100 Y138.4908
G01 X103.8100 Y139.6228
G01 X103.9000 Y139.6228
G01 X103.9000 Y138.4908
G01 X103.9900 Y138.4908
G01 X103.9900 Y139.8749
G01 X104.0800 Y139.8517
G01 X104.0800 Y138.4908
G01 X104.1700 Y138.4908
G01 X104.1700 Y139.8285
G01 X104.2600 Y139.8053
G01 X104.2600 Y138.4908
G01 X104.3500 Y138.4908
G01 X104.3500 Y139.7821
G01 X104.4400 Y139.7589
G01 X104.4400 Y138.4908
G01 X104.5300 Y138.4908
G01 X104.5300 Y139.7357
G01 X104.6200 Y139.7125
G01 X104.6200 Y138.4908
G01 X104.7100 Y138.4908
G01 X104.7100 Y139.6893
G01 X104.8000 Y139.6661
G01 X104.8000 Y138.4908
G01 X104.8900 Y138.4908
G01 X104.8900 Y139.6430
G01 X104.9800 Y139.6198
G01 X104.9800 Y138.4908
G01 X105.0700 Y138.4908
G01 X105.0700 Y139.5966
G01 X105.1600 Y139.5734
G01 X105.1600 Y138.4908
G01 X105.2500 Y138.4908
G01 X105.2500 Y139.5502
G01 X105.3400 Y139.5270
G01 X105.3400 Y138.4908
G01 X105.4300 Y138.4908
G01 X105.4300 Y139.5038
G01 X105.5200 Y139.4806
G01 X105.5200 Y138.4896
G00 Z2.0000
G00 X105.6100 Y138.4754
G01 F60.00
G01 Z-2.4000
G01 F2000.00
G01 X105.6100 Y139.4574
G01 X105.7000 Y139.4342
G01 X105.7000 Y138.4414
G00 Z2.0000
G00 X105.7900 Y138.3817
G01 F60.00
G01 Z-2.4000
G01 F2000.00
G01 X105.7900 Y139.4110
G01 X105.8800 Y139.3878
G01 X105.8800 Y138.2941
G01 X105.9700 Y138.2041
G01 X105.9700 Y139.3646
G01 X106.0600 Y139.3414
G01 X106.0600 Y138.1141
G01 X106.1500 Y138.0241
G01 X106.1500 Y139.3182
G01 X106.2400 Y139.2951
G01 X106.2400 Y137.9341
G01 X106.3300 Y137.8441
G01 X106.3300 Y139.2719
G01 X106.4200 Y139.2487
G01 X106.4200 Y137.7541
G01 X106.5100 Y137.6641
G01 X106.5100 Y139.2255
G01 X106.6000 Y139.2023
G01 X106.6000 Y137.5741
G01 X106.6900 Y137.4841
G01 X106.6900 Y139.1791
G01 X106.7800 Y139.1559
G01 X106.7800 Y137.3941
G01 X106.8700 Y137.3041
G01 X106.8700 Y139.1327
G01 X106.9600 Y139.1095
G01 X106.9600 Y137.2208
G01 X107.0500 Y137.2208
G01 X107.0500 Y139.0863
G01 X107.1400 Y139.0631
G01 X107.1400 Y137.2208
G01 X107.2300 Y137.2208
G01 X107.2300 Y139.0399
G01 X107.3200 Y139.0167
G01 X107.3200 Y137.2208
G01 X107.4100 Y137.2208
G01 X107.4100 Y138.9935
G01 X107.5000 Y138.9703
G01 X107.5000 Y137.2208
G01 X107.5900 Y137.2208
G01 X107.5900 Y138.9472
G01 X107.6800 Y138.9240
G01 X107.6800 Y137.2208
G01 X107.7700 Y137.2208
G01 X107.7700 Y138.9008
G01 X107.8600 Y138.8776
G01 X107.8600 Y137.2208
G01 X107.9500 Y137.2208
G01 X107.9500 Y138.8358
G01 X108.0400 Y138.7908
G01 X108.0400 Y137.2156
G00 Z2.0000
G00 X108.1300 Y137.1929
G01 F60.00
G01 Z-2.4000
G01 F2000.00
G01 X108.1300 Y138.7458
G01 X108.2200 Y138.7008
G01 X108.2200 Y137.1487
G01 X108.3100 Y137.1142
G01 X108.3100 Y138.6558
G01 X108.4000 Y138.6108
G01 X108.4000 Y137.1142
G01 X108.4900 Y137.1142
G01 X108.4900 Y138.5658
G01 X108.5800 Y138.5208
G01 X108.5800 Y137.1142
G01 X108.6700 Y137.1142
G01 X108.6700 Y138.4758
G01 X108.7600 Y138.4308
G01 X108.7600 Y137.1142
G01 X108.8500 Y137.1142
G01 X108.8500 Y138.3858
G01 X108.9400 Y138.3408
G01 X108.9400 Y137.1142
G01 X109.0300 Y137.1142
G01 X109.0300 Y138.2958
G01 X109.1200 Y138.2508
G01 X109.1200 Y137.0842
G00 Z2.0000
G00 X109.1200 Y136.4442
G01 F60.00
G01 Z-2.4000
G01 F2000.00
G01 X109.1200 Y135.8142
G00 Z2.0000
G00 X109.0300 Y135.8442
G01 F60.00
G01 Z-2.4000
G01 F2000.00
G01 X109.0300 Y136.4142
G01 X108.9400 Y136.4142
G01 X108.9400 Y135.8442
G01 X108.8500 Y135.8442
G01 X108.8500 Y136.4142
G01 X108.7600 Y136.4142
G01 X108.7600 Y135.8442
G01 X108.6700 Y135.8442
G01 X108.6700 Y136.4142
G01 X108.5800 Y136.4142
G01 X108.5800 Y135.8442
G01 X108.4900 Y135.8442
G01 X108.4900 Y136.4142
G01 X108.4000 Y136.4142
G01 X108.4000 Y135.8442
G01 X108.3100 Y135.8442
G01 X108.3100 Y136.4142
G01 X108.2200 Y136.3797
G01 X108.2200 Y135.8787
G00 Z2.0000
G00 X108.1300 Y135.9229
G01 F60.00
G01 Z-2.4000
G01 F2000.00
G01 X108.1300 Y136.3355
G00 Z2.0000
G00 X108.0400 Y136.3129
G01 F60.00
G01 Z-2.4000
G01 F2000.00
G01 X108.0400 Y135.9456
G00 Z2.0000
G00 X107.9500 Y135.9508
G01 F60.00
G01 Z-2.4000
G01 F2000.00
G01 X107.9500 Y136.3076
G01 X107.8600 Y136.3076
G01 X107.8600 Y135.9508
G01 X107.7700 Y135.9508
G01 X107.7700 Y136.3076
G01 X107.6800 Y136.3076
G01 X107.6800 Y135.9508
G01 X107.5900 Y135.9508
G01 X107.5900 Y136.3076
G01 X107.5000 Y136.3076
G01 X107.5000 Y135.9508
G01 X107.4100 Y135.9508
G01 X107.4100 Y136.3076
G01 X107.3200 Y136.3076
G01 X107.3200 Y135.9508
G01 X107.2300 Y135.9508
G01 X107.2300 Y136.3076
G01 X107.1400 Y136.3076
G01 X107.1400 Y135.9508
G01 X107.0500 Y135.9508
G01 X107.0500 Y136.3076
G01 X106.9600 Y136.3076
G01 X106.9600 Y135.9508
G01 X106.8700 Y135.9508
G01 X106.8700 Y136.3076
G01 X106.7800 Y136.3076
G01 X106.7800 Y135.9508
G01 X106.6900 Y135.9508
G01 X106.6900 Y136.3141
G00 Z2.0000
G00 X106.6000 Y136.3385
G01 F60.00
G01 Z-2.4000
G01 F2000.00
G01 X106.6000 Y135.9508
G01 X106.5100 Y135.9508
G01 X106.5100 Y136.3849
G00 Z2.0000
G00 X106.4200 Y136.4627
G01 F60.00
G01 Z-2.4000
G01 F2000.00
G01 X106.4200 Y135.9508
G01 X106.3300 Y135.9508
G01 X106.3300 Y136.5527
G01 X106.2400 Y136.6427
G01 X106.2400 Y135.9508
G01 X106.1500 Y135.9508
G01 X106.1500 Y136.7327
G01 X106.0600 Y136.8227
G01 X106.0600 Y135.9508
G01 X105.9700 Y135.9508
G01 X105.9700 Y136.9127
G01 X105.8800 Y137.0027
G01 X105.8800 Y135.9508
G01 X105.7900 Y135.9508
G01 X105.7900 Y137.0927
G01 X105.7000 Y137.1827
G01 X105.7000 Y135.9508
G01 X105.6100 Y136.0241
G01 X105.6100 Y137.2727
G01 X105.5200 Y137.3627
G01 X105.5200 Y136.1141
G01 X105.4300 Y136.2041
G01 X105.4300 Y137.4527
G01 X105.3400 Y137.5427
G01 X105.3400 Y136.2941
G01 X105.2500 Y136.3841
G01 X105.2500 Y137.5776
G01 X105.1600 Y137.5776
G01 X105.1600 Y136.4741
G01 X105.0700 Y136.5641
G01 X105.0700 Y137.5776
G01 X104.9800 Y137.5776
G01 X104.9800 Y136.6541
G01 X104.8900 Y136.7441
G01 X104.8900 Y137.5776
G01 X104.8000 Y137.5776
G01 X104.8000 Y136.8341
G01 X104.7100 Y136.9241
G01 X104.7100 Y137.5776
G01 X104.6200 Y137.5776
G01 X104.6200 Y137.0141
G00 Z2.0000
G00 X104.5300 Y137.1026
G01 F60.00
G01 Z-2.4000
G01 F2000.00
G01 X104.5300 Y137.5776
G01 X104.4400 Y137.5776
G01 X104.4400 Y137.1666
G00 Z2.0000
G00 X104.3500 Y137.2029
G01 F60.00
G01 Z-2.4000
G01 F2000.00
G01 X104.3500 Y137.5776
G01 X104.2600 Y137.5776
G01 X104.2600 Y137.2191
G00 Z2.0000
G00 X104.1700 Y137.2208
G01 F60.00
G01 Z-2.4000
G01 F2000.00
G01 X104.1700 Y137.5776
G01 X104.0800 Y137.5776
G01 X104.0800 Y137.2208
G01 X103.9900 Y137.2208
G01 X103.9900 Y137.5776
G01 X103.9000 Y137.5776
G01 X103.9000 Y137.2208
G01 X103.8100 Y137.2208
G01 X103.8100 Y137.5776
G01 X103.7200 Y137.5776
G01 X103.7200 Y137.2208
G01 X103.6300 Y137.2208
G01 X103.6300 Y137.5776
G01 X103.5400 Y137.5776
G01 X103.5400 Y137.2208
G01 X103.4500 Y137.2208
G01 X103.4500 Y137.5776
G01 X103.3600 Y137.5776
G01 X103.3600 Y137.2208
G01 X103.2700 Y137.2208
G01 X103.2700 Y137.5776
G01 X103.1800 Y137.5776
G01 X103.1800 Y137.2208
G01 X103.0900 Y137.2208
G01 X103.0900 Y137.5776
G01 X103.0000 Y137.5776
G01 X103.0000 Y137.2208
G01 X102.9100 Y137.2208
G01 X102.9100 Y137.5776
G01 X102.8200 Y137.5776
G01 X102.8200 Y137.2208
G01 X102.7300 Y137.2208
G01 X102.7300 Y137.5776
G01 X102.6400 Y137.5776
G01 X102.6400 Y137.2208
G01 X102.5500 Y137.2208
G01 X102.5500 Y137.5776
G01 X102.4600 Y137.5776
G01 X102.4600 Y137.2208
G01 X102.3700 Y137.2208
G01 X102.3700 Y137.5776
G01 X102.2800 Y137.5776
G01 X102.2800 Y137.2208
G01 X102.1900 Y137.2208
G01 X102.1900 Y137.5776
G01 X102.1000 Y137.5776
G01 X102.1000 Y137.2208
G01 X102.0100 Y137.2208
G01 X102.0100 Y137.5776
G01 X101.9200 Y137.5776
G01 X101.9200 Y137.2208
G01 X101.8300 Y137.2208
G01 X101.8300 Y137.5776
G01 X101.7400 Y137.5776
G01 X101.7400 Y137.2208
G01 X101.6500 Y137.2208
G01 X101.6500 Y137.5776
G01 X101.5600 Y137.5776
G01 X101.5600 Y137.2208
G01 X101.4700 Y137.2208
G01 X101.4700 Y137.5776
G01 X101.3800 Y137.5776
G01 X101.3800 Y137.2208
G01 X101.2900 Y137.2208
G01 X101.2900 Y137.5776
G01 X101.2000 Y137.5776
G01 X101.2000 Y137.2208
G01 X101.1100 Y137.2208
G01 X101.1100 Y137.5776
G01 X101.0200 Y137.5776
G01 X101.0200 Y137.2208
G01 X100.9300 Y137.2208
G01 X100.9300 Y137.5776
G01 X100.8400 Y137.5776
G01 X100.8400 Y137.2208
G01 X100.7500 Y137.2208
G01 X100.7500 Y137.5776
G01 X100.6600 Y137.5776
G01 X100.6600 Y137.2208
G01 X100.5700 Y137.2208
G01 X100.5700 Y137.5776
G01 X100.4800 Y137.5776
G01 X100.4800 Y137.2208
G01 X100.3900 Y137.2208
G01 X100.3900 Y137.5776
G01 X100.3000 Y137.5776
G01 X100.3000 Y137.2208
G01 X100.2100 Y137.2208
G01 X100.2100 Y137.5776
G01 X100.1200 Y137.5776
G01 X100.1200 Y137.2208
G01 X100.0300 Y137.2208
G01 X100.0300 Y137.5776
G01 X99.9400 Y137.5776
G01 X99.9400 Y137.2208
G01 X99.8500 Y137.2208
G01 X99.8500 Y137.5776
G01 X99.7600 Y137.5776
G01 X99.7600 Y137.2208
G01 X99.6700 Y137.2208
G01 X99.6700 Y137.5776
G01 X99.5800 Y137.5776
G01 X99.5800 Y137.2208
G01 X99.4900 Y137.2208
G01 X99.4900 Y137.5776
G01 X99.4000 Y137.5776
G01 X99.4000 Y137.2208
G01 X99.3100 Y137.2208
G01 X99.3100 Y137.5776
G01 X99.2200 Y137.5776
G01 X99.2200 Y137.2208
G00 Z2.0000
G00 X99.1300 Y137.2202
G01 F60.00
G01 Z-2.4000
G01 F2000.00
G01 X99.1300 Y137.5776
G01 X99.0400 Y137.5776
G01 X99.0400 Y137.2083
G00 Z2.0000
G00 X98.9500 Y137.1769
G01 F60.00
G01 Z-2.4000
G01 F2000.00
G01 X98.9500 Y137.5776
G01 X98.8600 Y137.5776
G01 X98.8600 Y137.1213
G00 Z2.0000
G00 X98.7700 Y137.0357
G01 F60.00
G01 Z-2.4000
G01 F2000.00
G01 X98.7700 Y137.5776
G01 X98.6800 Y137.5776
G01 X98.6800 Y136.9457
G01 X98.5900 Y136.8557
G01 X98.5900 Y137.5776
G01 X98.5000 Y137.5776
G01 X98.5000 Y136.7657
G01 X98.4100 Y136.6757
G01 X98.4100 Y137.5776
G01 X98.3200 Y137.5776
G01 X98.3200 Y136.5857
G01 X98.2300 Y136.4957
G01 X98.2300 Y137.5776
G01 X98.1400 Y137.5776
G01 X98.1400 Y136.4057
G01 X98.0500 Y136.3157
G01 X98.0500 Y137.5643
G01 X97.9600 Y137.4743
G01 X97.9600 Y136.2257
G01 X97.8700 Y136.1357
G01 X97.8700 Y137.3843
G01 X97.7800 Y137.2943
G01 X97.7800 Y136.0457
G01 X97.6900 Y135.9557
G01 X97.6900 Y137.2043
G01 X97.6000 Y137.1143
G01 X97.6000 Y135.8657
G00 Z2.0000
G00 X97.5100 Y135.7688
G01 F60.00
G01 Z-2.4000
G01 F2000.00
G01 X97.5100 Y137.0243
G01 X97.4200 Y136.9343
G01 X97.4200 Y135.5387
G00 Z2.0000
G00 X97.4200 Y135.3498
G01 F60.00
G01 Z-2.4000
G01 F2000.00
G01 X97.4200 Y123.8424
G01 X97.5100 Y123.7456
G01 X97.5100 Y130.0823
G00 Z2.0000
G00 X98.4100 Y130.8628
G01 F60.00
G01 Z-2.4000
G01 F2000.00
G01 X98.4100 Y135.3843
G01 X98.5000 Y135.4743
G01 X98.5000 Y126.7569
G01 X98.5900 Y126.6547
G01 X98.5900 Y135.5643
G01 X98.6800 Y135.6543
G01 X98.6800 Y126.5524
G01 X98.7700 Y126.4502
G01 X98.7700 Y135.7443
G01 X98.8600 Y135.8343
G01 X98.8600 Y126.3480
G01 X98.9500 Y126.2458
G01 X98.9500 Y135.9243
G01 X99.0400 Y136.0143
G01 X99.0400 Y126.1435
G01 X99.1300 Y126.0413
G01 X99.1300 Y130.6413
G00 Z2.0000
G00 X99.2200 Y130.4268
G01 F60.00
G01 Z-2.4000
G01 F2000.00
G01 X99.2200 Y127.7727
G00 Z2.0000
G00 X99.3100 Y127.9044
G01 F60.00
G01 Z-2.4000
G01 F2000.00
G01 X99.3100 Y130.3382
G00 Z2.0000
G00 X99.4000 Y130.2860
G01 F60.00
G01 Z-2.4000
G01 F2000.00
G01 X99.4000 Y127.9747
G00 Z2.0000
G00 X99.4900 Y128.0164
G01 F60.00
G01 Z-2.4000
G01 F2000.00
G01 X99.4900 Y128.1942
G00 Z2.0000
G00 X99.4342 Y128.2442
G01 F60.00
G01 Z-2.4000
G01 F2000.00
G01 X99.4349 Y128.2356
G01 X99.4371 Y128.2273
G01 X99.4407 Y128.2195
G01 X99.4463 Y128.2115
G01 X99.4534 Y128.2047
G01 X99.4606 Y128.2001
G01 X99.4685 Y128.1967
G01 X99.4781 Y128.1945
G01 X99.4842 Y128.1942
G01 X99.8275 Y128.1942
G01 X99.8276 Y128.0405
G01 X99.6352 Y128.0405
G01 X99.5899 Y128.0382
G01 X99.5427 Y128.0310
G01 X99.5012 Y128.0204
G01 X99.4586 Y128.0050
G01 X99.4178 Y127.9854
G01 X99.3812 Y127.9632
G01 X99.3410 Y127.9330
G01 X99.3096 Y127.9040
G01 X99.2794 Y127.8701
G01 X99.2528 Y127.8335
G01 X99.2306 Y127.7954
G01 X99.2111 Y127.7532
G01 X99.1964 Y127.7103
G01 X99.1861 Y127.6662
G01 X99.1801 Y127.6213
G01 X99.1786 Y127.5760
G01 X99.1847 Y127.2217
G01 X99.1878 Y127.1758
G01 X99.1961 Y127.1281
G01 X99.2077 Y127.0862
G01 X99.2234 Y127.0457
G01 X99.2452 Y127.0024
G01 X99.2700 Y126.9638
G01 X99.2986 Y126.9278
G01 X99.9874 Y126.1455
G01 X100.0062 Y126.1255
G01 X101.1724 Y124.9593
G01 X101.2117 Y124.9243
G01 X101.3195 Y124.8393
G01 X101.3251 Y124.8296
G01 X101.3472 Y124.7945
G01 X101.3710 Y124.7633
G01 X101.3974 Y124.7343
G01 X101.4052 Y124.7264
G01 X101.4438 Y124.6331
G01 X101.4631 Y124.5926
G01 X101.4855 Y124.5552
G01 X101.5107 Y124.5212
G01 X101.5422 Y124.4860
G01 X101.5773 Y124.4544
G01 X101.6114 Y124.4292
G01 X101.6487 Y124.4067
G01 X101.6891 Y124.3875
G01 X101.7980 Y124.3422
G01 X102.0127 Y124.1276
G01 X102.0429 Y124.0547
G01 X102.0628 Y124.0131
G01 X102.0847 Y123.9768
G01 X102.1099 Y123.9427
G01 X102.1415 Y123.9076
G01 X102.1767 Y123.8760
G01 X102.2108 Y123.8508
G01 X102.2471 Y123.8290
G01 X102.2887 Y123.8091
G01 X102.3464 Y123.7852
G01 X103.3056 Y122.8261
G01 X103.3379 Y122.7968
G01 X103.3719 Y122.7716
G01 X103.4134 Y122.7465
G01 X103.4551 Y122.7271
G01 X103.4950 Y122.7129
G01 X103.5361 Y122.7025
G01 X103.5828 Y122.6954
G01 X103.6276 Y122.6932
G01 X104.8221 Y122.6932
G01 X104.8656 Y122.6954
G01 X104.9099 Y122.7020
G01 X104.9534 Y122.7129
G01 X104.9944 Y122.7275
G01 X105.0361 Y122.7471
G01 X105.0745 Y122.7702
G01 X105.1105 Y122.7968
G01 X105.1428 Y122.8261
G01 X105.8804 Y123.5637
G01 X105.9106 Y123.5971
G01 X106.0058 Y123.7139
G01 X106.0374 Y123.7330
G01 X106.0714 Y123.7581
G01 X106.1014 Y123.7850
G01 X106.2408 Y123.8427
G01 X106.2815 Y123.8619
G01 X107.3214 Y124.4216
G01 X107.3617 Y124.4461
G01 X107.3955 Y124.4714
G01 X107.4286 Y124.5015
G01 X107.4600 Y124.5366
G01 X107.4851 Y124.5706
G01 X107.5068 Y124.6068
G01 X107.5271 Y124.6494
G01 X107.5425 Y124.6926
G01 X107.5534 Y124.7372
G01 X107.5595 Y124.7790
G01 X107.5616 Y124.8212
G01 X107.5617 Y125.1159
G01 X107.6776 Y125.3962
G01 X107.8922 Y125.6108
G01 X108.1724 Y125.7267
G01 X109.0553 Y125.7267
G01 X109.1000 Y125.7289
G01 X109.1468 Y125.7360
G01 X109.1902 Y125.7472
G01 X109.2300 Y125.7615
G01 X109.2683 Y125.7795
G01 X109.3090 Y125.8037
G01 X109.3449 Y125.8304
G01 X109.3781 Y125.8605
G01 X109.4097 Y125.8956
G01 X109.4349 Y125.9296
G01 X109.4568 Y125.9659
G01 X109.4766 Y126.0075
G01 X109.4929 Y126.0531
G01 X109.5031 Y126.0942
G01 X109.5094 Y126.1361
G01 X109.5119 Y126.1833
G01 X109.5094 Y126.2305
G01 X109.5031 Y126.2724
G01 X109.4915 Y126.3182
G01 X109.4771 Y126.3581
G01 X109.4052 Y126.5317
G01 X109.4052 Y127.6250
G01 X109.4029 Y127.6710
G01 X109.3964 Y127.7141
G01 X109.3855 Y127.7576
G01 X109.3704 Y127.7998
G01 X109.3513 Y127.8403
G01 X109.3283 Y127.8787
G01 X109.3016 Y127.9147
G01 X109.2715 Y127.9479
G01 X109.2373 Y127.9788
G01 X109.2023 Y128.0047
G01 X109.1660 Y128.0265
G01 X109.1210 Y128.0478
G01 X109.0811 Y128.0620
G01 X109.0377 Y128.0729
G01 X108.9934 Y128.0794
G01 X108.9511 Y128.0816
G01 X108.5544 Y128.0816
G01 X108.5072 Y128.0791
G01 X108.4653 Y128.0728
G01 X108.4195 Y128.0612
G01 X108.3796 Y128.0468
G01 X108.2067 Y127.9752
G01 X107.7417 Y127.9752
G01 X107.5685 Y128.0469
G01 X107.5287 Y128.0612
G01 X107.4829 Y128.0729
G01 X107.4386 Y128.0794
G01 X107.3939 Y128.0816
G01 X106.7225 Y128.0816
G01 X106.4422 Y128.1978
G01 X106.2277 Y128.4123
G01 X106.1116 Y128.6925
G01 X106.1116 Y129.5958
G01 X106.1160 Y129.6065
G01 X106.1302 Y129.6465
G01 X106.1411 Y129.6900
G01 X106.1477 Y129.7344
G01 X106.1499 Y129.7804
G01 X106.1477 Y129.8240
G01 X106.1411 Y129.8684
G01 X106.1302 Y129.9119
G01 X106.1160 Y129.9519
G01 X106.1116 Y129.9626
G01 X106.1115 Y130.1050
G01 X106.1094 Y130.1475
G01 X106.1030 Y130.1907
G01 X106.0918 Y130.2355
G01 X106.0775 Y130.2756
G01 X106.0584 Y130.3163
G01 X106.0524 Y130.3267
G01 X106.9533 Y131.2276
G01 X107.9743 Y131.2276
G01 X108.0166 Y131.2296
G01 X108.0657 Y131.2369
G01 X108.1068 Y131.2473
G01 X108.1490 Y131.2624
G01 X108.1895 Y131.2815
G01 X108.2259 Y131.3032
G01 X108.2620 Y131.3297
G01 X108.2673 Y131.3342
G01 X109.0742 Y131.3342
G01 X109.0803 Y131.3346
G01 X109.0864 Y131.3357
G01 X109.0922 Y131.3376
G01 X109.0978 Y131.3401
G01 X109.1030 Y131.3434
G01 X109.1087 Y131.3480
G01 X109.1129 Y131.3525
G01 X109.1164 Y131.3575
G01 X109.1194 Y131.3629
G01 X109.1220 Y131.3697
G01 X109.1237 Y131.3769
G01 X109.1242 Y131.3830
G01 X109.1242 Y131.9842
G01 X109.1232 Y131.9939
G01 X109.1209 Y132.0022
G01 X109.1177 Y132.0088
G01 X109.1136 Y132.0149
G01 X109.1087 Y132.0204
G01 X109.1030 Y132.0251
G01 X109.0967 Y132.0288
G01 X109.0910 Y132.0312
G01 X109.0840 Y132.0332
G01 X109.0767 Y132.0341
G01 X108.2673 Y132.0342
G01 X108.2620 Y132.0387
G01 X108.2259 Y132.0652
G01 X108.1895 Y132.0869
G01 X108.1467 Y132.1069
G01 X108.1068 Y132.1211
G01 X108.0633 Y132.1320
G01 X108.0190 Y132.1386
G01 X107.9767 Y132.1407
G01 X106.7630 Y132.1408
G01 X106.7194 Y132.1386
G01 X106.6775 Y132.1324
G01 X106.6305 Y132.1208
G01 X106.5872 Y132.1051
G01 X106.5490 Y132.0869
G01 X106.5126 Y132.0652
G01 X106.4745 Y132.0372
G01 X106.4422 Y132.0079
G01 X105.1713 Y130.7371
G01 X105.1412 Y130.7039
G01 X105.1139 Y130.6668
G01 X105.0915 Y130.6294
G01 X105.0715 Y130.5866
G01 X105.0573 Y130.5467
G01 X105.0469 Y130.5057
G01 X105.0399 Y130.4602
G01 X105.0376 Y130.4142
G01 X105.0376 Y129.9933
G01 X104.7201 Y129.5084
G01 X104.6990 Y129.4724
G01 X104.6804 Y129.4324
G01 X104.6658 Y129.3908
G01 X104.6554 Y129.3492
G01 X104.6488 Y129.3043
G01 X104.6467 Y129.2615
G01 X104.6467 Y128.6420
G01 X104.6489 Y128.5973
G01 X104.6555 Y128.5529
G01 X104.6664 Y128.5095
G01 X104.6806 Y128.4696
G01 X104.7018 Y128.4246
G01 X104.7237 Y128.3883
G01 X104.7504 Y128.3523
G01 X104.7805 Y128.3191
G01 X104.8118 Y128.2906
G01 X104.8518 Y128.2610
G01 X104.8881 Y128.2393
G01 X104.9264 Y128.2212
G01 X105.2226 Y128.0985
G01 X105.7185 Y127.6026
G01 X105.9868 Y126.9548
G01 X105.9868 Y126.2536
G01 X105.7185 Y125.6058
G01 X105.2226 Y125.1099
G01 X104.5748 Y124.8416
G01 X103.8736 Y124.8416
G01 X103.2258 Y125.1099
G01 X102.7299 Y125.6058
G01 X102.4616 Y126.2536
G01 X102.4616 Y127.0403
G01 X102.4594 Y127.0851
G01 X102.4523 Y127.1318
G01 X102.4419 Y127.1729
G01 X102.4268 Y127.2151
G01 X102.4076 Y127.2556
G01 X102.3859 Y127.2920
G01 X102.3571 Y127.3310
G01 X102.3278 Y127.3633
G01 X102.2945 Y127.3934
G01 X102.2585 Y127.4201
G01 X102.2200 Y127.4431
G01 X102.1795 Y127.4623
G01 X101.8522 Y127.5976
G01 X101.6333 Y127.8167
G01 X101.6108 Y127.8541
G01 X101.5856 Y127.8881
G01 X101.5532 Y127.9240
G01 X101.5209 Y127.9532
G01 X101.4849 Y127.9798
G01 X101.4465 Y128.0028
G01 X101.4072 Y128.0215
G01 X101.3639 Y128.0371
G01 X101.3205 Y128.0479
G01 X101.2762 Y128.0545
G01 X101.2328 Y128.0567
G01 X101.1856 Y128.0544
G01 X101.1438 Y128.0483
G01 X101.1045 Y128.0405
G01 X100.7408 Y128.0405
G01 X100.7408 Y128.1942
G01 X101.0890 Y128.1944
G01 X101.0963 Y128.1957
G01 X101.1044 Y128.1984
G01 X101.1119 Y128.2026
G01 X101.1177 Y128.2071
G01 X101.1228 Y128.2124
G01 X101.1276 Y128.2195
G01 X101.1308 Y128.2262
G01 X101.1332 Y128.2344
G01 X101.1341 Y128.2442
G01 X101.1341 Y130.0442
G01 X101.1334 Y130.0528
G01 X101.1312 Y130.0611
G01 X101.1270 Y130.0700
G01 X101.1220 Y130.0769
G01 X101.1149 Y130.0837
G01 X101.1077 Y130.0883
G01 X101.0986 Y130.0921
G01 X101.0902 Y130.0939
G01 X101.0841 Y130.0942
G01 X100.7408 Y130.0942
G01 X100.7408 Y130.2479
G01 X101.1045 Y130.2479
G01 X101.1438 Y130.2402
G01 X101.1856 Y130.2340
G01 X101.2315 Y130.2317
G01 X101.2762 Y130.2339
G01 X101.3181 Y130.2400
G01 X101.3651 Y130.2517
G01 X101.4061 Y130.2664
G01 X101.4465 Y130.2856
G01 X101.4849 Y130.3086
G01 X101.5227 Y130.3368
G01 X101.5540 Y130.3653
G01 X101.5841 Y130.3984
G01 X101.6108 Y130.4343
G01 X101.6333 Y130.4717
G01 X101.8030 Y130.6416
G01 X101.8890 Y130.6544
G01 X101.9866 Y130.6788
G01 X102.0837 Y130.7132
G01 X102.1792 Y130.7582
G01 X102.2603 Y130.8067
G01 X102.5312 Y130.8068
G01 X102.5739 Y130.8090
G01 X102.6162 Y130.8152
G01 X102.6613 Y130.8264
G01 X102.7050 Y130.8421
G01 X102.7480 Y130.8629
G01 X102.7865 Y130.8865
G01 X102.8207 Y130.9122
G01 X102.8522 Y130.9411
G01 X102.8841 Y130.9766
G01 X102.9107 Y131.0132
G01 X103.7852 Y132.3484
G01 X103.8078 Y132.3869
G01 X103.8266 Y132.4274
G01 X103.8413 Y132.4695
G01 X103.8518 Y132.5129
G01 X103.8580 Y132.5571
G01 X103.8598 Y132.5992
G01 X103.8571 Y132.6486
G01 X103.8506 Y132.6903
G01 X103.8395 Y132.7335
G01 X103.8242 Y132.7755
G01 X103.8050 Y132.8157
G01 X103.7819 Y132.8539
G01 X103.7566 Y132.8877
G01 X103.7233 Y132.9242
G01 X103.6919 Y132.9524
G01 X103.6560 Y132.9789
G01 X103.6155 Y133.0028
G01 X103.5773 Y133.0207
G01 X103.5353 Y133.0357
G01 X103.4896 Y133.0469
G01 X103.4478 Y133.0530
G01 X103.4057 Y133.0551
G01 X101.9270 Y133.0552
G01 X101.8823 Y133.0530
G01 X101.8356 Y133.0459
G01 X101.7945 Y133.0355
G01 X101.7546 Y133.0213
G01 X101.7118 Y133.0013
G01 X101.6723 Y132.9776
G01 X101.6374 Y132.9516
G01 X101.6050 Y132.9223
G01 X101.4126 Y132.7299
G01 X100.7648 Y132.4616
G01 X100.0635 Y132.4616
G01 X99.7313 Y132.5991
G01 X99.6899 Y132.6139
G01 X99.6425 Y132.6256
G01 X99.6002 Y132.6317
G01 X99.5563 Y132.6338
G01 X99.5099 Y132.6314
G01 X99.4652 Y132.6246
G01 X99.4215 Y132.6133
G01 X99.3790 Y132.5978
G01 X99.3383 Y132.5782
G01 X99.2997 Y132.5547
G01 X99.2637 Y132.5274
G01 X99.2288 Y132.4949
G01 X99.2005 Y132.4629
G01 X99.1740 Y132.4263
G01 X99.1513 Y132.3873
G01 X99.1335 Y132.3484
G01 X99.1173 Y132.3010
G01 X99.1076 Y132.2594
G01 X99.1015 Y132.2121
G01 X99.1002 Y132.1694
G01 X99.1253 Y130.6967
G01 X99.1286 Y130.6501
G01 X99.1354 Y130.6088
G01 X99.1461 Y130.5683
G01 X99.1623 Y130.5244
G01 X99.1817 Y130.4846
G01 X99.2049 Y130.4468
G01 X99.2317 Y130.4115
G01 X99.2617 Y130.3789
G01 X99.2948 Y130.3494
G01 X99.3306 Y130.3233
G01 X99.3709 Y130.2996
G01 X99.4089 Y130.2819
G01 X99.4507 Y130.2672
G01 X99.4937 Y130.2565
G01 X99.5364 Y130.2502
G01 X99.5818 Y130.2479
G01 X99.8275 Y130.2479
G01 X99.8276 Y130.0942
G01 X99.4793 Y130.0940
G01 X99.4708 Y130.0924
G01 X99.4639 Y130.0900
G01 X99.4574 Y130.0865
G01 X99.4506 Y130.0813
G01 X99.4455 Y130.0760
G01 X99.4407 Y130.0689
G01 X99.4375 Y130.0622
G01 X99.4351 Y130.0540
G01 X99.4342 Y130.0442
G01 X99.4342 Y128.2442
G00 Z2.0000
G00 X99.5800 Y128.1942
G01 F60.00
G01 Z-2.4000
G01 F2000.00
G01 X99.5800 Y128.0368
G00 Z2.0000
G00 X99.6700 Y128.0405
G01 F60.00
G01 Z-2.4000
G01 F2000.00
G01 X99.6700 Y128.1942
G01 X99.7600 Y128.1942
G01 X99.7600 Y128.0405
G00 Z2.0000
G00 X100.7500 Y128.0405
G01 F60.00
G01 Z-2.4000
G01 F2000.00
G01 X100.7500 Y128.1942
G01 X100.8400 Y128.1942
G01 X100.8400 Y128.0405
G01 X100.9300 Y128.0405
G01 X100.9300 Y128.1942
G01 X101.0200 Y128.1942
G01 X101.0200 Y128.0405
G01 X101.1100 Y128.0416
G01 X101.1100 Y128.2014
G01 X101.2000 Y128.0553
G01 X101.2000 Y130.2331
G00 Z2.0000
G00 X101.2900 Y130.2359
G01 F60.00
G01 Z-2.4000
G01 F2000.00
G01 X101.2900 Y128.0525
G00 Z2.0000
G00 X101.3800 Y128.0314
G01 F60.00
G01 Z-2.4000
G01 F2000.00
G01 X101.3800 Y130.2570
G00 Z2.0000
G00 X101.4700 Y130.2996
G01 F60.00
G01 Z-2.4000
G01 F2000.00
G01 X101.4700 Y127.9888
G00 Z2.0000
G00 X101.5600 Y127.9167
G01 F60.00
G01 Z-2.4000
G01 F2000.00
G01 X101.5600 Y130.3717
G00 Z2.0000
G00 X101.6500 Y130.4885
G01 F60.00
G01 Z-2.4000
G01 F2000.00
G01 X101.6500 Y127.7999
G01 X101.7400 Y127.7099
G01 X101.7400 Y130.5785
G01 X101.8300 Y130.6456
G01 X101.8300 Y127.6198
G01 X101.9200 Y127.5696
G01 X101.9200 Y130.6621
G00 Z2.0000
G00 X102.0100 Y130.6869
G01 F60.00
G01 Z-2.4000
G01 F2000.00
G01 X102.0100 Y127.5324
G01 X102.1000 Y127.4951
G01 X102.1000 Y130.7207
G00 Z2.0000
G00 X102.1900 Y130.7646
G01 F60.00
G01 Z-2.4000
G01 F2000.00
G01 X102.1900 Y127.4574
G00 Z2.0000
G00 X102.2800 Y127.4042
G01 F60.00
G01 Z-2.4000
G01 F2000.00
G01 X102.2800 Y128.1943
G00 Z2.0000
G00 X102.2343 Y128.2442
G01 F60.00
G01 Z-2.4000
G01 F2000.00
G01 X102.2352 Y128.2344
G01 X102.2376 Y128.2262
G01 X102.2420 Y128.2174
G01 X102.2481 Y128.2097
G01 X102.2555 Y128.2033
G01 X102.2629 Y128.1990
G01 X102.2721 Y128.1957
G01 X102.2806 Y128.1943
G01 X102.8702 Y128.1942
G01 X103.3801 Y127.2266
G01 X103.3505 Y127.1865
G01 X103.2976 Y127.0981
G01 X103.2541 Y127.0060
G01 X103.2191 Y126.9078
G01 X103.1944 Y126.8090
G01 X103.1793 Y126.7071
G01 X103.1742 Y126.6042
G01 X103.1792 Y126.5025
G01 X103.1944 Y126.3994
G01 X103.2188 Y126.3018
G01 X103.2551 Y126.2001
G01 X103.2982 Y126.1092
G01 X103.3512 Y126.0209
G01 X103.4125 Y125.9381
G01 X103.4826 Y125.8609
G01 X103.5581 Y125.7925
G01 X103.6409 Y125.7312
G01 X103.7292 Y125.6782
G01 X103.8201 Y125.6351
G01 X103.9218 Y125.5988
G01 X104.0194 Y125.5744
G01 X104.1213 Y125.5593
G01 X104.2242 Y125.5542
G01 X104.3271 Y125.5593
G01 X104.4290 Y125.5744
G01 X104.5266 Y125.5988
G01 X104.6260 Y125.6341
G01 X104.7170 Y125.6771
G01 X104.8096 Y125.7326
G01 X104.8903 Y125.7925
G01 X104.9649 Y125.8600
G01 X105.0359 Y125.9381
G01 X105.0986 Y126.0229
G01 X105.1502 Y126.1092
G01 X105.1943 Y126.2024
G01 X105.2296 Y126.3018
G01 X105.2540 Y126.3994
G01 X105.2691 Y126.5013
G01 X105.2742 Y126.6042
G01 X105.2693 Y126.7047
G01 X105.2538 Y126.8102
G01 X105.2290 Y126.9090
G01 X105.1943 Y127.0060
G01 X105.1502 Y127.0992
G01 X105.0986 Y127.1855
G01 X105.0343 Y127.2722
G01 X104.9667 Y127.3467
G01 X104.8894 Y127.4166
G01 X104.8075 Y127.4772
G01 X104.7192 Y127.5302
G01 X104.6260 Y127.5743
G01 X104.5302 Y127.6086
G01 X104.4290 Y127.6340
G01 X104.3283 Y127.6490
G01 X104.2254 Y127.6542
G01 X104.1879 Y127.6525
G01 X103.9009 Y128.1970
G01 X103.9078 Y128.2001
G01 X103.9140 Y128.2040
G01 X103.9196 Y128.2088
G01 X103.9244 Y128.2144
G01 X103.9283 Y128.2206
G01 X103.9317 Y128.2285
G01 X103.9335 Y128.2356
G01 X103.9342 Y128.2429
G01 X103.9342 Y129.6087
G01 X105.8261 Y132.4976
G01 X107.9755 Y132.4976
G01 X108.0190 Y132.4998
G01 X108.0633 Y132.5064
G01 X108.1068 Y132.5173
G01 X108.1467 Y132.5315
G01 X108.1895 Y132.5515
G01 X108.2259 Y132.5732
G01 X108.2620 Y132.5997
G01 X108.2673 Y132.6042
G01 X109.0742 Y132.6042
G01 X109.0803 Y132.6046
G01 X109.0864 Y132.6057
G01 X109.0945 Y132.6085
G01 X109.1010 Y132.6120
G01 X109.1069 Y132.6164
G01 X109.1129 Y132.6225
G01 X109.1177 Y132.6296
G01 X109.1209 Y132.6362
G01 X109.1232 Y132.6445
G01 X109.1241 Y132.6518
G01 X109.1242 Y133.2554
G01 X109.1232 Y133.2639
G01 X109.1213 Y133.2710
G01 X109.1183 Y133.2777
G01 X109.1144 Y133.2840
G01 X109.1104 Y133.2886
G01 X109.1059 Y133.2928
G01 X109.1010 Y133.2964
G01 X109.0967 Y133.2988
G01 X109.0910 Y133.3012
G01 X109.0864 Y133.3027
G01 X109.0815 Y133.3036
G01 X109.0754 Y133.3042
G01 X108.2673 Y133.3042
G01 X108.2620 Y133.3087
G01 X108.2259 Y133.3352
G01 X108.1895 Y133.3569
G01 X108.1467 Y133.3769
G01 X108.1068 Y133.3911
G01 X108.0633 Y133.4020
G01 X108.0190 Y133.4086
G01 X107.9755 Y133.4108
G01 X105.4930 Y133.4108
G01 X105.4494 Y133.4086
G01 X105.4075 Y133.4024
G01 X105.3617 Y133.3911
G01 X105.3195 Y133.3760
G01 X105.2812 Y133.3580
G01 X105.2385 Y133.3324
G01 X105.2045 Y133.3072
G01 X105.1713 Y133.2771
G01 X105.1412 Y133.2439
G01 X105.1139 Y133.2068
G01 X105.0915 Y133.1694
G01 X105.0734 Y133.1312
G01 X105.0573 Y133.0867
G01 X105.0460 Y133.0409
G01 X105.0398 Y132.9990
G01 X105.0379 Y132.9608
G01 X103.1606 Y130.0942
G01 X102.2831 Y130.0942
G01 X102.2769 Y130.0937
G01 X102.2698 Y130.0921
G01 X102.2640 Y130.0900
G01 X102.2586 Y130.0871
G01 X102.2535 Y130.0837
G01 X102.2489 Y130.0796
G01 X102.2449 Y130.0750
G01 X102.2414 Y130.0700
G01 X102.2381 Y130.0634
G01 X102.2361 Y130.0576
G01 X102.2348 Y130.0516
G01 X102.2343 Y130.0442
G01 X102.2343 Y128.2442
G00 Z2.0000
G00 X102.3700 Y128.1942
G01 F60.00
G01 Z-2.4000
G01 F2000.00
G01 X102.3700 Y127.3138
G00 Z2.0000
G00 X102.4600 Y127.0742
G01 F60.00
G01 Z-2.4000
G01 F2000.00
G01 X102.4600 Y128.1942
G01 X102.5500 Y128.1942
G01 X102.5500 Y126.0402
G01 X102.6400 Y125.8229
G01 X102.6400 Y128.1942
G01 X102.7300 Y128.1942
G01 X102.7300 Y125.6057
G01 X102.8200 Y125.5157
G01 X102.8200 Y128.1942
G01 X102.9100 Y128.1186
G01 X102.9100 Y125.4257
G01 X103.0000 Y125.3357
G01 X103.0000 Y127.9478
G01 X103.0900 Y127.7771
G01 X103.0900 Y125.2457
G01 X103.1800 Y125.1557
G01 X103.1800 Y126.4959
G00 Z2.0000
G00 X103.1800 Y126.7125
G01 F60.00
G01 Z-2.4000
G01 F2000.00
G01 X103.1800 Y127.6063
G01 X103.2700 Y127.4355
G01 X103.2700 Y127.0397
G00 Z2.0000
G00 X103.3600 Y127.1996
G01 F60.00
G01 Z-2.4000
G01 F2000.00
G01 X103.3600 Y127.2647
G00 Z2.0000
G00 X104.1700 Y127.6864
G01 F60.00
G01 Z-2.4000
G01 F2000.00
G01 X104.1700 Y129.9687
G01 X104.0800 Y129.8313
G01 X104.0800 Y127.8572
G01 X103.9900 Y128.0280
G01 X103.9900 Y129.6938
G01 X104.2600 Y130.1061
G01 X104.2600 Y127.6525
G00 Z2.0000
G00 X104.3500 Y127.6458
G01 F60.00
G01 Z-2.4000
G01 F2000.00
G01 X104.3500 Y130.2436
G01 X104.4400 Y130.3810
G01 X104.4400 Y127.6313
G00 Z2.0000
G00 X104.5300 Y127.6087
G01 F60.00
G01 Z-2.4000
G01 F2000.00
G01 X104.5300 Y130.5184
G01 X104.6200 Y130.6558
G01 X104.6200 Y127.5765
G00 Z2.0000
G00 X104.7100 Y127.5346
G01 F60.00
G01 Z-2.4000
G01 F2000.00
G01 X104.7100 Y128.4110
G00 Z2.0000
G00 X104.8000 Y128.3014
G01 F60.00
G01 Z-2.4000
G01 F2000.00
G01 X104.8000 Y127.4818
G00 Z2.0000
G00 X104.8900 Y127.4161
G01 F60.00
G01 Z-2.4000
G01 F2000.00
G01 X104.8900 Y128.2384
G00 Z2.0000
G00 X104.9800 Y128.1989
G01 F60.00
G01 Z-2.4000
G01 F2000.00
G01 X104.9800 Y127.3320
G00 Z2.0000
G00 X105.0700 Y127.2244
G01 F60.00
G01 Z-2.4000
G01 F2000.00
G01 X105.0700 Y128.1616
G01 X105.1600 Y128.1244
G01 X105.1600 Y127.0786
G00 Z2.0000
G00 X105.2500 Y126.8253
G01 F60.00
G01 Z-2.4000
G01 F2000.00
G01 X105.2500 Y128.0711
G01 X105.3400 Y127.9811
G01 X105.3400 Y125.2273
G01 X105.2500 Y125.1373
G01 X105.2500 Y126.3831
G00 Z2.0000
G00 X105.1600 Y126.1298
G01 F60.00
G01 Z-2.4000
G01 F2000.00
G01 X105.1600 Y125.0840
G01 X105.0700 Y125.0467
G01 X105.0700 Y125.9840
G00 Z2.0000
G00 X104.9800 Y125.8764
G01 F60.00
G01 Z-2.4000
G01 F2000.00
G01 X104.9800 Y125.0094
G01 X104.8900 Y124.9721
G01 X104.8900 Y125.7923
G00 Z2.0000
G00 X104.8000 Y125.7266
G01 F60.00
G01 Z-2.4000
G01 F2000.00
G01 X104.8000 Y124.9349
G01 X104.7100 Y124.8976
G01 X104.7100 Y125.6738
G00 Z2.0000
G00 X104.6200 Y125.6319
G01 F60.00
G01 Z-2.4000
G01 F2000.00
G01 X104.6200 Y124.8603
G01 X104.5300 Y124.8416
G01 X104.5300 Y125.5997
G00 Z2.0000
G00 X104.4400 Y125.5771
G01 F60.00
G01 Z-2.4000
G01 F2000.00
G01 X104.4400 Y124.8416
G01 X104.3500 Y124.8416
G01 X104.3500 Y125.5626
G00 Z2.0000
G00 X104.2600 Y125.5559
G01 F60.00
G01 Z-2.4000
G01 F2000.00
G01 X104.2600 Y124.8416
G01 X104.1700 Y124.8416
G01 X104.1700 Y125.5568
G00 Z2.0000
G00 X104.0800 Y125.5653
G01 F60.00
G01 Z-2.4000
G01 F2000.00
G01 X104.0800 Y124.8416
G01 X103.9900 Y124.8416
G01 X103.9900 Y125.5817
G00 Z2.0000
G00 X103.9000 Y125.6063
G01 F60.00
G01 Z-2.4000
G01 F2000.00
G01 X103.9000 Y124.8416
G01 X103.8100 Y124.8679
G01 X103.8100 Y125.6399
G00 Z2.0000
G00 X103.7200 Y125.6837
G01 F60.00
G01 Z-2.4000
G01 F2000.00
G01 X103.7200 Y124.9052
G01 X103.6300 Y124.9425
G01 X103.6300 Y125.7391
G00 Z2.0000
G00 X103.5400 Y125.8089
G01 F60.00
G01 Z-2.4000
G01 F2000.00
G01 X103.5400 Y124.9798
G01 X103.4500 Y125.0170
G01 X103.4500 Y125.8967
G00 Z2.0000
G00 X103.3600 Y126.0088
G01 F60.00
G01 Z-2.4000
G01 F2000.00
G01 X103.3600 Y125.0543
G01 X103.2700 Y125.0916
G01 X103.2700 Y126.1687
G00 Z2.0000
G00 X105.4300 Y125.3173
G01 F60.00
G01 Z-2.4000
G01 F2000.00
G01 X105.4300 Y127.8911
G01 X105.5200 Y127.8011
G01 X105.5200 Y125.4073
G01 X105.6100 Y125.4973
G01 X105.6100 Y127.7111
G01 X105.7000 Y127.6211
G01 X105.7000 Y125.5873
G01 X105.7900 Y125.7784
G01 X105.7900 Y127.4300
G01 X105.8800 Y127.2127
G01 X105.8800 Y125.9957
G01 X105.9700 Y126.2130
G01 X105.9700 Y126.9954
G00 Z2.0000
G00 X106.5100 Y128.1697
G01 F60.00
G01 Z-2.4000
G01 F2000.00
G01 X106.5100 Y130.7843
G01 X106.4200 Y130.6943
G01 X106.4200 Y128.2200
G01 X106.3300 Y128.3100
G01 X106.3300 Y130.6043
G01 X106.2400 Y130.5143
G01 X106.2400 Y128.4000
G01 X106.1500 Y128.5998
G01 X106.1500 Y130.4243
G01 X106.0600 Y130.3343
G01 X106.0600 Y130.3129
G01 X106.6000 Y130.8743
G01 X106.6000 Y128.1324
G01 X106.6900 Y128.0951
G01 X106.6900 Y130.9643
G01 X106.7800 Y131.0543
G01 X106.7800 Y128.0816
G01 X106.8700 Y128.0816
G01 X106.8700 Y128.7944
G00 Z2.0000
G00 X106.8243 Y128.8442
G01 F60.00
G01 Z-2.4000
G01 F2000.00
G01 X106.8253 Y128.8345
G01 X106.8277 Y128.8262
G01 X106.8321 Y128.8175
G01 X106.8381 Y128.8098
G01 X106.8455 Y128.8034
G01 X106.8541 Y128.7985
G01 X106.8622 Y128.7957
G01 X106.8719 Y128.7943
G01 X107.6812 Y128.7942
G01 X107.6865 Y128.7897
G01 X107.7227 Y128.7632
G01 X107.7590 Y128.7415
G01 X107.8018 Y128.7215
G01 X107.8417 Y128.7073
G01 X107.8852 Y128.6964
G01 X107.9295 Y128.6898
G01 X107.9730 Y128.6876
G01 X108.0190 Y128.6898
G01 X108.0633 Y128.6964
G01 X108.1068 Y128.7073
G01 X108.1467 Y128.7215
G01 X108.1895 Y128.7415
G01 X108.2259 Y128.7632
G01 X108.2620 Y128.7897
G01 X108.2673 Y128.7942
G01 X109.0754 Y128.7942
G01 X109.0840 Y128.7952
G01 X109.0922 Y128.7976
G01 X109.0999 Y128.8013
G01 X109.1059 Y128.8056
G01 X109.1104 Y128.8098
G01 X109.1136 Y128.8135
G01 X109.1189 Y128.8217
G01 X109.1213 Y128.8274
G01 X109.1227 Y128.8321
G01 X109.1237 Y128.8369
G01 X109.1242 Y128.8430
G01 X109.1242 Y129.4442
G01 X109.1238 Y129.4503
G01 X109.1227 Y129.4563
G01 X109.1209 Y129.4622
G01 X109.1183 Y129.4677
G01 X109.1151 Y129.4730
G01 X109.1112 Y129.4778
G01 X109.1059 Y129.4828
G01 X109.1010 Y129.4864
G01 X109.0956 Y129.4894
G01 X109.0899 Y129.4916
G01 X109.0840 Y129.4932
G01 X109.0767 Y129.4941
G01 X108.4309 Y129.4942
G01 X108.4309 Y130.0642
G01 X109.0754 Y130.0642
G01 X109.0852 Y130.0654
G01 X109.0945 Y130.0685
G01 X109.1020 Y130.0727
G01 X109.1096 Y130.0789
G01 X109.1158 Y130.0865
G01 X109.1204 Y130.0951
G01 X109.1232 Y130.1045
G01 X109.1242 Y130.1142
G01 X109.1242 Y130.7154
G01 X109.1232 Y130.7239
G01 X109.1213 Y130.7310
G01 X109.1177 Y130.7388
G01 X109.1129 Y130.7459
G01 X109.1087 Y130.7504
G01 X109.1050 Y130.7536
G01 X109.0967 Y130.7588
G01 X109.0910 Y130.7612
G01 X109.0864 Y130.7627
G01 X109.0815 Y130.7636
G01 X109.0754 Y130.7642
G01 X108.2673 Y130.7642
G01 X108.2620 Y130.7687
G01 X108.2259 Y130.7952
G01 X108.1895 Y130.8169
G01 X108.1467 Y130.8369
G01 X108.1068 Y130.8511
G01 X108.0633 Y130.8620
G01 X108.0190 Y130.8686
G01 X107.9743 Y130.8708
G01 X107.9295 Y130.8686
G01 X107.8852 Y130.8620
G01 X107.8417 Y130.8511
G01 X107.8018 Y130.8369
G01 X107.7590 Y130.8169
G01 X107.7227 Y130.7952
G01 X107.6865 Y130.7687
G01 X107.6812 Y130.7642
G01 X106.8731 Y130.7642
G01 X106.8646 Y130.7632
G01 X106.8563 Y130.7608
G01 X106.8486 Y130.7571
G01 X106.8426 Y130.7528
G01 X106.8381 Y130.7486
G01 X106.8349 Y130.7449
G01 X106.8297 Y130.7367
G01 X106.8272 Y130.7310
G01 X106.8258 Y130.7263
G01 X106.8249 Y130.7215
G01 X106.8243 Y130.7154
G01 X106.8243 Y130.1142
G01 X106.8247 Y130.1081
G01 X106.8258 Y130.1021
G01 X106.8277 Y130.0962
G01 X106.8302 Y130.0907
G01 X106.8334 Y130.0854
G01 X106.8373 Y130.0807
G01 X106.8426 Y130.0756
G01 X106.8476 Y130.0720
G01 X106.8529 Y130.0690
G01 X106.8586 Y130.0668
G01 X106.8646 Y130.0652
G01 X106.8719 Y130.0643
G01 X107.5177 Y130.0642
G01 X107.5177 Y129.4942
G01 X106.8731 Y129.4942
G01 X106.8634 Y129.4930
G01 X106.8552 Y129.4904
G01 X106.8465 Y129.4857
G01 X106.8398 Y129.4804
G01 X106.8334 Y129.4730
G01 X106.8286 Y129.4644
G01 X106.8255 Y129.4551
G01 X106.8243 Y129.4454
G01 X106.8243 Y128.8442
G00 Z2.0000
G00 X106.9600 Y128.7942
G01 F60.00
G01 Z-2.4000
G01 F2000.00
G01 X106.9600 Y128.0816
G01 X107.0500 Y128.0816
G01 X107.0500 Y128.7942
G01 X107.1400 Y128.7942
G01 X107.1400 Y128.0816
G01 X107.2300 Y128.0816
G01 X107.2300 Y128.7942
G01 X107.3200 Y128.7942
G01 X107.3200 Y128.0816
G00 Z2.0000
G00 X107.4100 Y128.0809
G01 F60.00
G01 Z-2.4000
G01 F2000.00
G01 X107.4100 Y128.7942
G01 X107.5000 Y128.7942
G01 X107.5000 Y128.0686
G00 Z2.0000
G00 X107.5900 Y128.0380
G01 F60.00
G01 Z-2.4000
G01 F2000.00
G01 X107.5900 Y128.7942
G01 X107.6800 Y128.7942
G01 X107.6800 Y128.0007
G01 X107.7700 Y127.9752
G01 X107.7700 Y128.7363
G00 Z2.0000
G00 X107.8600 Y128.7026
G01 F60.00
G01 Z-2.4000
G01 F2000.00
G01 X107.8600 Y127.9752
G01 X107.9500 Y127.9752
G01 X107.9500 Y128.6887
G00 Z2.0000
G00 X108.0400 Y128.6929
G01 F60.00
G01 Z-2.4000
G01 F2000.00
G01 X108.0400 Y127.9752
G01 X108.1300 Y127.9752
G01 X108.1300 Y128.7155
G00 Z2.0000
G00 X108.2200 Y128.7597
G01 F60.00
G01 Z-2.4000
G01 F2000.00
G01 X108.2200 Y127.9807
G01 X108.3100 Y128.0180
G01 X108.3100 Y128.7942
G01 X108.4000 Y128.7942
G01 X108.4000 Y128.0542
G00 Z2.0000
G00 X108.4900 Y128.0766
G01 F60.00
G01 Z-2.4000
G01 F2000.00
G01 X108.4900 Y128.7942
G01 X108.5800 Y128.7942
G01 X108.5800 Y128.0816
G01 X108.6700 Y128.0816
G01 X108.6700 Y128.7942
G01 X108.7600 Y128.7942
G01 X108.7600 Y128.0816
G01 X108.8500 Y128.0816
G01 X108.8500 Y128.7942
G01 X108.9400 Y128.7942
G01 X108.9400 Y128.0816
G00 Z2.0000
G00 X109.0300 Y128.0741
G01 F60.00
G01 Z-2.4000
G01 F2000.00
G01 X109.0300 Y128.7942
G00 Z2.0000
G00 X109.1200 Y128.8242
G01 F60.00
G01 Z-2.4000
G01 F2000.00
G01 X109.1200 Y128.0481
G00 Z2.0000
G00 X109.2100 Y127.9990
G01 F60.00
G01 Z-2.4000
G01 F2000.00
G01 X109.2100 Y138.2058
G01 X109.3000 Y138.1608
G01 X109.3000 Y127.9165
G00 Z2.0000
G00 X109.3900 Y127.7400
G01 F60.00
G01 Z-2.4000
G01 F2000.00
G01 X109.3900 Y138.1158
G01 X109.4800 Y138.0708
G01 X109.4800 Y126.3502
G00 Z2.0000
G00 X109.4800 Y126.0164
G01 F60.00
G01 Z-2.4000
G01 F2000.00
G01 X109.4800 Y125.0142
G01 X109.3900 Y125.0142
G01 X109.3900 Y125.8734
G00 Z2.0000
G00 X109.3000 Y125.7982
G01 F60.00
G01 Z-2.4000
G01 F2000.00
G01 X109.3000 Y125.0142
G01 X109.2100 Y125.0142
G01 X109.2100 Y125.7543
G00 Z2.0000
G00 X109.1200 Y125.7318
G01 F60.00
G01 Z-2.4000
G01 F2000.00
G01 X109.1200 Y125.0142
G01 X109.0300 Y125.0142
G01 X109.0300 Y125.7267
G01 X108.9400 Y125.7267
G01 X108.9400 Y125.0142
G01 X108.8500 Y125.0142
G01 X108.8500 Y125.7267
G01 X108.7600 Y125.7267
G01 X108.7600 Y125.0142
G01 X108.6700 Y125.0142
G01 X108.6700 Y125.7267
G01 X108.5800 Y125.7267
G01 X108.5800 Y125.0142
G01 X108.4900 Y125.0142
G01 X108.4900 Y125.7267
G01 X108.4000 Y125.7267
G01 X108.4000 Y125.0142
G00 Z2.0000
G00 X108.3100 Y125.0122
G01 F60.00
G01 Z-2.4000
G01 F2000.00
G01 X108.3100 Y125.7267
G01 X108.2200 Y125.7267
G01 X108.2200 Y124.0962
G01 X108.1300 Y124.0477
G01 X108.1300 Y125.7092
G01 X108.0400 Y125.6719
G01 X108.0400 Y123.9993
G01 X107.9500 Y123.9509
G01 X107.9500 Y125.6347
G01 X107.8600 Y125.5785
G01 X107.8600 Y123.9024
G01 X107.7700 Y123.8540
G01 X107.7700 Y125.4885
G01 X107.6800 Y125.3985
G01 X107.6800 Y123.8056
G01 X107.5900 Y123.7571
G01 X107.5900 Y125.1844
G00 Z2.0000
G00 X107.5000 Y124.5954
G01 F60.00
G01 Z-2.4000
G01 F2000.00
G01 X107.5000 Y123.7087
G01 X107.4100 Y123.6603
G01 X107.4100 Y124.4844
G00 Z2.0000
G00 X107.3200 Y124.4208
G01 F60.00
G01 Z-2.4000
G01 F2000.00
G01 X107.3200 Y123.6118
G01 X107.2300 Y123.5634
G01 X107.2300 Y124.3724
G01 X107.1400 Y124.3239
G01 X107.1400 Y123.5150
G01 X107.0500 Y123.4665
G01 X107.0500 Y124.2755
G01 X106.9600 Y124.2271
G01 X106.9600 Y123.4181
G01 X106.8700 Y123.3697
G01 X106.8700 Y124.1786
G01 X106.7800 Y124.1302
G01 X106.7800 Y123.3212
G01 X106.6900 Y123.2728
G01 X106.6900 Y124.0818
G01 X106.6000 Y124.0333
G01 X106.6000 Y123.2244
G00 Z2.0000
G00 X106.5100 Y123.1735
G01 F60.00
G01 Z-2.4000
G01 F2000.00
G01 X106.5100 Y123.9849
G01 X106.4200 Y123.9365
G01 X106.4200 Y123.0957
G01 X106.3300 Y123.0057
G01 X106.3300 Y123.8880
G00 Z2.0000
G00 X106.2400 Y123.8424
G01 F60.00
G01 Z-2.4000
G01 F2000.00
G01 X106.2400 Y122.9157
G01 X106.1500 Y122.8257
G01 X106.1500 Y123.8051
G01 X106.0600 Y123.7497
G01 X106.0600 Y122.7357
G01 X105.9700 Y122.6457
G01 X105.9700 Y123.6700
G00 Z2.0000
G00 X105.8800 Y123.5632
G01 F60.00
G01 Z-2.4000
G01 F2000.00
G01 X105.8800 Y122.5557
G01 X105.7900 Y122.4657
G01 X105.7900 Y123.4732
G01 X105.7000 Y123.3832
G01 X105.7000 Y122.3757
G01 X105.6100 Y122.2857
G01 X105.6100 Y123.2932
G01 X105.5200 Y123.2032
G01 X105.5200 Y122.1957
G01 X105.4300 Y122.1057
G01 X105.4300 Y123.1132
G01 X105.3400 Y123.0232
G01 X105.3400 Y122.0157
G01 X105.2500 Y121.9808
G01 X105.2500 Y122.9332
G01 X105.1600 Y122.8432
G01 X105.1600 Y121.9808
G01 X105.0700 Y121.9808
G01 X105.0700 Y122.7674
G00 Z2.0000
G00 X104.9800 Y122.7223
G01 F60.00
G01 Z-2.4000
G01 F2000.00
G01 X104.9800 Y121.9808
G01 X104.8900 Y121.9808
G01 X104.8900 Y122.6990
G00 Z2.0000
G00 X104.8000 Y122.6932
G01 F60.00
G01 Z-2.4000
G01 F2000.00
G01 X104.8000 Y121.9808
G01 X104.7100 Y121.9808
G01 X104.7100 Y122.6932
G01 X104.6200 Y122.6932
G01 X104.6200 Y121.9808
G01 X104.5300 Y121.9808
G01 X104.5300 Y122.6932
G01 X104.4400 Y122.6932
G01 X104.4400 Y121.9808
G01 X104.3500 Y121.9808
G01 X104.3500 Y122.6932
G01 X104.2600 Y122.6932
G01 X104.2600 Y121.9808
G01 X104.1700 Y121.9808
G01 X104.1700 Y122.6932
G01 X104.0800 Y122.6932
G01 X104.0800 Y121.9808
G01 X103.9900 Y121.9808
G01 X103.9900 Y122.6932
G01 X103.9000 Y122.6932
G01 X103.9000 Y121.9808
G01 X103.8100 Y121.9808
G01 X103.8100 Y122.6932
G01 X103.7200 Y122.6932
G01 X103.7200 Y121.9808
G01 X103.6300 Y121.9808
G01 X103.6300 Y122.6932
G00 Z2.0000
G00 X103.5400 Y122.7017
G01 F60.00
G01 Z-2.4000
G01 F2000.00
G01 X103.5400 Y121.9808
G01 X103.4500 Y121.9808
G01 X103.4500 Y122.7292
G00 Z2.0000
G00 X103.3600 Y122.7804
G01 F60.00
G01 Z-2.4000
G01 F2000.00
G01 X103.3600 Y121.9808
G01 X103.2700 Y121.9808
G01 X103.2700 Y122.8616
G01 X103.1800 Y122.9516
G01 X103.1800 Y121.9808
G01 X103.0900 Y122.0341
G01 X103.0900 Y123.0416
G01 X103.0000 Y123.1316
G01 X103.0000 Y122.1241
G01 X102.9100 Y122.2141
G01 X102.9100 Y123.2216
G01 X102.8200 Y123.3116
G01 X102.8200 Y122.3041
G01 X102.7300 Y122.3941
G01 X102.7300 Y123.4016
G01 X102.6400 Y123.4916
G01 X102.6400 Y122.4841
G01 X102.5500 Y122.5741
G01 X102.5500 Y123.5816
G01 X102.4600 Y123.6716
G01 X102.4600 Y122.6641
G01 X102.3700 Y122.7541
G01 X102.3700 Y123.7616
G01 X102.2800 Y123.8132
G01 X102.2800 Y122.8441
G01 X102.1900 Y122.9341
G01 X102.1900 Y123.8661
G00 Z2.0000
G00 X102.1000 Y123.9560
G01 F60.00
G01 Z-2.4000
G01 F2000.00
G01 X102.1000 Y123.0241
G01 X102.0100 Y123.1141
G01 X102.0100 Y124.1303
G01 X101.9200 Y124.2203
G01 X101.9200 Y123.1846
G00 Z2.0000
G00 X101.8300 Y123.2265
G01 F60.00
