(G-CODE GENERATED BY FLATCAM v8.994 - www.flatcam.org - Version Date: 2020/11/7)

(Name: ina_v1.sol_ncc_cnc)
(Type: G-code from Geometry)
(Units: MM)

(Created on Wednesday, 14 April 2021 at 15:40)

(This preprocessor is the default preprocessor used by FlatCAM.)
(It is made to work with MACH3 compatible motion controllers.)

(TOOL DIAMETER: 0.1 mm)
(Feedrate_XY: 2000.0 mm/min)
(Feedrate_Z: 60.0 mm/min)
(Feedrate rapids 1500.0 mm/min)

(Z_Cut: -2.4 mm)
(Z_Move: 2.0 mm)
(Z Start: None mm)
(Z End: 15.0 mm)
(X,Y End: None mm)
(Steps per circle: 64)
(Preprocessor Geometry: default)

(X range:   89.0500 ...  124.1485  mm)
(Y range:  119.0500 ...  154.4685  mm)

(Spindle Speed: 10.0 RPM)
G21
G90
G94

G01 F2000.00

M5
G00 Z15.0000
G00 X0.0000 Y0.0000
G00 Z15.0000

M03 S10.0
G01 F2000.00
G00 X94.0900 Y120.0365
G01 F60.00
G01 Z-2.4000
G01 F2000.00
G01 X94.0900 Y119.0756
G01 X94.1800 Y119.0619
G01 X94.1800 Y119.9857
G00 Z2.0000
G00 X94.2700 Y119.9583
G01 F60.00
G01 Z-2.4000
G01 F2000.00
G01 X94.2700 Y119.0531
G01 X94.3600 Y119.0500
G01 X94.3600 Y119.9500
G01 X94.4500 Y119.9500
G01 X94.4500 Y119.0500
G01 X94.5400 Y119.0500
G01 X94.5400 Y119.9500
G01 X94.6300 Y119.9500
G01 X94.6300 Y119.0500
G01 X94.7200 Y119.0500
G01 X94.7200 Y119.9500
G01 X94.8100 Y119.9500
G01 X94.8100 Y119.0500
G01 X94.9000 Y119.0500
G01 X94.9000 Y119.9500
G01 X94.9900 Y119.9500
G01 X94.9900 Y119.0500
G01 X95.0800 Y119.0500
G01 X95.0800 Y119.9500
G01 X95.1700 Y119.9500
G01 X95.1700 Y119.0500
G01 X95.2600 Y119.0500
G01 X95.2600 Y119.9500
G01 X95.3500 Y119.9500
G01 X95.3500 Y119.0500
G01 X95.4400 Y119.0500
G01 X95.4400 Y119.9500
G01 X95.5300 Y119.9500
G01 X95.5300 Y119.0500
G01 X95.6200 Y119.0500
G01 X95.6200 Y119.9500
G01 X95.7100 Y119.9500
G01 X95.7100 Y119.0500
G01 X95.8000 Y119.0500
G01 X95.8000 Y119.9500
G01 X95.8900 Y119.9500
G01 X95.8900 Y119.0500
G01 X95.9800 Y119.0500
G01 X95.9800 Y119.9500
G01 X96.0700 Y119.9500
G01 X96.0700 Y119.0500
G01 X96.1600 Y119.0500
G01 X96.1600 Y119.9500
G01 X96.2500 Y119.9500
G01 X96.2500 Y119.0500
G01 X96.3400 Y119.0500
G01 X96.3400 Y119.9500
G01 X96.4300 Y119.9500
G01 X96.4300 Y119.0500
G01 X96.5200 Y119.0500
G01 X96.5200 Y119.9500
G01 X96.6100 Y119.9500
G01 X96.6100 Y119.0500
G01 X96.7000 Y119.0500
G01 X96.7000 Y119.9500
G01 X96.7900 Y119.9500
G01 X96.7900 Y119.0500
G01 X96.8800 Y119.0500
G01 X96.8800 Y119.9500
G01 X96.9700 Y119.9500
G01 X96.9700 Y119.0500
G01 X97.0600 Y119.0500
G01 X97.0600 Y119.9500
G01 X97.1500 Y119.9500
G01 X97.1500 Y119.0500
G01 X97.2400 Y119.0500
G01 X97.2400 Y119.9500
G01 X97.3300 Y119.9500
G01 X97.3300 Y119.0500
G01 X97.4200 Y119.0500
G01 X97.4200 Y119.9500
G01 X97.5100 Y119.9500
G01 X97.5100 Y119.0500
G01 X97.6000 Y119.0500
G01 X97.6000 Y119.9500
G01 X97.6900 Y119.9500
G01 X97.6900 Y119.0500
G01 X97.7800 Y119.0500
G01 X97.7800 Y119.9500
G01 X97.8700 Y119.9500
G01 X97.8700 Y119.0500
G01 X97.9600 Y119.0500
G01 X97.9600 Y119.9500
G01 X98.0500 Y119.9500
G01 X98.0500 Y119.0500
G01 X98.1400 Y119.0500
G01 X98.1400 Y119.9500
G01 X98.2300 Y119.9500
G01 X98.2300 Y119.0500
G01 X98.3200 Y119.0500
G01 X98.3200 Y119.9500
G01 X98.4100 Y119.9500
G01 X98.4100 Y119.0500
G01 X98.5000 Y119.0500
G01 X98.5000 Y119.9500
G01 X98.5900 Y119.9500
G01 X98.5900 Y119.0500
G01 X98.6800 Y119.0500
G01 X98.6800 Y119.9500
G01 X98.7700 Y119.9500
G01 X98.7700 Y119.0500
G01 X98.8600 Y119.0500
G01 X98.8600 Y119.9500
G01 X98.9500 Y119.9500
G01 X98.9500 Y119.0500
G01 X99.0400 Y119.0500
G01 X99.0400 Y119.9500
G01 X99.1300 Y119.9500
G01 X99.1300 Y119.0500
G01 X99.2200 Y119.0500
G01 X99.2200 Y119.9500
G01 X99.3100 Y119.9500
G01 X99.3100 Y119.0500
G01 X99.4000 Y119.0500
G01 X99.4000 Y119.9500
G01 X99.4900 Y119.9500
G01 X99.4900 Y119.0500
G01 X99.5800 Y119.0500
G01 X99.5800 Y119.9500
G01 X99.6700 Y119.9500
G01 X99.6700 Y119.0500
G01 X99.7600 Y119.0500
G01 X99.7600 Y119.9500
G01 X99.8500 Y119.9500
G01 X99.8500 Y119.0500
G01 X99.9400 Y119.0500
G01 X99.9400 Y119.9500
G01 X100.0300 Y119.9500
G01 X100.0300 Y119.0500
G01 X100.1200 Y119.0500
G01 X100.1200 Y119.9500
G01 X100.2100 Y119.9500
G01 X100.2100 Y119.0500
G01 X100.3000 Y119.0500
G01 X100.3000 Y119.9500
G01 X100.3900 Y119.9500
G01 X100.3900 Y119.0500
G01 X100.4800 Y119.0500
G01 X100.4800 Y119.9500
G01 X100.5700 Y119.9500
G01 X100.5700 Y119.0500
G01 X100.6600 Y119.0500
G01 X100.6600 Y119.9500
G01 X100.7500 Y119.9500
G01 X100.7500 Y119.0500
G01 X100.8400 Y119.0500
G01 X100.8400 Y119.9500
G01 X100.9300 Y119.9500
G01 X100.9300 Y119.0500
G01 X101.0200 Y119.0500
G01 X101.0200 Y119.9500
G01 X101.1100 Y119.9500
G01 X101.1100 Y119.0500
G01 X101.2000 Y119.0500
G01 X101.2000 Y119.9500
G01 X101.2900 Y119.9500
G01 X101.2900 Y119.0500
G01 X101.3800 Y119.0500
G01 X101.3800 Y119.9500
G01 X101.4700 Y119.9500
G01 X101.4700 Y119.0500
G01 X101.5600 Y119.0500
G01 X101.5600 Y119.9500
G01 X101.6500 Y119.9500
G01 X101.6500 Y119.0500
G01 X101.7400 Y119.0500
G01 X101.7400 Y119.9500
G01 X101.8300 Y119.9500
G01 X101.8300 Y119.0500
G01 X101.9200 Y119.0500
G01 X101.9200 Y119.9500
G01 X102.0100 Y119.9500
G01 X102.0100 Y119.0500
G01 X102.1000 Y119.0500
G01 X102.1000 Y119.9500
G01 X102.1900 Y119.9500
G01 X102.1900 Y119.0500
G01 X102.2800 Y119.0500
G01 X102.2800 Y119.9500
G01 X102.3700 Y119.9500
G01 X102.3700 Y119.0500
G01 X102.4600 Y119.0500
G01 X102.4600 Y119.9500
G01 X102.5500 Y119.9500
G01 X102.5500 Y119.0500
G01 X102.6400 Y119.0500
G01 X102.6400 Y119.9500
G01 X102.7300 Y119.9500
G01 X102.7300 Y119.0500
G01 X102.8200 Y119.0500
G01 X102.8200 Y119.9500
G01 X102.9100 Y119.9500
G01 X102.9100 Y119.0500
G01 X103.0000 Y119.0500
G01 X103.0000 Y119.9500
G01 X103.0900 Y119.9500
G01 X103.0900 Y119.0500
G01 X103.0987 Y119.0500
G01 X94.3336 Y119.0500
G01 X94.2258 Y119.0552
G01 X94.0963 Y119.0741
G01 X93.9692 Y119.1053
G01 X93.8457 Y119.1487
G01 X93.7269 Y119.2037
G01 X93.6140 Y119.2699
G01 X93.5080 Y119.3467
G01 X93.4227 Y119.4220
G01 X89.4231 Y123.4089
G01 X89.3468 Y123.4953
G01 X89.2700 Y123.6013
G01 X89.2037 Y123.7142
G01 X89.1487 Y123.8329
G01 X89.1053 Y123.9565
G01 X89.0741 Y124.0836
G01 X89.0552 Y124.2131
G01 X89.0500 Y124.3209
G01 X89.0500 Y149.1803
G01 X89.0521 Y149.2457
G01 X89.0570 Y149.3055
G01 X89.0666 Y149.3781
G01 X89.0773 Y149.4371
G01 X89.0940 Y149.5084
G01 X89.1104 Y149.5660
G01 X89.1340 Y149.6354
G01 X89.1560 Y149.6911
G01 X89.1862 Y149.7579
G01 X89.2136 Y149.8112
G01 X89.2502 Y149.8746
G01 X89.2827 Y149.9250
G01 X89.3254 Y149.9845
G01 X89.3627 Y150.0315
G01 X89.4109 Y150.0866
G01 X89.4418 Y150.1185
G01 X93.4193 Y154.0959
G01 X93.5052 Y154.1717
G01 X93.6112 Y154.2485
G01 X93.7241 Y154.3148
G01 X93.8429 Y154.3698
G01 X93.9664 Y154.4132
G01 X94.0935 Y154.4444
G01 X94.2230 Y154.4633
G01 X94.3308 Y154.4685
G01 X119.1976 Y154.4685
G01 X119.3054 Y154.4633
G01 X119.4349 Y154.4444
G01 X119.5620 Y154.4132
G01 X119.6855 Y154.3698
G01 X119.8043 Y154.3148
G01 X119.9172 Y154.2485
G01 X120.0232 Y154.1717
G01 X120.1214 Y154.0851
G01 X120.1859 Y154.0159
G01 X123.7931 Y149.9913
G01 X123.8517 Y149.9249
G01 X123.9285 Y149.8189
G01 X123.9947 Y149.7060
G01 X124.0498 Y149.5873
G01 X124.0931 Y149.4637
G01 X124.1244 Y149.3366
G01 X124.1433 Y149.2071
G01 X124.1485 Y149.0993
G01 X124.1485 Y124.4093
G01 X124.1433 Y124.3015
G01 X124.1244 Y124.1720
G01 X124.0931 Y124.0448
G01 X124.0498 Y123.9213
G01 X123.9947 Y123.8026
G01 X123.9285 Y123.6897
G01 X123.8517 Y123.5837
G01 X123.7926 Y123.5167
G01 X120.1826 Y119.5020
G01 X120.1185 Y119.4333
G01 X120.0204 Y119.3467
G01 X119.9144 Y119.2699
G01 X119.8015 Y119.2037
G01 X119.6827 Y119.1487
G01 X119.5592 Y119.1053
G01 X119.4321 Y119.0741
G01 X119.3026 Y119.0552
G01 X119.1948 Y119.0500
G01 X103.0987 Y119.0500
G01 X103.1800 Y119.0500
G01 X103.1800 Y119.9576
G00 Z2.0000
G00 X103.2700 Y119.9835
G01 F60.00
G01 Z-2.4000
G01 F2000.00
G01 X103.2700 Y119.0500
G01 X103.3600 Y119.0500
G01 X103.3600 Y120.0325
G00 Z2.0000
G00 X103.4500 Y120.1150
G01 F60.00
G01 Z-2.4000
G01 F2000.00
G01 X103.4500 Y119.0500
G01 X103.5400 Y119.0500
G01 X103.5400 Y120.2911
G00 Z2.0000
G00 X104.2600 Y120.6584
G01 F60.00
G01 Z-2.4000
G01 F2000.00
G01 X104.2600 Y119.0500
G01 X104.1700 Y119.0500
G01 X104.1700 Y122.2719
G01 X104.2600 Y122.2769
G01 X104.2600 Y121.5102
G00 Z2.0000
G00 X104.2600 Y121.4422
G01 F60.00
G01 Z-2.4000
G01 F2000.00
G01 X104.2600 Y121.0398
G00 Z2.0000
G00 X104.3500 Y121.1392
G01 F60.00
G01 Z-2.4000
G01 F2000.00
G01 X104.3500 Y121.3429
G01 X104.4400 Y121.2529
G01 X104.4400 Y121.2290
G00 Z2.0000
G00 X104.4365 Y121.2259
G01 F60.00
G01 Z-2.4000
G01 F2000.00
G01 X104.2772 Y121.0663
G01 X104.2694 Y121.0567
G01 X104.2642 Y121.0484
G01 X104.2599 Y121.0395
G01 X104.2566 Y121.0302
G01 X104.2549 Y121.0230
G01 X104.2539 Y121.0168
G01 X104.2532 Y121.0058
G01 X104.2532 Y120.6899
G01 X104.2536 Y120.6837
G01 X104.2549 Y120.6752
G01 X104.2570 Y120.6668
G01 X104.2590 Y120.6609
G01 X104.2642 Y120.6497
G01 X104.2680 Y120.6434
G01 X104.2724 Y120.6374
G01 X104.2790 Y120.6300
G01 X104.4375 Y120.4716
G01 X104.4421 Y120.4675
G01 X104.4480 Y120.4631
G01 X104.4565 Y120.4579
G01 X104.4666 Y120.4533
G01 X104.4724 Y120.4513
G01 X104.4796 Y120.4495
G01 X104.4894 Y120.4479
G01 X104.4980 Y120.4475
G01 X104.9694 Y120.4475
G01 X104.9768 Y120.4479
G01 X104.9842 Y120.4490
G01 X104.9961 Y120.4521
G01 X105.0019 Y120.4542
G01 X105.0097 Y120.4579
G01 X105.0171 Y120.4624
G01 X105.0231 Y120.4668
G01 X105.0305 Y120.4733
G01 X105.0363 Y120.4797
G01 X105.0414 Y120.4867
G01 X105.0464 Y120.4952
G01 X105.0505 Y120.5042
G01 X105.0541 Y120.5160
G01 X105.0557 Y120.5258
G01 X105.0563 Y120.5344
G01 X105.0563 Y121.4774
G01 X105.0559 Y121.4848
G01 X105.0548 Y121.4922
G01 X105.0517 Y121.5041
G01 X105.0496 Y121.5099
G01 X105.0459 Y121.5177
G01 X105.0414 Y121.5251
G01 X105.0370 Y121.5311
G01 X105.0305 Y121.5385
G01 X105.0231 Y121.5451
G01 X105.0171 Y121.5495
G01 X105.0118 Y121.5527
G01 X105.0030 Y121.5571
G01 X104.9937 Y121.5605
G01 X104.9842 Y121.5628
G01 X104.9768 Y121.5639
G01 X104.9706 Y121.5643
G01 X104.9608 Y121.5640
G01 X104.9510 Y121.5626
G01 X104.9414 Y121.5601
G01 X104.9322 Y121.5566
G01 X104.9266 Y121.5539
G01 X104.9202 Y121.5501
G01 X104.9123 Y121.5443
G01 X104.9050 Y121.5376
G01 X104.8985 Y121.5302
G01 X104.8949 Y121.5251
G01 X104.8910 Y121.5188
G01 X104.8868 Y121.5099
G01 X104.8835 Y121.5006
G01 X104.8813 Y121.4910
G01 X104.8801 Y121.4786
G01 X104.8801 Y121.2509
G01 X104.6912 Y121.2509
G01 X104.4036 Y121.5385
G01 X104.3962 Y121.5451
G01 X104.3902 Y121.5495
G01 X104.3850 Y121.5527
G01 X104.3750 Y121.5576
G01 X104.3645 Y121.5612
G01 X104.3585 Y121.5626
G01 X104.3499 Y121.5639
G01 X104.3388 Y121.5643
G01 X104.3327 Y121.5639
G01 X104.3241 Y121.5626
G01 X104.3134 Y121.5597
G01 X104.3076 Y121.5576
G01 X104.3008 Y121.5545
G01 X104.2934 Y121.5501
G01 X104.2864 Y121.5451
G01 X104.2799 Y121.5394
G01 X104.2748 Y121.5340
G01 X104.2687 Y121.5262
G01 X104.2648 Y121.5199
G01 X104.2590 Y121.5076
G01 X104.2566 Y121.5006
G01 X104.2546 Y121.4922
G01 X104.2535 Y121.4836
G01 X104.2532 Y121.4750
G01 X104.2536 Y121.4676
G01 X104.2549 Y121.4590
G01 X104.2570 Y121.4506
G01 X104.2599 Y121.4425
G01 X104.2636 Y121.4347
G01 X104.2680 Y121.4272
G01 X104.2732 Y121.4203
G01 X104.2781 Y121.4148
G01 X104.4539 Y121.2390
G01 X104.4440 Y121.2324
G01 X104.4365 Y121.2259
G00 Z2.0000
G00 X104.5194 Y121.0595
G01 F60.00
G01 Z-2.4000
G01 F2000.00
G01 X104.5194 Y120.6389
G01 X104.6094 Y120.6237
G01 X104.6094 Y121.0746
G01 X104.6994 Y121.0746
G01 X104.6994 Y120.6238
G01 X104.7894 Y120.6238
G01 X104.7894 Y121.0746
G01 X104.8794 Y121.0746
G01 X104.8794 Y120.6238
G01 X104.8800 Y121.0746
G01 X104.8800 Y120.6238
G01 X104.5345 Y120.6237
G01 X104.4294 Y120.7288
G01 X104.4294 Y120.9693
G01 X104.5346 Y121.0746
G01 X104.8800 Y121.0746
G00 Z2.0000
G00 X104.6200 Y121.3221
G01 F60.00
G01 Z-2.4000
G01 F2000.00
G01 X104.6200 Y122.2524
G00 Z2.0000
G00 X104.7100 Y122.2544
G01 F60.00
G01 Z-2.4000
G01 F2000.00
G01 X104.7100 Y121.2509
G01 X104.8000 Y121.2509
G01 X104.8000 Y122.2749
G01 X104.8900 Y122.2769
G01 X104.8900 Y121.5169
G00 Z2.0000
G00 X104.9800 Y121.5635
G01 F60.00
G01 Z-2.4000
G01 F2000.00
G01 X104.9800 Y122.2769
G01 X105.0700 Y122.2769
G01 X105.0700 Y119.0500
G01 X104.9800 Y119.0500
G01 X104.9800 Y120.4484
G00 Z2.0000
G00 X104.8900 Y120.4475
G01 F60.00
G01 Z-2.4000
G01 F2000.00
G01 X104.8900 Y119.0500
G01 X104.8000 Y119.0500
G01 X104.8000 Y120.4475
G01 X104.7100 Y120.4475
G01 X104.7100 Y119.0500
G01 X104.6200 Y119.0500
G01 X104.6200 Y120.4475
G01 X104.5300 Y120.4475
G01 X104.5300 Y119.0500
G01 X104.4400 Y119.0500
G01 X104.4400 Y120.4694
G00 Z2.0000
G00 X104.3500 Y120.5590
G01 F60.00
G01 Z-2.4000
G01 F2000.00
G01 X104.3500 Y119.0500
G01 X104.0800 Y119.0500
G01 X104.0800 Y122.2346
G01 X103.9900 Y122.1973
G01 X103.9900 Y119.0500
G01 X103.9000 Y119.0500
G01 X103.9000 Y122.1600
G01 X103.8100 Y122.0773
G01 X103.8100 Y119.0500
G01 X103.7200 Y119.0500
G01 X103.7200 Y121.9873
G01 X103.6300 Y121.8516
G01 X103.6300 Y119.0500
G00 Z2.0000
G00 X105.1600 Y119.0500
G01 F60.00
G01 Z-2.4000
G01 F2000.00
G01 X105.1600 Y122.2769
G01 X105.2500 Y122.2769
G01 X105.2500 Y121.5601
G00 Z2.0000
G00 X105.3400 Y121.5376
G01 F60.00
G01 Z-2.4000
G01 F2000.00
G01 X105.3400 Y122.2769
G01 X105.4300 Y122.2769
G01 X105.4300 Y121.4475
G01 X105.5200 Y121.3575
G01 X105.5200 Y122.2566
G00 Z2.0000
G00 X105.6100 Y122.2516
G01 F60.00
G01 Z-2.4000
G01 F2000.00
G01 X105.6100 Y121.2674
G01 X105.7000 Y121.1774
G01 X105.7000 Y122.2646
G01 X105.7900 Y122.2769
G01 X105.7900 Y121.1735
G00 Z2.0000
G00 X105.6100 Y121.0181
G01 F60.00
G01 Z-2.4000
G01 F2000.00
G01 X105.6100 Y120.9935
G01 X105.5200 Y120.9035
G01 X105.5200 Y121.1082
G01 X105.4300 Y121.1982
G01 X105.4300 Y120.8135
G01 X105.3400 Y120.7235
G01 X105.3400 Y121.2883
G01 X105.2500 Y121.3783
G01 X105.2500 Y120.6335
G01 X105.2145 Y120.5979
G01 X105.2136 Y120.5971
G01 X105.2079 Y120.5906
G01 X105.2028 Y120.5836
G01 X105.1991 Y120.5772
G01 X105.1964 Y120.5716
G01 X105.1925 Y120.5612
G01 X105.1899 Y120.5504
G01 X105.1891 Y120.5443
G01 X105.1887 Y120.5369
G01 X105.1891 Y120.5270
G01 X105.1906 Y120.5172
G01 X105.1932 Y120.5077
G01 X105.1954 Y120.5019
G01 X105.1985 Y120.4952
G01 X105.2035 Y120.4867
G01 X105.2095 Y120.4788
G01 X105.2145 Y120.4733
G01 X105.2190 Y120.4691
G01 X105.2268 Y120.4631
G01 X105.2374 Y120.4568
G01 X105.2431 Y120.4542
G01 X105.2512 Y120.4513
G01 X105.2596 Y120.4492
G01 X105.2669 Y120.4481
G01 X105.2792 Y120.4476
G01 X105.2854 Y120.4479
G01 X105.2940 Y120.4492
G01 X105.3024 Y120.4513
G01 X105.3094 Y120.4538
G01 X105.3204 Y120.4591
G01 X105.3257 Y120.4624
G01 X105.3327 Y120.4675
G01 X105.3391 Y120.4733
G01 X105.8158 Y120.9500
G01 X105.8158 Y120.5356
G01 X105.8162 Y120.5270
G01 X105.8171 Y120.5209
G01 X105.8200 Y120.5089
G01 X105.8225 Y120.5019
G01 X105.8251 Y120.4963
G01 X105.8306 Y120.4867
G01 X105.8374 Y120.4779
G01 X105.8416 Y120.4733
G01 X105.8471 Y120.4683
G01 X105.8560 Y120.4617
G01 X105.8624 Y120.4579
G01 X105.8679 Y120.4552
G01 X105.8783 Y120.4513
G01 X105.8879 Y120.4490
G01 X105.8953 Y120.4479
G01 X105.9014 Y120.4476
G01 X105.9125 Y120.4479
G01 X105.9235 Y120.4497
G01 X105.9295 Y120.4513
G01 X105.9365 Y120.4538
G01 X105.9465 Y120.4585
G01 X105.9529 Y120.4624
G01 X105.9579 Y120.4660
G01 X105.9662 Y120.4733
G01 X105.9735 Y120.4817
G01 X105.9772 Y120.4867
G01 X105.9816 Y120.4941
G01 X105.9853 Y120.5019
G01 X105.9875 Y120.5077
G01 X105.9906 Y120.5196
G01 X105.9916 Y120.5270
G01 X105.9920 Y120.5344
G01 X105.9920 Y121.4762
G01 X105.9916 Y121.4848
G01 X105.9907 Y121.4910
G01 X105.9879 Y121.5029
G01 X105.9853 Y121.5099
G01 X105.9822 Y121.5166
G01 X105.9758 Y121.5272
G01 X105.9720 Y121.5321
G01 X105.9662 Y121.5385
G01 X105.9598 Y121.5443
G01 X105.9539 Y121.5488
G01 X105.9432 Y121.5550
G01 X105.9376 Y121.5576
G01 X105.9295 Y121.5605
G01 X105.9211 Y121.5626
G01 X105.9150 Y121.5636
G01 X105.9027 Y121.5643
G01 X105.8953 Y121.5639
G01 X105.8879 Y121.5628
G01 X105.8760 Y121.5597
G01 X105.8702 Y121.5576
G01 X105.8624 Y121.5539
G01 X105.8549 Y121.5495
G01 X105.8499 Y121.5458
G01 X105.8407 Y121.5376
G01 X105.8358 Y121.5321
G01 X105.8313 Y121.5262
G01 X105.8256 Y121.5166
G01 X105.8225 Y121.5099
G01 X105.8200 Y121.5029
G01 X105.8173 Y121.4922
G01 X105.8162 Y121.4848
G01 X105.8158 Y121.4786
G01 X105.8158 Y121.1993
G01 X105.7469 Y121.1304
G01 X105.3391 Y121.5385
G01 X105.3327 Y121.5443
G01 X105.3258 Y121.5494
G01 X105.3194 Y121.5533
G01 X105.3082 Y121.5585
G01 X105.3024 Y121.5605
G01 X105.2940 Y121.5626
G01 X105.2854 Y121.5639
G01 X105.2780 Y121.5643
G01 X105.2657 Y121.5636
G01 X105.2596 Y121.5626
G01 X105.2512 Y121.5605
G01 X105.2431 Y121.5576
G01 X105.2363 Y121.5545
G01 X105.2258 Y121.5481
G01 X105.2200 Y121.5435
G01 X105.2136 Y121.5376
G01 X105.2079 Y121.5312
G01 X105.2029 Y121.5241
G01 X105.1985 Y121.5167
G01 X105.1949 Y121.5088
G01 X105.1921 Y121.5006
G01 X105.1901 Y121.4922
G01 X105.1890 Y121.4836
G01 X105.1887 Y121.4750
G01 X105.1892 Y121.4664
G01 X105.1906 Y121.4578
G01 X105.1928 Y121.4495
G01 X105.1958 Y121.4414
G01 X105.1996 Y121.4336
G01 X105.2049 Y121.4253
G01 X105.2086 Y121.4203
G01 X105.2145 Y121.4139
G01 X105.6223 Y121.0058
G01 X105.2145 Y120.5979
G00 Z2.0000
G00 X105.2500 Y120.4517
G01 F60.00
G01 Z-2.4000
G01 F2000.00
G01 X105.2500 Y119.0500
G01 X105.3400 Y119.0500
G01 X105.3400 Y120.4742
G01 X105.4300 Y120.5642
G01 X105.4300 Y119.0500
G01 X105.5200 Y119.0500
G01 X105.5200 Y120.6542
G01 X105.6100 Y120.7442
G01 X105.6100 Y119.0500
G01 X105.7000 Y119.0500
G01 X105.7000 Y120.8342
G01 X105.7900 Y120.9242
G01 X105.7900 Y119.0500
G01 X105.8800 Y119.0500
G01 X105.8800 Y120.4508
G00 Z2.0000
G00 X105.9700 Y120.4774
G01 F60.00
G01 Z-2.4000
G01 F2000.00
G01 X105.9700 Y119.0500
G01 X106.0600 Y119.0500
G01 X106.0600 Y122.2769
G01 X105.9700 Y122.2769
G01 X105.9700 Y121.5344
G00 Z2.0000
G00 X105.8800 Y121.5610
G01 F60.00
G01 Z-2.4000
G01 F2000.00
G01 X105.8800 Y122.2769
G01 X106.1500 Y122.2409
G01 X106.1500 Y120.5980
G00 Z2.0000
G00 X106.2123 Y120.6237
G01 F60.00
G01 Z-2.4000
G01 F2000.00
G01 X106.2036 Y120.6233
G01 X106.1951 Y120.6221
G01 X106.1867 Y120.6200
G01 X106.1797 Y120.6175
G01 X106.1718 Y120.6139
G01 X106.1643 Y120.6096
G01 X106.1573 Y120.6045
G01 X106.1517 Y120.5996
G01 X106.1426 Y120.5896
G01 X106.1383 Y120.5836
G01 X106.1334 Y120.5750
G01 X106.1304 Y120.5682
G01 X106.1276 Y120.5600
G01 X106.1256 Y120.5516
G01 X106.1245 Y120.5430
G01 X106.1241 Y120.5356
G01 X106.1246 Y120.5270
G01 X106.1258 Y120.5184
G01 X106.1279 Y120.5101
G01 X106.1308 Y120.5019
G01 X106.1345 Y120.4941
G01 X106.1390 Y120.4867
G01 X106.1441 Y120.4797
G01 X106.1500 Y120.4733
G01 X106.1564 Y120.4675
G01 X106.1633 Y120.4624
G01 X106.1696 Y120.4585
G01 X106.1774 Y120.4547
G01 X106.1855 Y120.4517
G01 X106.1939 Y120.4495
G01 X106.2012 Y120.4482
G01 X106.2123 Y120.4475
G01 X106.8394 Y120.4475
G01 X106.8480 Y120.4479
G01 X106.8566 Y120.4492
G01 X106.8638 Y120.4510
G01 X106.8753 Y120.4552
G01 X106.8809 Y120.4579
G01 X106.8883 Y120.4624
G01 X106.8953 Y120.4675
G01 X106.9008 Y120.4725
G01 X106.9067 Y120.4788
G01 X106.9112 Y120.4847
G01 X106.9177 Y120.4952
G01 X106.9208 Y120.5019
G01 X106.9237 Y120.5101
G01 X106.9258 Y120.5184
G01 X106.9268 Y120.5246
G01 X106.9275 Y120.5356
G01 X106.9275 Y121.4762
G01 X106.9272 Y121.4836
G01 X106.9260 Y121.4922
G01 X106.9244 Y121.4994
G01 X106.9203 Y121.5110
G01 X106.9171 Y121.5177
G01 X106.9127 Y121.5251
G01 X106.9075 Y121.5321
G01 X106.9025 Y121.5376
G01 X106.8934 Y121.5458
G01 X106.8873 Y121.5501
G01 X106.8798 Y121.5545
G01 X106.8731 Y121.5576
G01 X106.8650 Y121.5605
G01 X106.8566 Y121.5626
G01 X106.8505 Y121.5636
G01 X106.8369 Y121.5643
G01 X106.8295 Y121.5638
G01 X106.8198 Y121.5621
G01 X106.8126 Y121.5601
G01 X106.8045 Y121.5571
G01 X106.7968 Y121.5533
G01 X106.7894 Y121.5488
G01 X106.7835 Y121.5443
G01 X106.7771 Y121.5385
G01 X106.7713 Y121.5321
G01 X106.7661 Y121.5251
G01 X106.7617 Y121.5177
G01 X106.7580 Y121.5099
G01 X106.7551 Y121.5018
G01 X106.7530 Y121.4934
G01 X106.7517 Y121.4848
G01 X106.7513 Y121.4762
G01 X106.7513 Y121.0939
G01 X106.5245 Y121.0939
G01 X106.5146 Y121.0932
G01 X106.5025 Y121.0908
G01 X106.4908 Y121.0867
G01 X106.4842 Y121.0835
G01 X106.4778 Y121.0797
G01 X106.4689 Y121.0731
G01 X106.4634 Y121.0681
G01 X106.4584 Y121.0626
G01 X106.4511 Y121.0527
G01 X106.4480 Y121.0473
G01 X106.4443 Y121.0395
G01 X106.4414 Y121.0314
G01 X106.4398 Y121.0254
G01 X106.4380 Y121.0144
G01 X106.4376 Y121.0058
G01 X106.4379 Y120.9984
G01 X106.4390 Y120.9898
G01 X106.4407 Y120.9826
G01 X106.4448 Y120.9709
G01 X106.4480 Y120.9642
G01 X106.4524 Y120.9568
G01 X106.4576 Y120.9499
G01 X106.4625 Y120.9444
G01 X106.4717 Y120.9362
G01 X106.4778 Y120.9319
G01 X106.4852 Y120.9275
G01 X106.4920 Y120.9244
G01 X106.5001 Y120.9215
G01 X106.5109 Y120.9189
G01 X106.5171 Y120.9181
G01 X106.5245 Y120.9177
G01 X106.7513 Y120.9177
G01 X106.7513 Y120.6238
G01 X106.2123 Y120.6237
G01 X106.2400 Y120.6237
G01 X106.2400 Y122.2061
G00 Z2.0000
G00 X106.3300 Y122.1887
G01 F60.00
G01 Z-2.4000
G01 F2000.00
G01 X106.3300 Y120.6237
G01 X106.4200 Y120.6238
G01 X106.4200 Y122.1894
G00 Z2.0000
G00 X106.5100 Y122.2084
G01 F60.00
G01 Z-2.4000
G01 F2000.00
G01 X106.5100 Y121.0925
G00 Z2.0000
G00 X106.6000 Y121.0939
G01 F60.00
G01 Z-2.4000
G01 F2000.00
G01 X106.6000 Y122.2437
G01 X106.6900 Y122.2769
G01 X106.6900 Y121.0939
G00 Z2.0000
G00 X106.6900 Y120.9177
G01 F60.00
G01 Z-2.4000
G01 F2000.00
G01 X106.6900 Y120.6238
G01 X106.6000 Y120.6238
G01 X106.6000 Y120.9177
G00 Z2.0000
G00 X106.5100 Y120.9191
G01 F60.00
G01 Z-2.4000
G01 F2000.00
G01 X106.5100 Y120.6238
G00 Z2.0000
G00 X106.5100 Y120.4475
G01 F60.00
G01 Z-2.4000
G01 F2000.00
G01 X106.5100 Y119.0500
G01 X106.4200 Y119.0500
G01 X106.4200 Y120.4475
G01 X106.3300 Y120.4475
G01 X106.3300 Y119.0500
G01 X106.2400 Y119.0500
G01 X106.2400 Y120.4475
G00 Z2.0000
G00 X106.1500 Y120.4733
G01 F60.00
G01 Z-2.4000
G01 F2000.00
G01 X106.1500 Y119.0500
G01 X106.6000 Y119.0500
G01 X106.6000 Y120.4475
G01 X106.6900 Y120.4475
G01 X106.6900 Y119.0500
G01 X106.7800 Y119.0500
G01 X106.7800 Y120.4475
G00 Z2.0000
G00 X106.8700 Y120.4530
G01 F60.00
G01 Z-2.4000
G01 F2000.00
G01 X106.8700 Y119.0500
G01 X106.9600 Y119.0500
G01 X106.9600 Y122.2769
G01 X106.8700 Y122.2769
G01 X106.8700 Y121.5588
G00 Z2.0000
G00 X106.7800 Y121.5412
G01 F60.00
G01 Z-2.4000
G01 F2000.00
G01 X106.7800 Y122.2769
G01 X107.0500 Y122.2556
G01 X107.0500 Y119.0500
G01 X107.1400 Y119.0500
G01 X107.1400 Y122.2183
G01 X107.2300 Y122.1811
G01 X107.2300 Y119.0500
G01 X107.3200 Y119.0500
G01 X107.3200 Y122.1457
G00 Z2.0000
G00 X107.4100 Y122.1261
G01 F60.00
G01 Z-2.4000
G01 F2000.00
G01 X107.4100 Y119.0500
G01 X107.5000 Y119.0500
G01 X107.5000 Y122.1248
G00 Z2.0000
G00 X107.5900 Y122.1416
G01 F60.00
G01 Z-2.4000
G01 F2000.00
G01 X107.5900 Y119.0500
G01 X107.6800 Y119.0500
G01 X107.6800 Y122.1760
G01 X107.7700 Y122.2132
G01 X107.7700 Y119.0500
G01 X107.8600 Y119.0500
G01 X107.8600 Y122.2504
G01 X107.9500 Y122.2769
G01 X107.9500 Y119.0500
G01 X108.0400 Y119.0500
G01 X108.0400 Y121.3994
G00 Z2.0000
G00 X108.1300 Y121.3881
G01 F60.00
G01 Z-2.4000
G01 F2000.00
G01 X108.1300 Y119.0500
G01 X108.2200 Y119.0500
G01 X108.2200 Y121.3881
G01 X108.3088 Y121.3881
G01 X108.3088 Y120.5344
G01 X108.3094 Y120.5258
G01 X108.3107 Y120.5172
G01 X108.3130 Y120.5089
G01 X108.3160 Y120.5008
G01 X108.3198 Y120.4930
G01 X108.3243 Y120.4857
G01 X108.3296 Y120.4788
G01 X108.3355 Y120.4725
G01 X108.3410 Y120.4675
G01 X108.3480 Y120.4624
G01 X108.3554 Y120.4579
G01 X108.3632 Y120.4542
G01 X108.3713 Y120.4513
G01 X108.3785 Y120.4495
G01 X108.3871 Y120.4481
G01 X108.3945 Y120.4476
G01 X108.4080 Y120.4482
G01 X108.4153 Y120.4495
G01 X108.4237 Y120.4517
G01 X108.4306 Y120.4542
G01 X108.4385 Y120.4579
G01 X108.4459 Y120.4624
G01 X108.4519 Y120.4668
G01 X108.4592 Y120.4733
G01 X108.7743 Y120.7885
G01 X108.7785 Y120.7932
G01 X108.7836 Y120.8001
G01 X108.7881 Y120.8075
G01 X108.7913 Y120.8142
G01 X108.7953 Y120.8259
G01 X108.7970 Y120.8331
G01 X108.7981 Y120.8417
G01 X108.7984 Y120.8515
G01 X108.7972 Y120.8638
G01 X108.7950 Y120.8735
G01 X108.7918 Y120.8828
G01 X108.7875 Y120.8917
G01 X108.7822 Y120.9000
G01 X108.7785 Y120.9050
G01 X108.7735 Y120.9105
G01 X108.7662 Y120.9172
G01 X108.7583 Y120.9230
G01 X108.7497 Y120.9279
G01 X108.7441 Y120.9305
G01 X108.7371 Y120.9330
G01 X108.7275 Y120.9355
G01 X108.7178 Y120.9369
G01 X108.7079 Y120.9371
G01 X108.7017 Y120.9368
G01 X108.6944 Y120.9357
G01 X108.6848 Y120.9334
G01 X108.6766 Y120.9305
G01 X108.6677 Y120.9262
G01 X108.6594 Y120.9209
G01 X108.6498 Y120.9131
G01 X108.4850 Y120.7484
G01 X108.4850 Y121.3881
G01 X108.7128 Y121.3881
G01 X108.7214 Y121.3888
G01 X108.7336 Y121.3912
G01 X108.7429 Y121.3943
G01 X108.7508 Y121.3979
G01 X108.7593 Y121.4029
G01 X108.7662 Y121.4081
G01 X108.7735 Y121.4148
G01 X108.7800 Y121.4222
G01 X108.7869 Y121.4325
G01 X108.7913 Y121.4413
G01 X108.7947 Y121.4506
G01 X108.7968 Y121.4590
G01 X108.7981 Y121.4688
G01 X108.7984 Y121.4786
G01 X108.7972 Y121.4910
G01 X108.7950 Y121.5006
G01 X108.7918 Y121.5099
G01 X108.7881 Y121.5177
G01 X108.7829 Y121.5262
G01 X108.7769 Y121.5340
G01 X108.7718 Y121.5394
G01 X108.7643 Y121.5458
G01 X108.7572 Y121.5508
G01 X108.7463 Y121.5566
G01 X108.7371 Y121.5601
G01 X108.7287 Y121.5624
G01 X108.7202 Y121.5638
G01 X108.7128 Y121.5643
G01 X108.0820 Y121.5643
G01 X108.0746 Y121.5639
G01 X108.0672 Y121.5628
G01 X108.0565 Y121.5601
G01 X108.0495 Y121.5576
G01 X108.0428 Y121.5545
G01 X108.0333 Y121.5488
G01 X108.0273 Y121.5443
G01 X108.0218 Y121.5394
G01 X108.0143 Y121.5311
G01 X108.0100 Y121.5251
G01 X108.0061 Y121.5188
G01 X108.0014 Y121.5088
G01 X107.9986 Y121.5006
G01 X107.9966 Y121.4922
G01 X107.9954 Y121.4836
G01 X107.9951 Y121.4750
G01 X107.9957 Y121.4663
G01 X107.9971 Y121.4578
G01 X107.9993 Y121.4494
G01 X108.0023 Y121.4413
G01 X108.0061 Y121.4336
G01 X108.0107 Y121.4262
G01 X108.0159 Y121.4194
G01 X108.0218 Y121.4130
G01 X108.0283 Y121.4073
G01 X108.0353 Y121.4023
G01 X108.0428 Y121.3979
G01 X108.0506 Y121.3943
G01 X108.0576 Y121.3919
G01 X108.0660 Y121.3898
G01 X108.0746 Y121.3885
G01 X108.0820 Y121.3881
G01 X108.3088 Y121.3881
G00 Z2.0000
G00 X108.3100 Y121.5643
G01 F60.00
G01 Z-2.4000
G01 F2000.00
G01 X108.3100 Y122.2769
G01 X108.2200 Y122.2769
G01 X108.2200 Y121.5643
G01 X108.1300 Y121.5643
G01 X108.1300 Y122.2769
G01 X108.0400 Y122.2769
G01 X108.0400 Y121.5530
G00 Z2.0000
G00 X108.4000 Y121.5643
G01 F60.00
G01 Z-2.4000
G01 F2000.00
G01 X108.4000 Y122.2769
G01 X108.4900 Y122.2769
G01 X108.4900 Y121.5643
G01 X108.5800 Y121.5643
G01 X108.5800 Y122.2769
G01 X108.6700 Y122.2769
G01 X108.6700 Y121.5643
G00 Z2.0000
G00 X108.7600 Y121.5490
G01 F60.00
G01 Z-2.4000
G01 F2000.00
G01 X108.7600 Y122.2769
G01 X108.8500 Y122.2769
G01 X108.8500 Y119.0500
G01 X108.7600 Y119.0500
G01 X108.7600 Y120.7741
G01 X108.6700 Y120.6841
G01 X108.6700 Y119.0500
G01 X108.5800 Y119.0500
G01 X108.5800 Y120.5941
G01 X108.4900 Y120.5041
G01 X108.4900 Y119.0500
G01 X108.4000 Y119.0500
G01 X108.4000 Y120.4476
G00 Z2.0000
G00 X108.3100 Y120.5213
G01 F60.00
G01 Z-2.4000
G01 F2000.00
G01 X108.3100 Y119.0500
G01 X108.9400 Y119.0500
G01 X108.9400 Y120.8095
G00 Z2.0000
G00 X108.9400 Y120.8887
G01 F60.00
G01 Z-2.4000
G01 F2000.00
G01 X108.9400 Y122.2626
G00 Z2.0000
G00 X109.0300 Y122.2579
G01 F60.00
G01 Z-2.4000
G01 F2000.00
G01 X109.0300 Y121.0686
G00 Z2.0000
G00 X109.2100 Y121.0345
G01 F60.00
G01 Z-2.4000
G01 F2000.00
G01 X109.2100 Y119.0500
G01 X109.1200 Y119.0500
G01 X109.1200 Y120.8546
G00 Z2.0000
G00 X109.0300 Y120.7617
G01 F60.00
G01 Z-2.4000
G01 F2000.00
G01 X109.0300 Y119.0500
G01 X109.3000 Y119.0500
G01 X109.3000 Y121.2145
G01 X109.3324 Y121.2792
G01 X109.5670 Y120.8097
G01 X109.5713 Y120.8021
G01 X109.5748 Y120.7970
G01 X109.5818 Y120.7885
G01 X109.5900 Y120.7809
G01 X109.5949 Y120.7772
G01 X109.6022 Y120.7725
G01 X109.6099 Y120.7686
G01 X109.6156 Y120.7663
G01 X109.6263 Y120.7631
G01 X109.6372 Y120.7614
G01 X109.6434 Y120.7610
G01 X109.6521 Y120.7612
G01 X109.6631 Y120.7627
G01 X109.6691 Y120.7641
G01 X109.6773 Y120.7668
G01 X109.6852 Y120.7702
G01 X109.6907 Y120.7732
G01 X109.6998 Y120.7794
G01 X109.7064 Y120.7851
G01 X109.7107 Y120.7895
G01 X109.7177 Y120.7981
G01 X109.7235 Y120.8076
G01 X109.7263 Y120.8131
G01 X109.7294 Y120.8212
G01 X109.7318 Y120.8295
G01 X109.7329 Y120.8356
G01 X109.7339 Y120.8467
G01 X109.7336 Y120.8565
G01 X109.7322 Y120.8663
G01 X109.7290 Y120.8782
G01 X109.7252 Y120.8874
G01 X109.4107 Y121.5167
G01 X109.4071 Y121.5230
G01 X109.4022 Y121.5299
G01 X109.3967 Y121.5364
G01 X109.3915 Y121.5415
G01 X109.3820 Y121.5490
G01 X109.3759 Y121.5528
G01 X109.3683 Y121.5567
G01 X109.3615 Y121.5594
G01 X109.3534 Y121.5618
G01 X109.3451 Y121.5634
G01 X109.3366 Y121.5642
G01 X109.3282 Y121.5642
G01 X109.3209 Y121.5636
G01 X109.3126 Y121.5620
G01 X109.3056 Y121.5601
G01 X109.2933 Y121.5551
G01 X109.2869 Y121.5516
G01 X109.2798 Y121.5469
G01 X109.2742 Y121.5423
G01 X109.2681 Y121.5364
G01 X109.2626 Y121.5300
G01 X109.2577 Y121.5230
G01 X109.2536 Y121.5156
G01 X108.9394 Y120.8874
G01 X108.9356 Y120.8783
G01 X108.9337 Y120.8724
G01 X108.9321 Y120.8651
G01 X108.9308 Y120.8553
G01 X108.9307 Y120.8455
G01 X108.9313 Y120.8381
G01 X108.9323 Y120.8320
G01 X108.9351 Y120.8212
G01 X108.9393 Y120.8109
G01 X108.9421 Y120.8054
G01 X108.9468 Y120.7981
G01 X108.9521 Y120.7913
G01 X108.9564 Y120.7868
G01 X108.9647 Y120.7795
G01 X108.9718 Y120.7745
G01 X108.9771 Y120.7714
G01 X108.9872 Y120.7668
G01 X108.9954 Y120.7641
G01 X109.0015 Y120.7627
G01 X109.0124 Y120.7612
G01 X109.0235 Y120.7611
G01 X109.0297 Y120.7616
G01 X109.0382 Y120.7631
G01 X109.0489 Y120.7663
G01 X109.0546 Y120.7686
G01 X109.0623 Y120.7725
G01 X109.0696 Y120.7772
G01 X109.0745 Y120.7809
G01 X109.0827 Y120.7885
G01 X109.0883 Y120.7950
G01 X109.0919 Y120.8001
G01 X109.0975 Y120.8096
G01 X109.3324 Y121.2792
G01 X109.3900 Y121.1638
G01 X109.3900 Y119.0500
G01 X109.4800 Y119.0500
G01 X109.4800 Y120.9838
G00 Z2.0000
G00 X109.6600 Y121.0178
G01 F60.00
G01 Z-2.4000
G01 F2000.00
G01 X109.6600 Y122.2118
G00 Z2.0000
G00 X109.7500 Y122.1747
G01 F60.00
G01 Z-2.4000
G01 F2000.00
G01 X109.7500 Y119.0500
G01 X109.8400 Y119.0500
G01 X109.8400 Y122.1175
G00 Z2.0000
G00 X109.9300 Y122.0714
G01 F60.00
G01 Z-2.4000
G01 F2000.00
G01 X109.9300 Y119.0500
G01 X110.0200 Y119.0500
G01 X110.0200 Y122.0408
G00 Z2.0000
G00 X110.1100 Y122.0295
G01 F60.00
G01 Z-2.4000
G01 F2000.00
G01 X110.1100 Y119.0500
G01 X110.2000 Y119.0500
G01 X110.2000 Y122.0362
G00 Z2.0000
G00 X110.2900 Y122.0616
G01 F60.00
G01 Z-2.4000
G01 F2000.00
G01 X110.2900 Y119.0500
G01 X110.3800 Y119.0500
G01 X110.3800 Y122.1098
G01 X110.4700 Y122.1689
G01 X110.4700 Y119.0500
G01 X110.5600 Y119.0500
G01 X110.5600 Y122.2062
G01 X110.6500 Y122.2435
G01 X110.6500 Y119.0500
G01 X110.7400 Y119.0500
G01 X110.7400 Y122.2769
G01 X110.8300 Y122.2769
G01 X110.8300 Y121.5407
G00 Z2.0000
G00 X110.9200 Y121.5590
G01 F60.00
G01 Z-2.4000
G01 F2000.00
G01 X110.9200 Y122.2769
G01 X111.0100 Y122.2769
G01 X111.0100 Y121.0939
G01 X111.1000 Y121.0939
G01 X111.1000 Y122.2630
G00 Z2.0000
G00 X111.1900 Y122.2513
G01 F60.00
G01 Z-2.4000
G01 F2000.00
G01 X111.1900 Y121.0939
G01 X111.2800 Y121.0939
G01 X111.2800 Y122.2576
G00 Z2.0000
G00 X111.3700 Y122.2769
G01 F60.00
G01 Z-2.4000
G01 F2000.00
G01 X111.3700 Y121.0939
G00 Z2.0000
G00 X111.5500 Y120.7577
G01 F60.00
G01 Z-2.4000
G01 F2000.00
G01 X111.5500 Y119.0500
G01 X111.4600 Y119.0500
G01 X111.4600 Y120.6677
G01 X111.3700 Y120.5777
G01 X111.3700 Y119.0500
G01 X111.2800 Y119.0500
G01 X111.2800 Y120.4877
G00 Z2.0000
G00 X111.1900 Y120.4486
G01 F60.00
G01 Z-2.4000
G01 F2000.00
G01 X111.1900 Y119.0500
G01 X111.1000 Y119.0500
G01 X111.1000 Y120.5144
G01 X111.0100 Y120.6044
G01 X111.0100 Y119.0500
G01 X110.9200 Y119.0500
G01 X110.9200 Y120.6944
G01 X110.8300 Y120.7844
G01 X110.8300 Y119.0500
G01 X111.6400 Y119.0500
G01 X111.6400 Y122.2769
G01 X111.5500 Y122.2769
G01 X111.5500 Y121.5578
G00 Z2.0000
G00 X111.4600 Y121.5436
G01 F60.00
G01 Z-2.4000
G01 F2000.00
G01 X111.4600 Y122.2769
G00 Z2.0000
G00 X111.7300 Y122.2782
G01 F60.00
G01 Z-2.4000
G01 F2000.00
G01 X111.7300 Y119.0500
G01 X111.8200 Y119.0500
G01 X111.8200 Y120.4477
G00 Z2.0000
G00 X111.9100 Y120.5110
G01 F60.00
G01 Z-2.4000
G01 F2000.00
G01 X111.9100 Y119.0500
G01 X112.0000 Y119.0500
G01 X112.0000 Y121.0555
G01 X112.0900 Y120.9205
G01 X112.0900 Y119.0500
G01 X112.1800 Y119.0500
G01 X112.1800 Y120.7855
G01 X112.2700 Y120.6506
G01 X112.2700 Y119.0500
G01 X112.3600 Y119.0500
G01 X112.3600 Y120.5156
G00 Z2.0000
G00 X112.4500 Y120.4476
G01 F60.00
G01 Z-2.4000
G01 F2000.00
G01 X112.4500 Y119.0500
G01 X112.5400 Y119.0500
G01 X112.5400 Y120.5251
G00 Z2.0000
G00 X112.7200 Y120.4585
G01 F60.00
G01 Z-2.4000
G01 F2000.00
G01 X112.7200 Y119.0500
G01 X112.6300 Y119.0500
G01 X112.6300 Y122.2769
G01 X112.5400 Y122.2769
G01 X112.5400 Y121.4867
G00 Z2.0000
G00 X112.4500 Y121.5642
G01 F60.00
G01 Z-2.4000
G01 F2000.00
G01 X112.4500 Y122.2769
G01 X112.3600 Y122.2769
G01 X112.3600 Y120.8333
G01 X112.2700 Y120.9682
G01 X112.2700 Y122.2700
G00 Z2.0000
G00 X112.1800 Y122.2527
G01 F60.00
G01 Z-2.4000
G01 F2000.00
G01 X112.1800 Y121.1032
G01 X112.0900 Y121.2382
G01 X112.0900 Y122.2535
G00 Z2.0000
G00 X112.0000 Y122.2726
G01 F60.00
G01 Z-2.4000
G01 F2000.00
G01 X112.0000 Y121.3732
G01 X111.9100 Y121.5082
G01 X111.9100 Y122.2788
G00 Z2.0000
G00 X111.8200 Y122.2914
G01 F60.00
G01 Z-2.4000
G01 F2000.00
G01 X111.8200 Y121.5641
G00 Z2.0000
G00 X112.7200 Y121.5533
G01 F60.00
G01 Z-2.4000
G01 F2000.00
G01 X112.7200 Y122.2769
G01 X112.8100 Y122.2769
G01 X112.8100 Y121.5643
G01 X112.9000 Y121.5643
G01 X112.9000 Y122.2769
G01 X112.9900 Y122.2769
G01 X112.9900 Y121.5643
G00 Z2.0000
G00 X113.0800 Y121.5642
G01 F60.00
G01 Z-2.4000
G01 F2000.00
G01 X113.0800 Y122.2769
G01 X113.1700 Y122.2769
G01 X113.1700 Y119.0500
G01 X113.0800 Y119.0500
G01 X113.0800 Y120.4476
G00 Z2.0000
G00 X112.9900 Y120.4475
G01 F60.00
G01 Z-2.4000
G01 F2000.00
G01 X112.9900 Y119.0500
G01 X112.9000 Y119.0500
G01 X112.9000 Y120.4475
G01 X112.8100 Y120.4475
G01 X112.8100 Y119.0500
G01 X113.2600 Y119.0500
G01 X113.2600 Y122.2667
G01 X113.3500 Y122.2294
G01 X113.3500 Y119.0500
G01 X113.4400 Y119.0500
G01 X113.4400 Y122.1921
G01 X113.5300 Y122.1546
G01 X113.5300 Y119.0500
G01 X113.6200 Y119.0500
G01 X113.6200 Y122.0646
G01 X113.7100 Y121.9746
G01 X113.7100 Y119.0500
G01 X113.8000 Y119.0500
G01 X113.8000 Y120.8941
G00 Z2.0000
G00 X113.8000 Y121.1175
G01 F60.00
G01 Z-2.4000
G01 F2000.00
G01 X113.8000 Y121.8208
G00 Z2.0000
G00 X113.0800 Y121.3882
G01 F60.00
G01 Z-2.4000
G01 F2000.00
G01 X113.0800 Y120.6236
G00 Z2.0000
G00 X112.8100 Y120.6238
G01 F60.00
G01 Z-2.4000
G01 F2000.00
G01 X112.8100 Y121.3881
G00 Z2.0000
G00 X112.7200 Y121.3991
G01 F60.00
G01 Z-2.4000
G01 F2000.00
G01 X112.7200 Y120.6127
G00 Z2.0000
G00 X112.7627 Y120.6237
G01 F60.00
G01 Z-2.4000
G01 F2000.00
G01 X112.7540 Y120.6233
G01 X112.7467 Y120.6223
G01 X112.7383 Y120.6203
G01 X112.7312 Y120.6179
G01 X112.7190 Y120.6121
G01 X112.7127 Y120.6082
G01 X112.7058 Y120.6030
G01 X112.7004 Y120.5979
G01 X112.6945 Y120.5915
G01 X112.6894 Y120.5846
G01 X112.6850 Y120.5772
G01 X112.6813 Y120.5694
G01 X112.6787 Y120.5624
G01 X112.6765 Y120.5540
G01 X112.6753 Y120.5467
G01 X112.6746 Y120.5332
G01 X112.6751 Y120.5258
G01 X112.6765 Y120.5172
G01 X112.6783 Y120.5101
G01 X112.6813 Y120.5019
G01 X112.6850 Y120.4941
G01 X112.6887 Y120.4877
G01 X112.6938 Y120.4807
G01 X112.6987 Y120.4751
G01 X112.7087 Y120.4660
G01 X112.7147 Y120.4617
G01 X112.7222 Y120.4574
G01 X112.7289 Y120.4542
G01 X112.7371 Y120.4513
G01 X112.7455 Y120.4492
G01 X112.7516 Y120.4482
G01 X112.7627 Y120.4475
G01 X113.0761 Y120.4475
G01 X113.0860 Y120.4481
G01 X113.0933 Y120.4492
G01 X113.0993 Y120.4507
G01 X113.1098 Y120.4542
G01 X113.1198 Y120.4591
G01 X113.1251 Y120.4624
G01 X113.1310 Y120.4668
G01 X113.1393 Y120.4742
G01 X113.1442 Y120.4797
G01 X113.1480 Y120.4847
G01 X113.1538 Y120.4941
G01 X113.1584 Y120.5042
G01 X113.1604 Y120.5101
G01 X113.1625 Y120.5184
G01 X113.1638 Y120.5270
G01 X113.1642 Y120.5332
G01 X113.1637 Y120.5455
G01 X113.1625 Y120.5528
G01 X113.1608 Y120.5600
G01 X113.1565 Y120.5716
G01 X113.1538 Y120.5772
G01 X113.1494 Y120.5846
G01 X113.1442 Y120.5915
G01 X113.1401 Y120.5962
G01 X113.1310 Y120.6045
G01 X113.1230 Y120.6102
G01 X113.1176 Y120.6133
G01 X113.1109 Y120.6166
G01 X113.1017 Y120.6200
G01 X113.0909 Y120.6225
G01 X113.0847 Y120.6233
G01 X113.0773 Y120.6237
G01 X113.0075 Y120.6237
G01 X113.0075 Y121.3881
G01 X113.0786 Y121.3881
G01 X113.0847 Y121.3885
G01 X113.0921 Y121.3895
G01 X113.1017 Y121.3919
G01 X113.1098 Y121.3948
G01 X113.1176 Y121.3985
G01 X113.1251 Y121.4029
G01 X113.1310 Y121.4073
G01 X113.1375 Y121.4130
G01 X113.1434 Y121.4194
G01 X113.1487 Y121.4262
G01 X113.1526 Y121.4325
G01 X113.1570 Y121.4413
G01 X113.1601 Y121.4494
G01 X113.1625 Y121.4590
G01 X113.1638 Y121.4676
G01 X113.1642 Y121.4762
G01 X113.1637 Y121.4861
G01 X113.1623 Y121.4946
G01 X113.1597 Y121.5041
G01 X113.1549 Y121.5155
G01 X113.1507 Y121.5231
G01 X113.1450 Y121.5311
G01 X113.1393 Y121.5376
G01 X113.1320 Y121.5443
G01 X113.1251 Y121.5495
G01 X113.1165 Y121.5545
G01 X113.1075 Y121.5585
G01 X113.1017 Y121.5605
G01 X113.0933 Y121.5626
G01 X113.0847 Y121.5639
G01 X113.0773 Y121.5643
G01 X112.7627 Y121.5643
G01 X112.7528 Y121.5638
G01 X112.7455 Y121.5626
G01 X112.7395 Y121.5612
G01 X112.7289 Y121.5576
G01 X112.7190 Y121.5527
G01 X112.7137 Y121.5495
G01 X112.7077 Y121.5451
G01 X112.6995 Y121.5376
G01 X112.6945 Y121.5321
G01 X112.6908 Y121.5272
G01 X112.6850 Y121.5177
G01 X112.6804 Y121.5076
G01 X112.6783 Y121.5018
G01 X112.6762 Y121.4934
G01 X112.6750 Y121.4848
G01 X112.6746 Y121.4786
G01 X112.6751 Y121.4663
G01 X112.6762 Y121.4590
G01 X112.6780 Y121.4518
G01 X112.6823 Y121.4402
G01 X112.6850 Y121.4347
G01 X112.6894 Y121.4272
G01 X112.6945 Y121.4203
G01 X112.6987 Y121.4157
G01 X112.7077 Y121.4073
G01 X112.7137 Y121.4029
G01 X112.7190 Y121.3997
G01 X112.7278 Y121.3953
G01 X112.7371 Y121.3919
G01 X112.7479 Y121.3894
G01 X112.7540 Y121.3885
G01 X112.7614 Y121.3881
G01 X112.8313 Y121.3881
G01 X112.8313 Y120.6238
G01 X112.7627 Y120.6237
G00 Z2.0000
G00 X111.7373 Y120.5356
G01 F60.00
G01 Z-2.4000
G01 F2000.00
G01 X111.7377 Y120.5270
G01 X111.7388 Y120.5196
G01 X111.7407 Y120.5112
G01 X111.7431 Y120.5042
G01 X111.7489 Y120.4920
G01 X111.7528 Y120.4857
G01 X111.7581 Y120.4788
G01 X111.7631 Y120.4733
G01 X111.7695 Y120.4675
G01 X111.7764 Y120.4624
G01 X111.7839 Y120.4579
G01 X111.7917 Y120.4542
G01 X111.7987 Y120.4517
G01 X111.8070 Y120.4495
G01 X111.8143 Y120.4482
G01 X111.8279 Y120.4476
G01 X111.8353 Y120.4481
G01 X111.8438 Y120.4495
G01 X111.8510 Y120.4513
G01 X111.8591 Y120.4542
G01 X111.8669 Y120.4579
G01 X111.8744 Y120.4624
G01 X111.8813 Y120.4675
G01 X111.8868 Y120.4725
G01 X111.8927 Y120.4788
G01 X111.8973 Y120.4847
G01 X111.9042 Y120.4963
G01 X111.9073 Y120.5031
G01 X111.9101 Y120.5112
G01 X111.9118 Y120.5184
G01 X111.9128 Y120.5246
G01 X111.9135 Y120.5356
G01 X111.9135 Y121.1852
G01 X112.3792 Y120.4867
G01 X112.3852 Y120.4789
G01 X112.3919 Y120.4717
G01 X112.4015 Y120.4638
G01 X112.4099 Y120.4585
G01 X112.4176 Y120.4547
G01 X112.4269 Y120.4513
G01 X112.4353 Y120.4492
G01 X112.4438 Y120.4479
G01 X112.4537 Y120.4475
G01 X112.4636 Y120.4482
G01 X112.4757 Y120.4506
G01 X112.4851 Y120.4538
G01 X112.4929 Y120.4573
G01 X112.5015 Y120.4623
G01 X112.5084 Y120.4675
G01 X112.5148 Y120.4733
G01 X112.5214 Y120.4807
G01 X112.5258 Y120.4867
G01 X112.5302 Y120.4941
G01 X112.5339 Y120.5019
G01 X112.5361 Y120.5077
G01 X112.5392 Y120.5196
G01 X112.5402 Y120.5270
G01 X112.5406 Y120.5344
G01 X112.5406 Y121.4774
G01 X112.5401 Y121.4861
G01 X112.5384 Y121.4958
G01 X112.5348 Y121.5076
G01 X112.5308 Y121.5166
G01 X112.5258 Y121.5251
G01 X112.5206 Y121.5321
G01 X112.5148 Y121.5385
G01 X112.5075 Y121.5451
G01 X112.4994 Y121.5508
G01 X112.4941 Y121.5539
G01 X112.4874 Y121.5571
G01 X112.4781 Y121.5605
G01 X112.4673 Y121.5630
G01 X112.4612 Y121.5639
G01 X112.4538 Y121.5643
G01 X112.4439 Y121.5639
G01 X112.4341 Y121.5624
G01 X112.4270 Y121.5605
G01 X112.4211 Y121.5585
G01 X112.4110 Y121.5539
G01 X112.4026 Y121.5488
G01 X112.3966 Y121.5443
G01 X112.3920 Y121.5402
G01 X112.3852 Y121.5330
G01 X112.3793 Y121.5251
G01 X112.3737 Y121.5155
G01 X112.3711 Y121.5099
G01 X112.3686 Y121.5029
G01 X112.3661 Y121.4934
G01 X112.3648 Y121.4848
G01 X112.3644 Y121.4762
G01 X112.3644 Y120.8266
G01 X111.8987 Y121.5251
G01 X111.8927 Y121.5330
G01 X111.8859 Y121.5402
G01 X111.8764 Y121.5480
G01 X111.8681 Y121.5533
G01 X111.8603 Y121.5571
G01 X111.8510 Y121.5605
G01 X111.8427 Y121.5626
G01 X111.8341 Y121.5639
G01 X111.8242 Y121.5643
G01 X111.8143 Y121.5636
G01 X111.8023 Y121.5612
G01 X111.7929 Y121.5581
G01 X111.7850 Y121.5545
G01 X111.7765 Y121.5495
G01 X111.7696 Y121.5443
G01 X111.7631 Y121.5385
G01 X111.7565 Y121.5311
G01 X111.7522 Y121.5252
G01 X111.7483 Y121.5189
G01 X111.7431 Y121.5076
G01 X111.7407 Y121.5006
G01 X111.7390 Y121.4934
G01 X111.7377 Y121.4849
G01 X111.7373 Y121.4775
G01 X111.7373 Y120.5356
G00 Z2.0000
G00 X111.1259 Y120.7377
G01 F60.00
G01 Z-2.4000
G01 F2000.00
G01 X111.2808 Y120.7377
G01 X111.3708 Y120.8277
G01 X111.0359 Y120.8277
G01 X110.9780 Y120.8856
G01 X110.9780 Y120.9177
G01 X111.4287 Y120.9177
G01 X111.4287 Y120.8856
G01 X111.2034 Y120.6603
G01 X110.9780 Y120.8856
G00 Z2.0000
G00 X110.8018 Y120.8491
G01 F60.00
G01 Z-2.4000
G01 F2000.00
G01 X110.8022 Y120.8404
G01 X110.8035 Y120.8319
G01 X110.8056 Y120.8235
G01 X110.8081 Y120.8165
G01 X110.8116 Y120.8086
G01 X110.8153 Y120.8022
G01 X110.8234 Y120.7913
G01 X111.1411 Y120.4733
G01 X111.1475 Y120.4675
G01 X111.1544 Y120.4624
G01 X111.1607 Y120.4585
G01 X111.1685 Y120.4547
G01 X111.1754 Y120.4521
G01 X111.1874 Y120.4490
G01 X111.1947 Y120.4479
G01 X111.2034 Y120.4475
G01 X111.2120 Y120.4479
G01 X111.2193 Y120.4490
G01 X111.2278 Y120.4510
G01 X111.2348 Y120.4533
G01 X111.2470 Y120.4591
G01 X111.2533 Y120.4631
G01 X111.2602 Y120.4683
G01 X111.2657 Y120.4733
G01 X111.5800 Y120.7876
G01 X111.5864 Y120.7951
G01 X111.5933 Y120.8054
G01 X111.5977 Y120.8142
G01 X111.6011 Y120.8235
G01 X111.6032 Y120.8319
G01 X111.6042 Y120.8380
G01 X111.6049 Y120.8491
G01 X111.6049 Y121.4774
G01 X111.6045 Y121.4848
G01 X111.6032 Y121.4934
G01 X111.6011 Y121.5018
G01 X111.5987 Y121.5088
G01 X111.5933 Y121.5199
G01 X111.5894 Y121.5262
G01 X111.5841 Y121.5330
G01 X111.5791 Y121.5385
G01 X111.5746 Y121.5427
G01 X111.5657 Y121.5495
G01 X111.5572 Y121.5545
G01 X111.5505 Y121.5576
G01 X111.5447 Y121.5597
G01 X111.5340 Y121.5626
G01 X111.5242 Y121.5640
G01 X111.5168 Y121.5643
G01 X111.5106 Y121.5641
G01 X111.4996 Y121.5626
G01 X111.4900 Y121.5601
G01 X111.4831 Y121.5576
G01 X111.4774 Y121.5550
G01 X111.4678 Y121.5495
G01 X111.4600 Y121.5435
G01 X111.4545 Y121.5385
G01 X111.4503 Y121.5340
G01 X111.4435 Y121.5251
G01 X111.4385 Y121.5166
G01 X111.4354 Y121.5099
G01 X111.4332 Y121.5041
G01 X111.4301 Y121.4922
G01 X111.4291 Y121.4848
G01 X111.4287 Y121.4762
G01 X111.4287 Y121.0939
G01 X110.9780 Y121.0939
G01 X110.9780 Y121.4762
G01 X110.9776 Y121.4848
G01 X110.9768 Y121.4910
G01 X110.9739 Y121.5029
G01 X110.9713 Y121.5099
G01 X110.9687 Y121.5155
G01 X110.9639 Y121.5241
G01 X110.9580 Y121.5321
G01 X110.9514 Y121.5394
G01 X110.9439 Y121.5458
G01 X110.9389 Y121.5495
G01 X110.9325 Y121.5533
G01 X110.9236 Y121.5576
G01 X110.9143 Y121.5609
G01 X110.9071 Y121.5626
G01 X110.9010 Y121.5636
G01 X110.8911 Y121.5643
G01 X110.8813 Y121.5639
G01 X110.8715 Y121.5624
G01 X110.8620 Y121.5597
G01 X110.8562 Y121.5576
G01 X110.8495 Y121.5545
G01 X110.8410 Y121.5495
G01 X110.8331 Y121.5435
G01 X110.8268 Y121.5376
G01 X110.8210 Y121.5311
G01 X110.8160 Y121.5241
G01 X110.8111 Y121.5155
G01 X110.8064 Y121.5041
G01 X110.8040 Y121.4958
G01 X110.8024 Y121.4861
G01 X110.8019 Y121.4786
G01 X110.8018 Y120.8491
G00 Z2.0000
G00 X109.6600 Y120.7621
G01 F60.00
G01 Z-2.4000
G01 F2000.00
G01 X109.6600 Y119.0500
G01 X109.5700 Y119.0500
G01 X109.5700 Y120.8042
G00 Z2.0000
G00 X109.5700 Y121.1979
G01 F60.00
G01 Z-2.4000
G01 F2000.00
G01 X109.5700 Y122.2527
G01 X109.4800 Y122.2736
G01 X109.4800 Y121.3780
G00 Z2.0000
G00 X109.3900 Y121.5429
G01 F60.00
G01 Z-2.4000
G01 F2000.00
G01 X109.3900 Y122.2829
G00 Z2.0000
G00 X109.3000 Y122.2811
G01 F60.00
G01 Z-2.4000
G01 F2000.00
G01 X109.3000 Y121.5581
G00 Z2.0000
G00 X109.2100 Y121.4285
G01 F60.00
G01 Z-2.4000
G01 F2000.00
G01 X109.2100 Y122.2802
G00 Z2.0000
G00 X109.1200 Y122.2638
G01 F60.00
G01 Z-2.4000
G01 F2000.00
G01 X109.1200 Y121.2485
G00 Z2.0000
G00 X108.7600 Y121.4034
G01 F60.00
G01 Z-2.4000
G01 F2000.00
G01 X108.7600 Y120.9219
G00 Z2.0000
G00 X108.6700 Y120.9274
G01 F60.00
G01 Z-2.4000
G01 F2000.00
G01 X108.6700 Y121.3881
G01 X108.5800 Y121.3881
G01 X108.5800 Y120.8433
G01 X108.4900 Y120.7533
G01 X108.4900 Y121.3881
G00 Z2.0000
G00 X104.5300 Y121.4121
G01 F60.00
G01 Z-2.4000
G01 F2000.00
G01 X104.5300 Y122.2684
G01 X104.4400 Y122.2769
G01 X104.4400 Y121.5021
G00 Z2.0000
G00 X104.3500 Y121.5639
G01 F60.00
G01 Z-2.4000
G01 F2000.00
G01 X104.3500 Y122.2769
G00 Z2.0000
G00 X102.0417 Y124.6477
G01 F60.00
G01 Z-2.4000
G01 F2000.00
G01 X101.2164 Y124.6477
G00 Z2.0000
G00 X101.2849 Y124.7377
G01 F60.00
G01 Z-2.4000
G01 F2000.00
G01 X102.0791 Y124.7377
G00 Z2.0000
G00 X101.4148 Y125.0077
G01 F60.00
G01 Z-2.4000
G01 F2000.00
G01 X102.1768 Y125.0077
G01 X102.1768 Y125.0977
G01 X101.4386 Y125.0977
G00 Z2.0000
G00 X101.3821 Y124.9177
G01 F60.00
G01 Z-2.4000
G01 F2000.00
G01 X102.1536 Y124.9177
G01 X102.1163 Y124.8277
G01 X101.3393 Y124.8277
G00 Z2.0000
G00 X101.1301 Y124.5577
G01 F60.00
G01 Z-2.4000
G01 F2000.00
G01 X102.0045 Y124.5577
G01 X101.9672 Y124.4677
G01 X101.0198 Y124.4677
G00 Z2.0000
G00 X100.8658 Y124.3777
G01 F60.00
G01 Z-2.4000
G01 F2000.00
G01 X101.9299 Y124.3777
G01 X101.8703 Y124.2877
G01 X100.5737 Y124.2877
G00 Z2.0000
G00 X100.2547 Y124.2877
G01 F60.00
G01 Z-2.4000
G01 F2000.00
G01 X98.9581 Y124.2877
G01 X98.8985 Y124.3777
G01 X99.9626 Y124.3777
G00 Z2.0000
G00 X99.8086 Y124.4677
G01 F60.00
G01 Z-2.4000
G01 F2000.00
G01 X98.8612 Y124.4677
G01 X98.8239 Y124.5577
G01 X99.6983 Y124.5577
G00 Z2.0000
G00 X99.6120 Y124.6477
G01 F60.00
G01 Z-2.4000
G01 F2000.00
G01 X98.7867 Y124.6477
G00 Z2.0000
G00 X98.7494 Y124.7377
G01 F60.00
G01 Z-2.4000
G01 F2000.00
G01 X99.5435 Y124.7377
G00 Z2.0000
G00 X99.4891 Y124.8277
G01 F60.00
G01 Z-2.4000
G01 F2000.00
G01 X98.7121 Y124.8277
G01 X98.6748 Y124.9177
G01 X99.4463 Y124.9177
G00 Z2.0000
G00 X99.4136 Y125.0077
G01 F60.00
G01 Z-2.4000
G01 F2000.00
G01 X98.6376 Y125.0077
G00 Z2.0000
G00 X98.5888 Y125.0977
G01 F60.00
G01 Z-2.4000
G01 F2000.00
G01 X99.3898 Y125.0977
G00 Z2.0000
G00 X99.3742 Y125.1877
G01 F60.00
G01 Z-2.4000
G01 F2000.00
G01 X98.5067 Y125.1877
G00 Z2.0000
G00 X98.3768 Y125.2777
G01 F60.00
G01 Z-2.4000
G01 F2000.00
G01 X99.3664 Y125.2777
G00 Z2.0000
G00 X99.3663 Y125.3677
G01 F60.00
G01 Z-2.4000
G01 F2000.00
G01 X98.2418 Y125.3677
G01 X98.1068 Y125.4577
G01 X99.3737 Y125.4577
G01 X99.2560 Y125.5477
G01 X97.9718 Y125.5477
G01 X97.8368 Y125.6377
G01 X99.1210 Y125.6377
G00 Z2.0000
G00 X98.9860 Y125.7277
G01 F60.00
G01 Z-2.4000
G01 F2000.00
G01 X97.7018 Y125.7277
G01 X97.5668 Y125.8177
G01 X98.8510 Y125.8177
G00 Z2.0000
G00 X98.7160 Y125.9077
G01 F60.00
G01 Z-2.4000
G01 F2000.00
G01 X97.4318 Y125.9077
G01 X97.2968 Y125.9977
G01 X98.5810 Y125.9977
G00 Z2.0000
G00 X98.4460 Y126.0877
G01 F60.00
G01 Z-2.4000
G01 F2000.00
G01 X97.1618 Y126.0877
G01 X97.0268 Y126.1777
G01 X98.3110 Y126.1777
G00 Z2.0000
G00 X98.1760 Y126.2677
G01 F60.00
G01 Z-2.4000
G01 F2000.00
G01 X96.8918 Y126.2677
G01 X96.7568 Y126.3577
G01 X98.0410 Y126.3577
G00 Z2.0000
G00 X97.9060 Y126.4477
G01 F60.00
G01 Z-2.4000
G01 F2000.00
G01 X96.6217 Y126.4477
G01 X96.4867 Y126.5377
G01 X97.7710 Y126.5377
G00 Z2.0000
G00 X97.6360 Y126.6277
G01 F60.00
G01 Z-2.4000
G01 F2000.00
G01 X96.3077 Y126.6277
G00 Z2.0000
G00 X96.0707 Y126.6277
G01 F60.00
G01 Z-2.4000
G01 F2000.00
G01 X95.6370 Y126.6277
G00 Z2.0000
G00 X95.6359 Y126.5377
G01 F60.00
G01 Z-2.4000
G01 F2000.00
G01 X95.8973 Y126.5377
G00 Z2.0000
G00 X95.8145 Y126.4477
G01 F60.00
G01 Z-2.4000
G01 F2000.00
G01 X95.6248 Y126.4477
G00 Z2.0000
G00 X95.6034 Y126.3577
G01 F60.00
G01 Z-2.4000
G01 F2000.00
G01 X95.7663 Y126.3577
G00 Z2.0000
G00 X95.7356 Y126.2677
G01 F60.00
G01 Z-2.4000
G01 F2000.00
G01 X95.5694 Y126.2677
G00 Z2.0000
G00 X95.5226 Y126.1777
G01 F60.00
G01 Z-2.4000
G01 F2000.00
G01 X95.6980 Y126.1777
G01 X95.6520 Y126.0877
G01 X95.4608 Y126.0877
G00 Z2.0000
G00 X95.3763 Y125.9977
G01 F60.00
G01 Z-2.4000
G01 F2000.00
G01 X95.5865 Y125.9977
G01 X95.5053 Y125.9077
G01 X95.2591 Y125.9077
G01 X95.4004 Y125.8177
G01 X95.0644 Y125.8177
G01 X94.9602 Y125.6377
G01 X94.5208 Y125.6377
G01 X94.5208 Y125.7277
G01 X95.2530 Y125.7277
G00 Z2.0000
G00 X95.6282 Y126.7177
G01 F60.00
G01 Z-2.4000
G01 F2000.00
G01 X97.5010 Y126.7177
G00 Z2.0000
G00 X97.3660 Y126.8077
G01 F60.00
G01 Z-2.4000
G01 F2000.00
G01 X95.6093 Y126.8077
G00 Z2.0000
G00 X95.5795 Y126.8977
G01 F60.00
G01 Z-2.4000
G01 F2000.00
G01 X97.2310 Y126.8977
G00 Z2.0000
G00 X97.0960 Y126.9877
G01 F60.00
G01 Z-2.4000
G01 F2000.00
G01 X95.5365 Y126.9877
G00 Z2.0000
G00 X95.4780 Y127.0777
G01 F60.00
G01 Z-2.4000
G01 F2000.00
G01 X96.9610 Y127.0777
G00 Z2.0000
G00 X96.8260 Y127.1677
G01 F60.00
G01 Z-2.4000
G01 F2000.00
G01 X95.4016 Y127.1677
G00 Z2.0000
G00 X95.2939 Y127.2577
G01 F60.00
G01 Z-2.4000
G01 F2000.00
G01 X96.6910 Y127.2577
G00 Z2.0000
G00 X96.5560 Y127.3477
G01 F60.00
G01 Z-2.4000
G01 F2000.00
G01 X95.1293 Y127.3477
G00 Z2.0000
G00 X94.9855 Y128.3377
G01 F60.00
G01 Z-2.4000
G01 F2000.00
G01 X95.4851 Y128.3377
G01 X95.3951 Y128.4277
G01 X95.2257 Y128.4277
G00 Z2.0000
G00 X94.8262 Y128.3219
G01 F60.00
G01 Z-2.4000
G01 F2000.00
G01 X94.9058 Y128.3258
G01 X94.9823 Y128.3371
G01 X95.0644 Y128.3577
G01 X95.1371 Y128.3838
G01 X95.2092 Y128.4178
G01 X95.2775 Y128.4588
G01 X95.3272 Y128.4956
G01 X96.2817 Y127.5411
G01 X96.3168 Y127.5095
G01 X96.3505 Y127.4846
G01 X99.3753 Y125.4681
G01 X99.3692 Y125.4260
G01 X99.3642 Y125.3231
G01 X99.3693 Y125.2214
G01 X99.3842 Y125.1207
G01 X99.4102 Y125.0172
G01 X99.4441 Y124.9225
G01 X99.4876 Y124.8304
G01 X99.5426 Y124.7389
G01 X99.6025 Y124.6582
G01 X99.6717 Y124.5818
G01 X99.7481 Y124.5126
G01 X99.8288 Y124.4527
G01 X99.9192 Y124.3983
G01 X100.0124 Y124.3542
G01 X100.1094 Y124.3195
G01 X100.2094 Y124.2945
G01 X100.3113 Y124.2794
G01 X100.4142 Y124.2743
G01 X100.5171 Y124.2794
G01 X100.6190 Y124.2945
G01 X100.7190 Y124.3195
G01 X100.8160 Y124.3542
G01 X100.9092 Y124.3983
G01 X100.9975 Y124.4513
G01 X101.0803 Y124.5126
G01 X101.1567 Y124.5818
G01 X101.2259 Y124.6582
G01 X101.2872 Y124.7409
G01 X101.3402 Y124.8293
G01 X101.3843 Y124.9225
G01 X101.4190 Y125.0195
G01 X101.4440 Y125.1195
G01 X101.4588 Y125.2189
G01 X101.4641 Y125.3267
G01 X101.4591 Y125.4272
G01 X101.4440 Y125.5291
G01 X101.4190 Y125.6291
G01 X101.3852 Y125.7238
G01 X101.3390 Y125.8214
G01 X101.2872 Y125.9076
G01 X101.2259 Y125.9904
G01 X101.1567 Y126.0668
G01 X101.0803 Y126.1360
G01 X100.9975 Y126.1973
G01 X100.9113 Y126.2491
G01 X100.8160 Y126.2944
G01 X100.7190 Y126.3291
G01 X100.6214 Y126.3536
G01 X100.5159 Y126.3693
G01 X100.4142 Y126.3743
G01 X100.3137 Y126.3694
G01 X100.2082 Y126.3539
G01 X100.1094 Y126.3291
G01 X100.0135 Y126.2948
G01 X99.9203 Y126.2509
G01 X99.8818 Y126.2280
G01 X96.8951 Y128.2191
G01 X95.6562 Y129.4580
G01 X95.6239 Y129.4873
G01 X95.5889 Y129.5133
G01 X95.5505 Y129.5364
G01 X95.5235 Y129.5493
G01 X95.5010 Y129.5866
G01 X95.4549 Y129.6487
G01 X95.3998 Y129.7096
G01 X95.3416 Y129.7623
G01 X95.2795 Y129.8083
G01 X95.2092 Y129.8507
G01 X95.1371 Y129.8848
G01 X95.0597 Y129.9123
G01 X94.9847 Y129.9311
G01 X94.9083 Y129.9425
G01 X94.8287 Y129.9466
G01 X93.3022 Y129.9467
G01 X93.2214 Y129.9426
G01 X93.1413 Y129.9305
G01 X93.0664 Y129.9117
G01 X92.9936 Y129.8857
G01 X92.9192 Y129.8507
G01 X92.8509 Y129.8098
G01 X92.7850 Y129.7607
G01 X92.7278 Y129.7087
G01 X92.6758 Y129.6515
G01 X92.6267 Y129.5856
G01 X92.5857 Y129.5172
G01 X92.5517 Y129.4452
G01 X92.5248 Y129.3701
G01 X92.5054 Y129.2928
G01 X92.4937 Y129.2139
G01 X92.4898 Y129.1343
G01 X92.4937 Y129.0547
G01 X92.5054 Y128.9758
G01 X92.5248 Y128.8985
G01 X92.5517 Y128.8234
G01 X92.5857 Y128.7513
G01 X92.6267 Y128.6830
G01 X92.6742 Y128.6189
G01 X92.7278 Y128.5599
G01 X92.7868 Y128.5063
G01 X92.8509 Y128.4588
G01 X92.9192 Y128.4178
G01 X92.9913 Y128.3838
G01 X93.0664 Y128.3569
G01 X93.1437 Y128.3375
G01 X93.2250 Y128.3256
G01 X93.3022 Y128.3219
G01 X94.8262 Y128.3219
G00 Z2.0000
G00 X95.6965 Y129.4177
G01 F60.00
G01 Z-2.4000
G01 F2000.00
G01 X96.7040 Y129.4177
G01 X96.7940 Y129.3277
G01 X95.7865 Y129.3277
G01 X95.8765 Y129.2377
G01 X96.8840 Y129.2377
G01 X96.9740 Y129.1477
G01 X95.9665 Y129.1477
G01 X96.0565 Y129.0577
G01 X97.0640 Y129.0577
G01 X97.1540 Y128.9677
G01 X96.1465 Y128.9677
G01 X96.2365 Y128.8777
G01 X97.2440 Y128.8777
G00 Z2.0000
G00 X97.3357 Y128.7877
G01 F60.00
G01 Z-2.4000
G01 F2000.00
G01 X96.3265 Y128.7877
G01 X96.4165 Y128.6977
G01 X97.4616 Y128.6977
G01 X97.5966 Y128.6077
G01 X96.5065 Y128.6077
G01 X96.5965 Y128.5177
G01 X97.7316 Y128.5177
G01 X97.8666 Y128.4277
G01 X96.6865 Y128.4277
G01 X96.7765 Y128.3377
G01 X98.0016 Y128.3377
G01 X98.1366 Y128.2477
G01 X96.8665 Y128.2477
G01 X96.9873 Y128.1577
G01 X98.2716 Y128.1577
G01 X98.4066 Y128.0677
G01 X97.1223 Y128.0677
G01 X97.2573 Y127.9777
G01 X98.5415 Y127.9777
G01 X98.6765 Y127.8877
G01 X97.3923 Y127.8877
G01 X97.5273 Y127.7977
G01 X98.8115 Y127.7977
G01 X98.9465 Y127.7077
G01 X97.6623 Y127.7077
G01 X97.7973 Y127.6177
G01 X99.0815 Y127.6177
G01 X99.2165 Y127.5277
G01 X97.9323 Y127.5277
G01 X98.0673 Y127.4377
G01 X99.3515 Y127.4377
G01 X99.4865 Y127.3477
G01 X98.2023 Y127.3477
G01 X98.3373 Y127.2577
G01 X99.6215 Y127.2577
G01 X99.7565 Y127.1677
G01 X98.4723 Y127.1677
G01 X98.6073 Y127.0777
G01 X100.7870 Y127.0777
G01 X101.0043 Y126.9877
G01 X98.7423 Y126.9877
G01 X98.8773 Y126.8977
G01 X101.2216 Y126.8977
G01 X101.4235 Y126.8077
G01 X99.0123 Y126.8077
G01 X99.1473 Y126.7177
G01 X101.5135 Y126.7177
G01 X101.6035 Y126.6277
G01 X99.2823 Y126.6277
G01 X99.4173 Y126.5377
G01 X101.6935 Y126.5377
G01 X101.7835 Y126.4477
G01 X99.5523 Y126.4477
G01 X99.6873 Y126.3577
G01 X100.2331 Y126.3577
G00 Z2.0000
G00 X99.9559 Y126.2677
G01 F60.00
G01 Z-2.4000
G01 F2000.00
G01 X99.8223 Y126.2677
G00 Z2.0000
G00 X100.5953 Y126.3577
G01 F60.00
G01 Z-2.4000
G01 F2000.00
G01 X101.8735 Y126.3577
G01 X101.9313 Y126.2677
G01 X100.8725 Y126.2677
G00 Z2.0000
G00 X101.0241 Y126.1777
G01 F60.00
G01 Z-2.4000
G01 F2000.00
G01 X101.9686 Y126.1777
G01 X102.0058 Y126.0877
G01 X101.1336 Y126.0877
G00 Z2.0000
G00 X101.2193 Y125.9977
G01 F60.00
G01 Z-2.4000
G01 F2000.00
G01 X102.0431 Y125.9977
G01 X102.0804 Y125.9077
G01 X101.2872 Y125.9077
G00 Z2.0000
G00 X101.3410 Y125.8177
G01 F60.00
G01 Z-2.4000
G01 F2000.00
G01 X102.1177 Y125.8177
G01 X102.1549 Y125.7277
G01 X101.3836 Y125.7277
G00 Z2.0000
G00 X101.4160 Y125.6377
G01 F60.00
G01 Z-2.4000
G01 F2000.00
G01 X102.1768 Y125.6377
G01 X102.1768 Y125.5477
G01 X101.4394 Y125.5477
G00 Z2.0000
G00 X101.4547 Y125.4577
G01 F60.00
G01 Z-2.4000
G01 F2000.00
G01 X102.1768 Y125.4577
G01 X102.1768 Y125.3677
G01 X101.4621 Y125.3677
G00 Z2.0000
G00 X101.4620 Y125.2777
G01 F60.00
G01 Z-2.4000
G01 F2000.00
G01 X102.1768 Y125.2777
G01 X102.1768 Y125.1877
G01 X101.4542 Y125.1877
G00 Z2.0000
G00 X100.0491 Y123.5677
G01 F60.00
G01 Z-2.4000
G01 F2000.00
G01 X100.7793 Y123.5677
G01 X100.9966 Y123.6577
G01 X99.8318 Y123.6577
G01 X99.6145 Y123.7477
G01 X101.2139 Y123.7477
G01 X101.4203 Y123.8377
G01 X99.4081 Y123.8377
G01 X99.3181 Y123.9277
G01 X101.5103 Y123.9277
G01 X101.6003 Y124.0177
G01 X99.2281 Y124.0177
G01 X99.1381 Y124.1077
G01 X101.6903 Y124.1077
G01 X101.7803 Y124.1977
G01 X99.0481 Y124.1977
G00 Z2.0000
G00 X96.4210 Y127.4377
G01 F60.00
G01 Z-2.4000
G01 F2000.00
G01 X92.6293 Y127.4377
G00 Z2.0000
G00 X96.2964 Y127.5277
G01 F60.00
G01 Z-2.4000
G01 F2000.00
G01 X92.6249 Y127.5277
G00 Z2.0000
G00 X92.6021 Y127.6177
G01 F60.00
G01 Z-2.4000
G01 F2000.00
G01 X96.2051 Y127.6177
G01 X96.1151 Y127.7077
G01 X92.5576 Y127.7077
G00 Z2.0000
G00 X92.4827 Y127.7977
G01 F60.00
G01 Z-2.4000
G01 F2000.00
G01 X96.0251 Y127.7977
G01 X95.9351 Y127.8877
G01 X92.3927 Y127.8877
G01 X92.3027 Y127.9777
G01 X95.8451 Y127.9777
G01 X95.7551 Y128.0677
G01 X92.2127 Y128.0677
G01 X92.1227 Y128.1577
G01 X95.6651 Y128.1577
G01 X95.5751 Y128.2477
G01 X92.0327 Y128.2477
G01 X91.9819 Y128.3377
G01 X93.1429 Y128.3377
G00 Z2.0000
G00 X92.9027 Y128.4277
G01 F60.00
G01 Z-2.4000
G01 F2000.00
G01 X91.9446 Y128.4277
G01 X91.9073 Y128.5177
G01 X92.7742 Y128.5177
G00 Z2.0000
G00 X92.6843 Y128.6077
G01 F60.00
G01 Z-2.4000
G01 F2000.00
G01 X91.8700 Y128.6077
G01 X91.8328 Y128.6977
G01 X92.6178 Y128.6977
G00 Z2.0000
G00 X92.5685 Y128.7877
G01 F60.00
G01 Z-2.4000
G01 F2000.00
G01 X91.7955 Y128.7877
G01 X91.7776 Y128.8777
G01 X92.5322 Y128.8777
G00 Z2.0000
G00 X92.5074 Y128.9677
G01 F60.00
G01 Z-2.4000
G01 F2000.00
G01 X91.7776 Y128.9677
G01 X91.7776 Y129.0577
G01 X92.4935 Y129.0577
G00 Z2.0000
G00 X92.4904 Y129.1477
G01 F60.00
G01 Z-2.4000
G01 F2000.00
G01 X91.7776 Y129.1477
G01 X91.7776 Y129.2377
G01 X92.4972 Y129.2377
G00 Z2.0000
G00 X92.5141 Y129.3277
G01 F60.00
G01 Z-2.4000
G01 F2000.00
G01 X91.7776 Y129.3277
G01 X91.7776 Y129.4177
G01 X92.5418 Y129.4177
G00 Z2.0000
G00 X92.5812 Y129.5077
G01 F60.00
G01 Z-2.4000
G01 F2000.00
G01 X91.8066 Y129.5077
G01 X91.8439 Y129.5977
G01 X92.6356 Y129.5977
G00 Z2.0000
G00 X92.7086 Y129.6877
G01 F60.00
G01 Z-2.4000
G01 F2000.00
G01 X91.8811 Y129.6877
G01 X91.9184 Y129.7777
G01 X92.8075 Y129.7777
G00 Z2.0000
G00 X92.9549 Y129.8677
G01 F60.00
G01 Z-2.4000
G01 F2000.00
G01 X91.9557 Y129.8677
G01 X91.9930 Y129.9577
G01 X96.1640 Y129.9577
G01 X96.2540 Y129.8677
G01 X95.1735 Y129.8677
G00 Z2.0000
G00 X95.3209 Y129.7777
G01 F60.00
G01 Z-2.4000
G01 F2000.00
G01 X96.3440 Y129.7777
G01 X96.4340 Y129.6877
G01 X95.4198 Y129.6877
G00 Z2.0000
G00 X95.4928 Y129.5977
G01 F60.00
G01 Z-2.4000
G01 F2000.00
G01 X96.5240 Y129.5977
G01 X96.6140 Y129.5077
G01 X95.5964 Y129.5077
G00 Z2.0000
G00 X96.0740 Y130.0477
G01 F60.00
G01 Z-2.4000
G01 F2000.00
G01 X92.0595 Y130.0477
G01 X92.1495 Y130.1377
G01 X95.9840 Y130.1377
G00 Z2.0000
G00 X95.8889 Y130.2277
G01 F60.00
G01 Z-2.4000
G01 F2000.00
G01 X92.2395 Y130.2277
G01 X92.3295 Y130.3177
G01 X95.7989 Y130.3177
G01 X95.7089 Y130.4077
G01 X92.4195 Y130.4077
G00 Z2.0000
G00 X92.5083 Y130.4977
G01 F60.00
G01 Z-2.4000
G01 F2000.00
G01 X95.6201 Y130.4977
G00 Z2.0000
G00 X95.5550 Y130.5877
G01 F60.00
G01 Z-2.4000
G01 F2000.00
G01 X92.5735 Y130.5877
G00 Z2.0000
G00 X92.6113 Y130.6777
G01 F60.00
G01 Z-2.4000
G01 F2000.00
G01 X95.5171 Y130.6777
G00 Z2.0000
G00 X95.5000 Y130.7677
G01 F60.00
G01 Z-2.4000
G01 F2000.00
G01 X92.6284 Y130.7677
G00 Z2.0000
G00 X92.6273 Y130.8577
G01 F60.00
G01 Z-2.4000
G01 F2000.00
G01 X95.5011 Y130.8577
G00 Z2.0000
G00 X95.5204 Y130.9477
G01 F60.00
G01 Z-2.4000
G01 F2000.00
G01 X95.1878 Y130.9477
G00 Z2.0000
G00 X95.3300 Y131.0377
G01 F60.00
G01 Z-2.4000
G01 F2000.00
G01 X95.5603 Y131.0377
G00 Z2.0000
G00 X95.6229 Y131.1277
G01 F60.00
G01 Z-2.4000
G01 F2000.00
G01 X95.4260 Y131.1277
G00 Z2.0000
G00 X95.4491 Y132.1954
G01 F60.00
G01 Z-2.4000
G01 F2000.00
G01 X95.6415 Y132.1954
G00 Z2.0000
G00 X95.5769 Y132.2854
G01 F60.00
G01 Z-2.4000
G01 F2000.00
G01 X95.3603 Y132.2854
G00 Z2.0000
G00 X95.2349 Y132.3754
G01 F60.00
G01 Z-2.4000
G01 F2000.00
G01 X95.5297 Y132.3754
G00 Z2.0000
G00 X95.5049 Y132.4654
G01 F60.00
G01 Z-2.4000
G01 F2000.00
G01 X95.0076 Y132.4654
G00 Z2.0000
G00 X95.4989 Y132.5554
G01 F60.00
G01 Z-2.4000
G01 F2000.00
G01 X92.6295 Y132.5554
G00 Z2.0000
G00 X95.5108 Y132.6454
G01 F60.00
G01 Z-2.4000
G01 F2000.00
G01 X92.6176 Y132.6454
G00 Z2.0000
G00 X92.5863 Y132.7354
G01 F60.00
G01 Z-2.4000
G01 F2000.00
G01 X95.5421 Y132.7354
G00 Z2.0000
G00 X95.5978 Y132.8254
G01 F60.00
G01 Z-2.4000
G01 F2000.00
G01 X92.5306 Y132.8254
G00 Z2.0000
G00 X92.4450 Y132.9154
G01 F60.00
G01 Z-2.4000
G01 F2000.00
G01 X95.6837 Y132.9154
G00 Z2.0000
G00 X95.8167 Y133.0054
G01 F60.00
G01 Z-2.4000
G01 F2000.00
G01 X92.3550 Y133.0054
G01 X92.2650 Y133.0954
G01 X96.9577 Y133.0954
G01 X97.1750 Y133.1854
G01 X92.1750 Y133.1854
G01 X92.0850 Y133.2754
G01 X97.3185 Y133.2754
G01 X97.4085 Y133.3654
G01 X92.0035 Y133.3654
G01 X91.9663 Y133.4554
G01 X93.0146 Y133.4554
G00 Z2.0000
G00 X92.8419 Y133.5454
G01 F60.00
G01 Z-2.4000
G01 F2000.00
G01 X91.9290 Y133.5454
G00 Z2.0000
G00 X91.8917 Y133.6354
G01 F60.00
G01 Z-2.4000
G01 F2000.00
G01 X92.7326 Y133.6354
G00 Z2.0000
G00 X92.6545 Y133.7254
G01 F60.00
G01 Z-2.4000
G01 F2000.00
G01 X91.8544 Y133.7254
G01 X91.8172 Y133.8154
G01 X92.5952 Y133.8154
G00 Z2.0000
G00 X92.5509 Y133.9054
G01 F60.00
G01 Z-2.4000
G01 F2000.00
G01 X91.7799 Y133.9054
G01 X91.7776 Y133.9954
G01 X92.5205 Y133.9954
G00 Z2.0000
G00 X92.5010 Y134.0854
G01 F60.00
G01 Z-2.4000
G01 F2000.00
G01 X91.7776 Y134.0854
G01 X91.7776 Y134.1754
G01 X92.4917 Y134.1754
G00 Z2.0000
G00 X92.4923 Y134.2654
G01 F60.00
G01 Z-2.4000
G01 F2000.00
G01 X91.7776 Y134.2654
G01 X91.7776 Y134.3554
G01 X92.5028 Y134.3554
G00 Z2.0000
G00 X92.5236 Y134.4454
G01 F60.00
G01 Z-2.4000
G01 F2000.00
G01 X91.7776 Y134.4454
G01 X91.7849 Y134.5354
G01 X92.5564 Y134.5354
G00 Z2.0000
G00 X92.6025 Y134.6254
G01 F60.00
G01 Z-2.4000
G01 F2000.00
G01 X91.8222 Y134.6254
G01 X91.8595 Y134.7154
G01 X92.6636 Y134.7154
G00 Z2.0000
G00 X92.7460 Y134.8054
G01 F60.00
G01 Z-2.4000
G01 F2000.00
G01 X91.8968 Y134.8054
G00 Z2.0000
G00 X91.9340 Y134.8954
G01 F60.00
G01 Z-2.4000
G01 F2000.00
G01 X92.8601 Y134.8954
G00 Z2.0000
G00 X93.0485 Y134.9854
G01 F60.00
G01 Z-2.4000
G01 F2000.00
G01 X91.9713 Y134.9854
G01 X92.0086 Y135.0754
G01 X96.8196 Y135.0754
G01 X96.7296 Y134.9854
G01 X95.0799 Y134.9854
G00 Z2.0000
G00 X95.2683 Y134.8954
G01 F60.00
G01 Z-2.4000
G01 F2000.00
G01 X96.6396 Y134.8954
G01 X96.5496 Y134.8054
G01 X95.3824 Y134.8054
G00 Z2.0000
G00 X95.4648 Y134.7154
G01 F60.00
G01 Z-2.4000
G01 F2000.00
G01 X96.4596 Y134.7154
G01 X96.9096 Y135.1654
G01 X92.0971 Y135.1654
G01 X92.1871 Y135.2554
G01 X96.9996 Y135.2554
G01 X97.0896 Y135.3454
G01 X92.2771 Y135.3454
G01 X92.3671 Y135.4354
G01 X97.1796 Y135.4354
G01 X97.2696 Y135.5254
G01 X92.4571 Y135.5254
G00 Z2.0000
G00 X92.5396 Y135.6154
G01 F60.00
G01 Z-2.4000
G01 F2000.00
G01 X97.3596 Y135.6154
G01 X97.4176 Y135.7054
G01 X92.5919 Y135.7054
G00 Z2.0000
G00 X92.6205 Y135.7954
G01 F60.00
G01 Z-2.4000
G01 F2000.00
G01 X97.4176 Y135.7954
G01 X97.4176 Y135.8854
G01 X92.6299 Y135.8854
G00 Z2.0000
G00 X92.6213 Y135.9754
G01 F60.00
G01 Z-2.4000
G01 F2000.00
G01 X93.0722 Y135.9754
G00 Z2.0000
G00 X92.8732 Y136.0654
G01 F60.00
G01 Z-2.4000
G01 F2000.00
G01 X92.5938 Y136.0654
G00 Z2.0000
G00 X92.5435 Y136.1554
G01 F60.00
G01 Z-2.4000
G01 F2000.00
G01 X92.7547 Y136.1554
G00 Z2.0000
G00 X92.6694 Y136.2454
G01 F60.00
G01 Z-2.4000
G01 F2000.00
G01 X92.4781 Y136.2454
G00 Z2.0000
G00 X92.4633 Y137.2354
G01 F60.00
G01 Z-2.4000
G01 F2000.00
G01 X92.6487 Y137.2354
G00 Z2.0000
G00 X92.7246 Y137.3254
G01 F60.00
G01 Z-2.4000
G01 F2000.00
G01 X92.5233 Y137.3254
G00 Z2.0000
G00 X92.5808 Y137.4154
G01 F60.00
G01 Z-2.4000
G01 F2000.00
G01 X92.8314 Y137.4154
G00 Z2.0000
G00 X92.9927 Y137.5054
G01 F60.00
G01 Z-2.4000
G01 F2000.00
G01 X92.6150 Y137.5054
G00 Z2.0000
G00 X92.6291 Y137.5954
G01 F60.00
G01 Z-2.4000
G01 F2000.00
G01 X97.4176 Y137.5954
G01 X97.4176 Y137.5054
G01 X95.1357 Y137.5054
G00 Z2.0000
G00 X95.2970 Y137.4154
G01 F60.00
G01 Z-2.4000
G01 F2000.00
G01 X97.4176 Y137.4154
G01 X97.4176 Y137.3254
G01 X95.4038 Y137.3254
G00 Z2.0000
G00 X95.4797 Y137.2354
G01 F60.00
G01 Z-2.4000
G01 F2000.00
G01 X97.4176 Y137.2354
G01 X97.4176 Y137.1454
G01 X95.5379 Y137.1454
G00 Z2.0000
G00 X95.5803 Y137.0554
G01 F60.00
G01 Z-2.4000
G01 F2000.00
G01 X97.4176 Y137.0554
G01 X97.4176 Y136.9654
G01 X95.6099 Y136.9654
G00 Z2.0000
G00 X95.6286 Y136.8754
G01 F60.00
G01 Z-2.4000
G01 F2000.00
G01 X97.4176 Y136.8754
G01 X97.4176 Y136.7854
G01 X95.6371 Y136.7854
G00 Z2.0000
G00 X95.6357 Y136.6954
G01 F60.00
G01 Z-2.4000
G01 F2000.00
G01 X97.4176 Y136.6954
G01 X97.4176 Y136.6054
G01 X95.6245 Y136.6054
G00 Z2.0000
G00 X95.6026 Y136.5154
G01 F60.00
G01 Z-2.4000
G01 F2000.00
G01 X97.4176 Y136.5154
G01 X97.4176 Y136.4254
G01 X95.5683 Y136.4254
G00 Z2.0000
G00 X95.5212 Y136.3354
G01 F60.00
G01 Z-2.4000
G01 F2000.00
G01 X97.4176 Y136.3354
G01 X97.4176 Y136.2454
G01 X95.4590 Y136.2454
G00 Z2.0000
G00 X95.3737 Y136.1554
G01 F60.00
G01 Z-2.4000
G01 F2000.00
G01 X97.4176 Y136.1554
G01 X97.4176 Y136.0654
G01 X95.2552 Y136.0654
G00 Z2.0000
G00 X95.0562 Y135.9754
G01 F60.00
G01 Z-2.4000
G01 F2000.00
G01 X97.4176 Y135.9754
G00 Z2.0000
G00 X98.3308 Y135.9754
G01 F60.00
G01 Z-2.4000
G01 F2000.00
G01 X99.0432 Y135.9754
G01 X99.0432 Y135.8854
G01 X98.3308 Y135.8854
G01 X98.3308 Y135.7954
G01 X99.0432 Y135.7954
G01 X99.0432 Y135.7054
G01 X98.3308 Y135.7054
G01 X98.3308 Y135.6154
G01 X99.0432 Y135.6154
G01 X99.0432 Y135.5254
G01 X98.3308 Y135.5254
G00 Z2.0000
G00 X98.3280 Y135.4354
G01 F60.00
G01 Z-2.4000
G01 F2000.00
G01 X99.0432 Y135.4354
G01 X99.0432 Y135.3454
G01 X98.3089 Y135.3454
G00 Z2.0000
G00 X98.2688 Y135.2554
G01 F60.00
G01 Z-2.4000
G01 F2000.00
G01 X99.0432 Y135.2554
G01 X99.0074 Y135.1654
G01 X98.2007 Y135.1654
G00 Z2.0000
G00 X98.1110 Y135.0754
G01 F60.00
G01 Z-2.4000
G01 F2000.00
G01 X98.9702 Y135.0754
G01 X98.9329 Y134.9854
G01 X98.0210 Y134.9854
G01 X97.9310 Y134.8954
G01 X98.8956 Y134.8954
G01 X98.8485 Y134.8054
G01 X97.8410 Y134.8054
G01 X97.7510 Y134.7154
G01 X98.7585 Y134.7154
G01 X98.6685 Y134.6254
G01 X97.6610 Y134.6254
G01 X97.5710 Y134.5354
G01 X98.5785 Y134.5354
G01 X98.4885 Y134.4454
G01 X97.4810 Y134.4454
G01 X97.3910 Y134.3554
G01 X98.3985 Y134.3554
G01 X98.3085 Y134.2654
G01 X97.3010 Y134.2654
G01 X97.2110 Y134.1754
G01 X98.2185 Y134.1754
G01 X98.1285 Y134.0854
G01 X97.1210 Y134.0854
G01 X97.0310 Y133.9954
G01 X98.0385 Y133.9954
G01 X97.9485 Y133.9054
G01 X96.9410 Y133.9054
G00 Z2.0000
G00 X96.8258 Y133.8154
G01 F60.00
G01 Z-2.4000
G01 F2000.00
G01 X97.8585 Y133.8154
G01 X97.7685 Y133.7254
G01 X95.4739 Y133.7254
G00 Z2.0000
G00 X95.3958 Y133.6354
G01 F60.00
G01 Z-2.4000
G01 F2000.00
G01 X97.6785 Y133.6354
G01 X97.5885 Y133.5454
G01 X95.2865 Y133.5454
G00 Z2.0000
G00 X95.1138 Y133.4554
G01 F60.00
G01 Z-2.4000
G01 F2000.00
G01 X97.4985 Y133.4554
G00 Z2.0000
G00 X94.8262 Y133.4019
G01 F60.00
G01 Z-2.4000
G01 F2000.00
G01 X94.9058 Y133.4058
G01 X94.9871 Y133.4181
G01 X95.0620 Y133.4369
G01 X95.1348 Y133.4629
G01 X95.2092 Y133.4978
G01 X95.2775 Y133.5388
G01 X95.3434 Y133.5879
G01 X95.4023 Y133.6416
G01 X95.4542 Y133.6989
G01 X95.4978 Y133.7577
G01 X96.6067 Y133.7578
G01 X96.6514 Y133.7602
G01 X96.6933 Y133.7665
G01 X96.7344 Y133.7767
G01 X96.7789 Y133.7925
G01 X96.8194 Y133.8116
G01 X96.8579 Y133.8346
G01 X96.8919 Y133.8598
G01 X96.9271 Y133.8914
G01 X98.1979 Y135.1623
G01 X98.2272 Y135.1946
G01 X98.2539 Y135.2306
G01 X98.2769 Y135.2691
G01 X98.2951 Y135.3073
G01 X98.3111 Y135.3518
G01 X98.3215 Y135.3928
G01 X98.3288 Y135.4420
G01 X98.3308 Y135.4843
G01 X98.3308 Y137.8352
G01 X99.3333 Y138.8377
G01 X99.4700 Y138.8377
G01 X99.4888 Y138.7983
G01 X99.5405 Y138.7120
G01 X99.6033 Y138.6272
G01 X99.6717 Y138.5518
G01 X99.7462 Y138.4842
G01 X99.8309 Y138.4213
G01 X99.9192 Y138.3683
G01 X100.0124 Y138.3242
G01 X100.1094 Y138.2895
G01 X100.2094 Y138.2645
G01 X100.3113 Y138.2494
G01 X100.4142 Y138.2443
G01 X100.5171 Y138.2494
G01 X100.6214 Y138.2650
G01 X100.7213 Y138.2903
G01 X100.8160 Y138.3242
G01 X100.9070 Y138.3672
G01 X100.9975 Y138.4213
G01 X101.0794 Y138.4819
G01 X101.1567 Y138.5518
G01 X101.2259 Y138.6282
G01 X101.2872 Y138.7109
G01 X101.3402 Y138.7993
G01 X101.3843 Y138.8925
G01 X101.4190 Y138.9895
G01 X101.4440 Y139.0895
G01 X101.4593 Y139.1938
G01 X101.4641 Y139.2967
G01 X101.4591 Y139.3972
G01 X101.4444 Y139.4967
G01 X101.4190 Y139.5991
G01 X101.3852 Y139.6938
G01 X101.3402 Y139.7893
G01 X101.2872 Y139.8776
G01 X101.2259 Y139.9604
G01 X101.1558 Y140.0376
G01 X101.0803 Y140.1060
G01 X100.9996 Y140.1659
G01 X100.9092 Y140.2203
G01 X100.8160 Y140.2644
G01 X100.7213 Y140.2983
G01 X100.6166 Y140.3245
G01 X100.5171 Y140.3392
G01 X100.4167 Y140.3442
G01 X100.3088 Y140.3389
G01 X100.2094 Y140.3241
G01 X100.1094 Y140.2991
G01 X100.0124 Y140.2644
G01 X99.9214 Y140.2214
G01 X99.8288 Y140.1659
G01 X99.7481 Y140.1060
G01 X99.6709 Y140.0359
G01 X99.6025 Y139.9604
G01 X99.5419 Y139.8787
G01 X99.4888 Y139.7903
G01 X99.4700 Y139.7509
G01 X99.1430 Y139.7509
G01 X99.0994 Y139.7487
G01 X99.0563 Y139.7423
G01 X99.0117 Y139.7312
G01 X98.9672 Y139.7151
G01 X98.9290 Y139.6970
G01 X98.8926 Y139.6753
G01 X98.8555 Y139.6480
G01 X98.8213 Y139.6172
G01 X97.5513 Y138.3472
G01 X97.5220 Y138.3149
G01 X97.4946 Y138.2780
G01 X97.4727 Y138.2417
G01 X97.4515 Y138.1967
G01 X97.4373 Y138.1568
G01 X97.4264 Y138.1134
G01 X97.4198 Y138.0690
G01 X97.4177 Y138.0267
G01 X97.4176 Y135.6734
G01 X96.4151 Y134.6709
G01 X95.4978 Y134.6709
G01 X95.4542 Y134.7297
G01 X95.4023 Y134.7870
G01 X95.3434 Y134.8407
G01 X95.2775 Y134.8898
G01 X95.2113 Y134.9295
G01 X95.1371 Y134.9648
G01 X95.0620 Y134.9917
G01 X94.9847 Y135.0111
G01 X94.9070 Y135.0226
G01 X94.8262 Y135.0267
G01 X93.3010 Y135.0267
G01 X93.2226 Y135.0228
G01 X93.1461 Y135.0115
G01 X93.0664 Y134.9917
G01 X92.9891 Y134.9638
G01 X92.9192 Y134.9307
G01 X92.8529 Y134.8911
G01 X92.7868 Y134.8423
G01 X92.7261 Y134.7870
G01 X92.6742 Y134.7297
G01 X92.6281 Y134.6676
G01 X92.5857 Y134.5972
G01 X92.5517 Y134.5252
G01 X92.5248 Y134.4501
G01 X92.5054 Y134.3728
G01 X92.4937 Y134.2939
G01 X92.4898 Y134.2143
G01 X92.4937 Y134.1347
G01 X92.5054 Y134.0558
G01 X92.5248 Y133.9785
G01 X92.5517 Y133.9034
G01 X92.5857 Y133.8313
G01 X92.6267 Y133.7630
G01 X92.6742 Y133.6989
G01 X92.7278 Y133.6399
G01 X92.7868 Y133.5863
G01 X92.8509 Y133.5388
G01 X92.9192 Y133.4978
G01 X92.9913 Y133.4638
G01 X93.0664 Y133.4369
G01 X93.1437 Y133.4175
G01 X93.2250 Y133.4056
G01 X93.3022 Y133.4019
G01 X94.8262 Y133.4019
G00 Z2.0000
G00 X93.1208 Y132.4654
G01 F60.00
G01 Z-2.4000
G01 F2000.00
G01 X92.6235 Y132.4654
G00 Z2.0000
G00 X92.5987 Y132.3754
G01 F60.00
G01 Z-2.4000
G01 F2000.00
G01 X92.8935 Y132.3754
G00 Z2.0000
G00 X92.7681 Y132.2854
G01 F60.00
G01 Z-2.4000
G01 F2000.00
G01 X92.5515 Y132.2854
G00 Z2.0000
G00 X92.4869 Y132.1954
G01 F60.00
G01 Z-2.4000
G01 F2000.00
G01 X92.6793 Y132.1954
G00 Z2.0000
G00 X92.4645 Y131.1908
G01 F60.00
G01 Z-2.4000
G01 F2000.00
G01 X92.4508 Y131.2177
G01 X92.6306 Y131.2177
G01 X92.6742 Y131.1589
G01 X92.7261 Y131.1016
G01 X92.7850 Y131.0479
G01 X92.8509 Y130.9988
G01 X92.9171 Y130.9591
G01 X92.9913 Y130.9238
G01 X93.0664 Y130.8969
G01 X93.1437 Y130.8775
G01 X93.2201 Y130.8661
G01 X93.3022 Y130.8619
G01 X94.8262 Y130.8619
G01 X94.9058 Y130.8658
G01 X94.9871 Y130.8781
G01 X95.0620 Y130.8969
G01 X95.1348 Y130.9229
G01 X95.2092 Y130.9578
G01 X95.2775 Y130.9988
G01 X95.3434 Y131.0479
G01 X95.4023 Y131.1016
G01 X95.4542 Y131.1589
G01 X95.4978 Y131.2177
G01 X95.6776 Y131.2177
G01 X95.6524 Y131.1682
G01 X95.5841 Y131.0742
G01 X95.5603 Y131.0376
G01 X95.5396 Y130.9978
G01 X95.5214 Y130.9514
G01 X95.5096 Y130.9094
G01 X95.5018 Y130.8653
G01 X95.4982 Y130.8180
G01 X95.4995 Y130.7720
G01 X95.5054 Y130.7262
G01 X95.5153 Y130.6838
G01 X95.5167 Y130.6789
G01 X95.5319 Y130.6354
G01 X95.5502 Y130.5959
G01 X95.5743 Y130.5551
G01 X95.6009 Y130.5190
G01 X95.6319 Y130.4848
G01 X95.9234 Y130.1932
G01 X95.9559 Y130.1637
G01 X95.9646 Y130.1571
G01 X97.3169 Y128.8048
G01 X97.3512 Y128.7738
G01 X97.3865 Y128.7478
G01 X99.7626 Y127.1636
G01 X99.8010 Y127.1406
G01 X99.8415 Y127.1215
G01 X99.8836 Y127.1065
G01 X99.9270 Y127.0956
G01 X99.9737 Y127.0889
G01 X100.0159 Y127.0869
G01 X100.7648 Y127.0869
G01 X101.4126 Y126.8186
G01 X101.9085 Y126.3227
G01 X102.1768 Y125.6749
G01 X102.1768 Y124.9737
G01 X101.9085 Y124.3259
G01 X101.4126 Y123.8300
G01 X100.7648 Y123.5617
G01 X100.0636 Y123.5617
G01 X99.4158 Y123.8300
G01 X98.9199 Y124.3259
G01 X98.6357 Y125.0123
G01 X98.6176 Y125.0507
G01 X98.5934 Y125.0914
G01 X98.5666 Y125.1275
G01 X98.5364 Y125.1607
G01 X98.5032 Y125.1908
G01 X98.4671 Y125.2176
G01 X96.4427 Y126.5671
G01 X96.4046 Y126.5898
G01 X96.3623 Y126.6097
G01 X96.3228 Y126.6238
G01 X96.2822 Y126.6341
G01 X96.2360 Y126.6413
G01 X96.1893 Y126.6437
G01 X96.1474 Y126.6418
G01 X96.1059 Y126.6360
G01 X96.0604 Y126.6251
G01 X96.0163 Y126.6096
G01 X95.9783 Y126.5920
G01 X95.9421 Y126.5709
G01 X95.9041 Y126.5436
G01 X95.8709 Y126.5143
G01 X95.8406 Y126.4818
G01 X95.8137 Y126.4466
G01 X95.7909 Y126.4100
G01 X95.7707 Y126.3692
G01 X95.7558 Y126.3300
G01 X95.7212 Y126.2232
G01 X95.6524 Y126.0883
G01 X95.5629 Y125.9653
G01 X95.4552 Y125.8576
G01 X95.3322 Y125.7681
G01 X95.1972 Y125.6993
G01 X95.0524 Y125.6523
G01 X94.9022 Y125.6285
G01 X94.5208 Y125.6285
G01 X94.5208 Y125.7819
G01 X94.8274 Y125.7819
G01 X94.9058 Y125.7858
G01 X94.9835 Y125.7973
G01 X95.0620 Y125.8169
G01 X95.1371 Y125.8438
G01 X95.2092 Y125.8778
G01 X95.2765 Y125.9182
G01 X95.3434 Y125.9679
G01 X95.4006 Y126.0199
G01 X95.4542 Y126.0789
G01 X95.5017 Y126.1430
G01 X95.5414 Y126.2092
G01 X95.5776 Y126.2857
G01 X95.6036 Y126.3585
G01 X95.6230 Y126.4358
G01 X95.6347 Y126.5147
G01 X95.6386 Y126.5943
G01 X95.6347 Y126.6739
G01 X95.6230 Y126.7528
G01 X95.6036 Y126.8301
G01 X95.5767 Y126.9052
G01 X95.5427 Y126.9772
G01 X95.5017 Y127.0456
G01 X95.4542 Y127.1097
G01 X95.4006 Y127.1687
G01 X95.3416 Y127.2223
G01 X95.2775 Y127.2698
G01 X95.2092 Y127.3107
G01 X95.1393 Y127.3438
G01 X95.0620 Y127.3717
G01 X94.9847 Y127.3911
G01 X94.9058 Y127.4028
G01 X94.8274 Y127.4067
G01 X93.3022 Y127.4067
G01 X93.2226 Y127.4028
G01 X93.1437 Y127.3911
G01 X93.0664 Y127.3717
G01 X92.9913 Y127.3448
G01 X92.9171 Y127.3095
G01 X92.8509 Y127.2698
G01 X92.7850 Y127.2207
G01 X92.7261 Y127.1670
G01 X92.6742 Y127.1097
G01 X92.6306 Y127.0509
G01 X92.4508 Y127.0509
G01 X92.4760 Y127.1003
G01 X92.5436 Y127.1934
G01 X92.5681 Y127.2309
G01 X92.5893 Y127.2719
G01 X92.6066 Y127.3160
G01 X92.6188 Y127.3591
G01 X92.6264 Y127.4021
G01 X92.6302 Y127.4505
G01 X92.6286 Y127.4991
G01 X92.6230 Y127.5424
G01 X92.6125 Y127.5873
G01 X92.5975 Y127.6309
G01 X92.5782 Y127.6727
G01 X92.5548 Y127.7124
G01 X92.5258 Y127.7515
G01 X92.4965 Y127.7838
G01 X92.0096 Y128.2708
G01 X91.7776 Y128.8309
G01 X91.7776 Y129.4377
G01 X92.0096 Y129.9978
G01 X92.4983 Y130.4866
G01 X92.5275 Y130.5190
G01 X92.5548 Y130.5561
G01 X92.5782 Y130.5959
G01 X92.5975 Y130.6377
G01 X92.6125 Y130.6813
G01 X92.6224 Y130.7238
G01 X92.6289 Y130.7720
G01 X92.6300 Y130.8206
G01 X92.6268 Y130.8640
G01 X92.6188 Y130.9094
G01 X92.6054 Y130.9562
G01 X92.5893 Y130.9967
G01 X92.5687 Y131.0365
G01 X92.5436 Y131.0752
G01 X92.4760 Y131.1682
G01 X92.4645 Y131.1908
G00 Z2.0000
G00 X92.5055 Y131.1277
G01 F60.00
G01 Z-2.4000
G01 F2000.00
G01 X92.7025 Y131.1277
G00 Z2.0000
G00 X92.5681 Y131.0377
G01 F60.00
G01 Z-2.4000
G01 F2000.00
G01 X92.7984 Y131.0377
G00 Z2.0000
G00 X92.9406 Y130.9477
G01 F60.00
G01 Z-2.4000
G01 F2000.00
G01 X92.6080 Y130.9477
G00 Z2.0000
G00 X92.6156 Y127.3477
G01 F60.00
G01 Z-2.4000
G01 F2000.00
G01 X92.9991 Y127.3477
G00 Z2.0000
G00 X92.5820 Y127.2577
G01 F60.00
G01 Z-2.4000
G01 F2000.00
G01 X92.8345 Y127.2577
G00 Z2.0000
G00 X92.7268 Y127.1677
G01 F60.00
G01 Z-2.4000
G01 F2000.00
G01 X92.5250 Y127.1677
G00 Z2.0000
G00 X92.4645 Y127.0777
G01 F60.00
G01 Z-2.4000
G01 F2000.00
G01 X92.6504 Y127.0777
G00 Z2.0000
G00 X92.6306 Y126.1377
G01 F60.00
G01 Z-2.4000
G01 F2000.00
G01 X92.4508 Y126.1377
G01 X92.4760 Y126.0883
G01 X92.5655 Y125.9653
G01 X92.6732 Y125.8576
G01 X92.7962 Y125.7681
G01 X92.9312 Y125.6992
G01 X93.0760 Y125.6523
G01 X93.2262 Y125.6285
G01 X93.6076 Y125.6285
G01 X93.6076 Y125.7819
G01 X93.3022 Y125.7819
G01 X93.2226 Y125.7858
G01 X93.1413 Y125.7981
G01 X93.0664 Y125.8169
G01 X92.9936 Y125.8429
G01 X92.9171 Y125.8791
G01 X92.8509 Y125.9188
G01 X92.7868 Y125.9663
G01 X92.7261 Y126.0216
G01 X92.6742 Y126.0789
G01 X92.6306 Y126.1377
G01 X92.5055 Y126.0477
G01 X92.7025 Y126.0477
G00 Z2.0000
G00 X92.7984 Y125.9577
G01 F60.00
G01 Z-2.4000
G01 F2000.00
G01 X92.5731 Y125.9577
G01 X92.6631 Y125.8677
G01 X92.9406 Y125.8677
G01 X92.9669 Y125.6877
G01 X93.6076 Y125.6877
G01 X93.6076 Y125.7777
G01 X92.7830 Y125.7777
G00 Z2.0000
G00 X93.4600 Y123.2071
G01 F60.00
G01 Z-2.4000
G01 F2000.00
G01 X93.4600 Y119.3891
G01 X93.3700 Y119.4746
G01 X93.3700 Y123.2971
G01 X93.2800 Y123.3871
G01 X93.2800 Y119.5643
G01 X93.1900 Y119.6540
G01 X93.1900 Y123.4771
G01 X93.1000 Y123.5671
G01 X93.1000 Y119.7437
G01 X93.0100 Y119.8334
G01 X93.0100 Y123.6192
G01 X92.9200 Y123.6712
G01 X92.9200 Y119.9231
G01 X92.8300 Y120.0129
G01 X92.8300 Y123.7231
G01 X92.7400 Y123.7751
G01 X92.7400 Y120.1026
G01 X92.6500 Y120.1923
G01 X92.6500 Y123.8270
G01 X92.5600 Y123.8790
G01 X92.5600 Y120.2820
G01 X92.4700 Y120.3717
G01 X92.4700 Y123.9171
G01 X92.3800 Y123.9412
G01 X92.3800 Y120.4614
G01 X92.2900 Y120.5511
G01 X92.2900 Y123.9654
G01 X92.2000 Y123.9895
G01 X92.2000 Y120.6408
G01 X92.1100 Y120.7305
G01 X92.1100 Y124.0136
G01 X92.0200 Y124.0377
G01 X92.0200 Y120.8203
G01 X91.9300 Y120.9100
G01 X91.9300 Y124.0618
G01 X91.8400 Y124.0800
G01 X91.8400 Y120.9997
G01 X91.7500 Y121.0894
G01 X91.7500 Y124.0800
G01 X91.6600 Y124.0800
G01 X91.6600 Y121.1791
G01 X91.5700 Y121.2688
G01 X91.5700 Y124.0800
G01 X91.4800 Y124.0800
G01 X91.4800 Y121.3585
G01 X91.3900 Y121.4482
G01 X91.3900 Y124.0800
G01 X91.3000 Y124.0800
G01 X91.3000 Y121.5379
G01 X91.2100 Y121.6277
G01 X91.2100 Y124.0800
G01 X91.1200 Y124.0623
G01 X91.1200 Y121.7174
G01 X91.0300 Y121.8071
G01 X91.0300 Y124.0382
G01 X90.9400 Y124.0141
G01 X90.9400 Y121.8968
G01 X90.8500 Y121.9865
G01 X90.8500 Y123.9899
G01 X90.7600 Y123.9658
G01 X90.7600 Y122.0762
G01 X90.6700 Y122.1659
G01 X90.6700 Y123.9417
G01 X90.5800 Y123.9176
G01 X90.5800 Y122.2556
G01 X90.4900 Y122.3453
G01 X90.4900 Y123.8952
G00 Z2.0000
G00 X90.4000 Y123.8875
G01 F60.00
G01 Z-2.4000
G01 F2000.00
G01 X90.4000 Y122.4351
G01 X90.3100 Y122.5248
G01 X90.3100 Y123.8977
G00 Z2.0000
G00 X90.2200 Y123.9272
G01 F60.00
G01 Z-2.4000
G01 F2000.00
G01 X90.2200 Y122.6145
G01 X90.1300 Y122.7042
G01 X90.1300 Y123.9812
G00 Z2.0000
G00 X90.0400 Y124.0724
G01 F60.00
G01 Z-2.4000
G01 F2000.00
G01 X90.0400 Y122.7939
G01 X89.9500 Y122.8836
G01 X89.9500 Y124.3439
G01 X89.9521 Y124.2999
G01 X89.9581 Y124.2587
G01 X89.9697 Y124.2113
G01 X89.9836 Y124.1720
G01 X90.0021 Y124.1321
G01 X90.0243 Y124.0941
G01 X90.0502 Y124.0585
G01 X90.0793 Y124.0255
G01 X90.1097 Y123.9970
G01 X90.1484 Y123.9673
G01 X90.1838 Y123.9453
G01 X90.2232 Y123.9257
G01 X90.2643 Y123.9100
G01 X90.3056 Y123.8986
G01 X90.3501 Y123.8908
G01 X90.3940 Y123.8874
G01 X90.4380 Y123.8883
G01 X90.4841 Y123.8939
G01 X90.5248 Y123.9028
G01 X91.1863 Y124.0800
G01 X91.8621 Y124.0800
G01 X92.5146 Y123.9052
G01 X93.0996 Y123.5675
G01 X93.5774 Y123.0897
G01 X93.9151 Y122.5047
G01 X94.0899 Y121.8522
G01 X94.0899 Y121.1763
G01 X93.9155 Y120.5247
G01 X93.9105 Y120.5030
G01 X93.9060 Y120.4805
G01 X93.9010 Y120.4367
G01 X93.9001 Y120.3939
G01 X93.9036 Y120.3489
G01 X93.9110 Y120.3067
G01 X93.9227 Y120.2642
G01 X93.9384 Y120.2231
G01 X93.9569 Y120.1859
G01 X93.9828 Y120.1444
G01 X94.0082 Y120.1115
G01 X94.0382 Y120.0793
G01 X94.0712 Y120.0502
G01 X94.1049 Y120.0257
G01 X94.1470 Y120.0010
G01 X94.1848 Y119.9836
G01 X94.2263 Y119.9690
G01 X94.2690 Y119.9585
G01 X94.3102 Y119.9524
G01 X94.3566 Y119.9500
G01 X103.0987 Y119.9500
G01 X103.1435 Y119.9522
G01 X103.1890 Y119.9590
G01 X103.2313 Y119.9697
G01 X103.2712 Y119.9839
G01 X103.3140 Y120.0039
G01 X103.3524 Y120.0270
G01 X103.3865 Y120.0521
G01 X103.4216 Y120.0837
G01 X103.4517 Y120.1169
G01 X103.4770 Y120.1509
G01 X103.5014 Y120.1914
G01 X103.5215 Y120.2342
G01 X103.5357 Y120.2741
G01 X103.5460 Y120.3151
G01 X103.5531 Y120.3619
G01 X103.5553 Y120.4066
G01 X103.5530 Y120.4526
G01 X103.5468 Y120.4945
G01 X103.5406 Y120.5197
G01 X103.5406 Y121.6356
G01 X103.6623 Y121.9297
G01 X103.8877 Y122.1549
G01 X104.1820 Y122.2769
G01 X104.5038 Y122.2769
G01 X104.5240 Y122.2699
G01 X104.5673 Y122.2592
G01 X104.6102 Y122.2529
G01 X104.6547 Y122.2507
G01 X104.6993 Y122.2529
G01 X104.7422 Y122.2592
G01 X104.7855 Y122.2699
G01 X104.8056 Y122.2769
G01 X105.4393 Y122.2769
G01 X105.4595 Y122.2699
G01 X105.5028 Y122.2592
G01 X105.5457 Y122.2529
G01 X105.5902 Y122.2507
G01 X105.6348 Y122.2529
G01 X105.6777 Y122.2592
G01 X105.7210 Y122.2699
G01 X105.7411 Y122.2769
G01 X106.0630 Y122.2769
G01 X106.1968 Y122.2215
G01 X106.2390 Y122.2064
G01 X106.2824 Y122.1955
G01 X106.3243 Y122.1892
G01 X106.3715 Y122.1867
G01 X106.4187 Y122.1892
G01 X106.4606 Y122.1955
G01 X106.5041 Y122.2064
G01 X106.5463 Y122.2215
G01 X106.6800 Y122.2769
G01 X106.9986 Y122.2769
G01 X107.2865 Y122.1577
G01 X107.3275 Y122.1430
G01 X107.3745 Y122.1313
G01 X107.4164 Y122.1252
G01 X107.4611 Y122.1230
G01 X107.5058 Y122.1252
G01 X107.5477 Y122.1313
G01 X107.5947 Y122.1429
G01 X107.6357 Y122.1576
G01 X107.9240 Y122.2769
G01 X108.8754 Y122.2769
G01 X108.9139 Y122.2669
G01 X108.9533 Y122.2605
G01 X108.9989 Y122.2572
G01 X109.0400 Y122.2582
G01 X109.1177 Y122.2636
G01 X109.1526 Y122.2675
G01 X109.1915 Y122.2750
G01 X109.2301 Y122.2861
G01 X109.3035 Y122.2810
G01 X109.3637 Y122.2810
G01 X109.4345 Y122.2861
G01 X109.4741 Y122.2748
G01 X109.5104 Y122.2677
G01 X109.5484 Y122.2635
G01 X109.6116 Y122.2319
G01 X109.6670 Y122.2089
G01 X109.7365 Y122.1856
G01 X109.7665 Y122.1616
G01 X109.7994 Y122.1395
G01 X109.8314 Y122.1219
G01 X109.8875 Y122.0938
G01 X109.9103 Y122.0806
G01 X109.9517 Y122.0616
G01 X109.9924 Y122.0475
G01 X110.0355 Y122.0371
G01 X110.0794 Y122.0309
G01 X110.1238 Y122.0290
G01 X110.1680 Y122.0314
G01 X110.2119 Y122.0381
G01 X110.2548 Y122.0490
G01 X110.2966 Y122.0641
G01 X110.3366 Y122.0831
G01 X110.3747 Y122.1059
G01 X110.4103 Y122.1323
G01 X110.4347 Y122.1542
G01 X110.7306 Y122.2769
G01 X111.0525 Y122.2769
G01 X111.0726 Y122.2699
G01 X111.1159 Y122.2592
G01 X111.1588 Y122.2529
G01 X111.2046 Y122.2507
G01 X111.2479 Y122.2529
G01 X111.2908 Y122.2592
G01 X111.3341 Y122.2699
G01 X111.3543 Y122.2769
G01 X111.7034 Y122.2769
G01 X111.7480 Y122.2792
G01 X111.7897 Y122.2854
G01 X111.8262 Y122.2926
G01 X111.8615 Y122.2855
G01 X111.9049 Y122.2791
G01 X111.9486 Y122.2769
G01 X111.9879 Y122.2769
G01 X112.0081 Y122.2699
G01 X112.0514 Y122.2592
G01 X112.0943 Y122.2529
G01 X112.1388 Y122.2507
G01 X112.1834 Y122.2529
G01 X112.2263 Y122.2592
G01 X112.2696 Y122.2699
G01 X112.2897 Y122.2769
G01 X113.2354 Y122.2769
G01 X113.5296 Y122.1549
G01 X113.7548 Y121.9297
G01 X113.8768 Y121.6355
G01 X113.8768 Y121.3168
G01 X113.8203 Y121.1805
G01 X113.8053 Y121.1383
G01 X113.7944 Y121.0948
G01 X113.7881 Y121.0530
G01 X113.7856 Y121.0058
G01 X113.7881 Y120.9586
G01 X113.7944 Y120.9167
G01 X113.8053 Y120.8733
G01 X113.8203 Y120.8311
G01 X113.8768 Y120.6948
G01 X113.8768 Y120.4054
G01 X113.8790 Y120.3618
G01 X113.8853 Y120.3187
G01 X113.8965 Y120.2741
G01 X113.9126 Y120.2296
G01 X113.9307 Y120.1914
G01 X113.9524 Y120.1550
G01 X113.9804 Y120.1169
G01 X114.0123 Y120.0820
G01 X114.0437 Y120.0536
G01 X114.0777 Y120.0284
G01 X114.1182 Y120.0039
G01 X114.1610 Y119.9839
G01 X114.2009 Y119.9697
G01 X114.2443 Y119.9588
G01 X114.2886 Y119.9522
G01 X114.3334 Y119.9500
G01 X119.1731 Y119.9500
G01 X119.2158 Y119.9521
G01 X119.2570 Y119.9581
G01 X119.3044 Y119.9697
G01 X119.3437 Y119.9836
G01 X119.3836 Y120.0021
G01 X119.4216 Y120.0243
G01 X119.4563 Y120.0494
G01 X119.4902 Y120.0793
G01 X119.5218 Y120.1133
G01 X119.5470 Y120.1464
G01 X119.5691 Y120.1816
G01 X119.5889 Y120.2209
G01 X119.6057 Y120.2642
G01 X119.6174 Y120.3067
G01 X119.6249 Y120.3500
G01 X119.6283 Y120.3963
G01 X119.6274 Y120.4379
G01 X119.6226 Y120.4793
G01 X119.6182 Y120.5018
G01 X119.6132 Y120.5235
G01 X119.4385 Y121.1763
G01 X119.4385 Y121.8522
G01 X119.6133 Y122.5047
G01 X119.9510 Y123.0897
G01 X120.4288 Y123.5675
G01 X121.0138 Y123.9052
G01 X121.6663 Y124.0800
G01 X122.3421 Y124.0800
G01 X122.6737 Y123.9912
G01 X122.7167 Y123.9819
G01 X122.7604 Y123.9767
G01 X122.8044 Y123.9758
G01 X122.8483 Y123.9792
G01 X122.8917 Y123.9867
G01 X122.9364 Y123.9992
G01 X122.9753 Y124.0141
G01 X123.0147 Y124.0337
G01 X123.0520 Y124.0570
G01 X123.0851 Y124.0823
G01 X123.1208 Y124.1156
G01 X123.1483 Y124.1469
G01 X123.1741 Y124.1825
G01 X123.1964 Y124.2205
G01 X123.2139 Y124.2582
G01 X123.2301 Y124.3043
G01 X123.2400 Y124.3447
G01 X123.2462 Y124.3871
G01 X123.2485 Y124.4322
G01 X123.2485 Y149.0763
G01 X123.2463 Y149.1203
G01 X123.2404 Y149.1615
G01 X123.2287 Y149.2089
G01 X123.2149 Y149.2482
G01 X123.1964 Y149.2881
G01 X123.1741 Y149.3261
G01 X123.1483 Y149.3617
G01 X123.1191 Y149.3947
G01 X123.0870 Y149.4248
G01 X123.0520 Y149.4516
G01 X123.0168 Y149.4736
G01 X122.9730 Y149.4954
G01 X122.9342 Y149.5102
G01 X122.8917 Y149.5219
G01 X122.8483 Y149.5294
G01 X122.8044 Y149.5328
G01 X122.7604 Y149.5319
G01 X122.7167 Y149.5267
G01 X122.6737 Y149.5174
G01 X122.3421 Y149.4285
G01 X121.6663 Y149.4285
G01 X121.0138 Y149.6034
G01 X120.4288 Y149.9411
G01 X119.9510 Y150.4189
G01 X119.6133 Y151.0039
G01 X119.4385 Y151.6564
G01 X119.4385 Y152.3322
G01 X119.6157 Y152.9937
G01 X119.6246 Y153.0344
G01 X119.6302 Y153.0805
G01 X119.6311 Y153.1245
G01 X119.6277 Y153.1684
G01 X119.6202 Y153.2118
G01 X119.6077 Y153.2565
G01 X119.5928 Y153.2953
G01 X119.5732 Y153.3347
G01 X119.5499 Y153.3721
G01 X119.5246 Y153.4051
G01 X119.4930 Y153.4392
G01 X119.4600 Y153.4683
G01 X119.4264 Y153.4928
G01 X119.3864 Y153.5164
G01 X119.3465 Y153.5349
G01 X119.3072 Y153.5488
G01 X119.2598 Y153.5604
G01 X119.2186 Y153.5664
G01 X119.1746 Y153.5685
G01 X94.3538 Y153.5685
G01 X94.3098 Y153.5664
G01 X94.2686 Y153.5604
G01 X94.2212 Y153.5488
G01 X94.1819 Y153.5349
G01 X94.1420 Y153.5164
G01 X94.1040 Y153.4941
G01 X94.0703 Y153.4698
G01 X94.0354 Y153.4392
G01 X94.0038 Y153.4051
G01 X93.9772 Y153.3701
G01 X93.9552 Y153.3347
G01 X93.9366 Y153.2975
G01 X93.9199 Y153.2542
G01 X93.9082 Y153.2118
G01 X93.9007 Y153.1684
G01 X93.8973 Y153.1221
G01 X93.8982 Y153.0805
G01 X93.9030 Y153.0391
G01 X93.9124 Y152.9949
G01 X94.0899 Y152.3322
G01 X94.0899 Y151.6564
G01 X93.9151 Y151.0039
G01 X93.5774 Y150.4189
G01 X93.0996 Y149.9411
G01 X92.5146 Y149.6034
G01 X91.8621 Y149.4285
G01 X91.1863 Y149.4285
G01 X90.5248 Y149.6058
G01 X90.4969 Y149.6123
G01 X90.4798 Y149.6154
G01 X90.4526 Y149.6190
G01 X90.4352 Y149.6204
G01 X90.4078 Y149.6213
G01 X90.3916 Y149.6211
G01 X90.3631 Y149.6192
G01 X90.3470 Y149.6174
G01 X90.3163 Y149.6123
G01 X90.3017 Y149.6091
G01 X90.2752 Y149.6020
G01 X90.2587 Y149.5967
G01 X90.2330 Y149.5870
G01 X90.2170 Y149.5801
G01 X90.1924 Y149.5680
G01 X90.1783 Y149.5602
G01 X90.1540 Y149.5451
G01 X90.1416 Y149.5366
G01 X90.1160 Y149.5169
G01 X90.1046 Y149.5072
G01 X90.0846 Y149.4885
G01 X90.0725 Y149.4759
G01 X90.0544 Y149.4553
G01 X90.0436 Y149.4417
G01 X90.0276 Y149.4194
G01 X90.0195 Y149.4069
G01 X90.0033 Y149.3789
G01 X89.9966 Y149.3656
G01 X89.9848 Y149.3395
G01 X89.9788 Y149.3244
G01 X89.9700 Y149.2984
G01 X89.9653 Y149.2817
G01 X89.9590 Y149.2550
G01 X89.9561 Y149.2391
G01 X89.9523 Y149.2107
G01 X89.9511 Y149.1958
G01 X89.9500 Y149.1647
G01 X89.9500 Y124.3439
G01 X89.1400 Y123.8577
G01 X89.1400 Y149.6507
G01 X89.2300 Y149.8396
G01 X89.2300 Y123.6694
G01 X89.3200 Y123.5322
G01 X89.3200 Y149.9770
G01 X89.4100 Y150.0855
G01 X89.4100 Y123.4237
G01 X89.5000 Y123.3322
G01 X89.5000 Y150.1767
G01 X89.5900 Y150.2667
G01 X89.5900 Y123.2425
G01 X89.6800 Y123.1527
G01 X89.6800 Y150.3567
G01 X89.7700 Y150.4467
G01 X89.7700 Y123.0630
G01 X89.8600 Y122.9733
G01 X89.8600 Y150.5367
G01 X89.9500 Y150.6267
G01 X89.9500 Y149.1647
G00 Z2.0000
G00 X90.0400 Y149.4365
G01 F60.00
G01 Z-2.4000
G01 F2000.00
G01 X90.0400 Y150.7166
G01 X90.1300 Y150.8066
G01 X90.1300 Y149.5275
G00 Z2.0000
G00 X90.2200 Y149.5814
G01 F60.00
G01 Z-2.4000
G01 F2000.00
G01 X90.2200 Y150.8966
G01 X90.3100 Y150.9866
G01 X90.3100 Y149.6108
G00 Z2.0000
G00 X90.4000 Y149.6211
G01 F60.00
G01 Z-2.4000
G01 F2000.00
G01 X90.4000 Y151.0766
G01 X90.4900 Y151.1666
G01 X90.4900 Y149.6135
G00 Z2.0000
G00 X90.5800 Y149.5910
G01 F60.00
G01 Z-2.4000
G01 F2000.00
G01 X90.5800 Y151.2566
G01 X90.6700 Y151.3466
G01 X90.6700 Y149.5669
G01 X90.7600 Y149.5428
G01 X90.7600 Y151.4366
G01 X90.8500 Y151.5266
G01 X90.8500 Y149.5186
G01 X90.9400 Y149.4945
G01 X90.9400 Y151.6166
G01 X91.0300 Y151.7066
G01 X91.0300 Y149.4704
G01 X91.1200 Y149.4463
G01 X91.1200 Y151.7966
G01 X91.2100 Y151.8866
G01 X91.2100 Y149.4285
G01 X91.3000 Y149.4285
G01 X91.3000 Y151.9766
G01 X91.3900 Y152.0666
G01 X91.3900 Y149.4285
G01 X91.4800 Y149.4285
G01 X91.4800 Y152.1566
G01 X91.5700 Y152.2466
G01 X91.5700 Y149.4285
G01 X91.6600 Y149.4285
G01 X91.6600 Y152.3366
G01 X91.7500 Y152.4266
G01 X91.7500 Y149.4285
G01 X91.8400 Y149.4285
G01 X91.8400 Y152.5166
G01 X91.9300 Y152.6066
G01 X91.9300 Y149.4467
G01 X92.0200 Y149.4709
G01 X92.0200 Y152.6966
G01 X92.1100 Y152.7866
G01 X92.1100 Y149.4950
G01 X92.2000 Y149.5191
G01 X92.2000 Y152.8766
G01 X92.2900 Y152.9666
G01 X92.2900 Y149.5432
G01 X92.3800 Y149.5674
G01 X92.3800 Y153.0566
G01 X92.4700 Y153.1466
G01 X92.4700 Y149.5915
G01 X92.5600 Y149.6296
G01 X92.5600 Y153.2366
G01 X92.6500 Y153.3266
G01 X92.6500 Y149.6816
G01 X92.7400 Y149.7335
G01 X92.7400 Y153.4166
G01 X92.8300 Y153.5066
G01 X92.8300 Y149.7855
G01 X92.9200 Y149.8374
G01 X92.9200 Y153.5966
G01 X93.0100 Y153.6866
G01 X93.0100 Y149.8894
G01 X93.1000 Y149.9415
G01 X93.1000 Y153.7766
G01 X93.1900 Y153.8666
G01 X93.1900 Y150.0315
G01 X93.2800 Y150.1215
G01 X93.2800 Y153.9566
G01 X93.3700 Y154.0466
G01 X93.3700 Y150.2115
G01 X93.4600 Y150.3015
G01 X93.4600 Y154.1318
G01 X93.5500 Y154.2042
G01 X93.5500 Y150.3915
G01 X93.6400 Y150.5274
G01 X93.6400 Y154.2654
G01 X93.7300 Y154.3175
G01 X93.7300 Y150.6833
G01 X93.8200 Y150.8392
G01 X93.8200 Y154.3592
G01 X93.9100 Y154.3934
G01 X93.9100 Y153.2185
G00 Z2.0000
G00 X94.0000 Y153.4001
G01 F60.00
G01 Z-2.4000
G01 F2000.00
G01 X94.0000 Y154.4214
G01 X94.0900 Y154.4436
G01 X94.0900 Y153.4841
G00 Z2.0000
G00 X94.1800 Y153.5341
G01 F60.00
G01 Z-2.4000
G01 F2000.00
G01 X94.1800 Y154.4570
G01 X94.2700 Y154.4656
G01 X94.2700 Y153.5606
G00 Z2.0000
G00 X94.3600 Y153.5685
G01 F60.00
G01 Z-2.4000
G01 F2000.00
G01 X94.3600 Y154.4685
G01 X94.4500 Y154.4685
G01 X94.4500 Y153.5685
G01 X94.5400 Y153.5685
G01 X94.5400 Y154.4685
G01 X94.6300 Y154.4685
G01 X94.6300 Y153.5685
G01 X94.7200 Y153.5685
G01 X94.7200 Y154.4685
G01 X94.8100 Y154.4685
G01 X94.8100 Y153.5685
G01 X94.9000 Y153.5685
G01 X94.9000 Y154.4685
G01 X94.9900 Y154.4685
G01 X94.9900 Y153.5685
G01 X95.0800 Y153.5685
G01 X95.0800 Y154.4685
G01 X95.1700 Y154.4685
G01 X95.1700 Y153.5685
G01 X95.2600 Y153.5685
G01 X95.2600 Y154.4685
G01 X95.3500 Y154.4685
G01 X95.3500 Y153.5685
G01 X95.4400 Y153.5685
G01 X95.4400 Y154.4685
G01 X95.5300 Y154.4685
G01 X95.5300 Y153.5685
G01 X95.6200 Y153.5685
G01 X95.6200 Y154.4685
G01 X95.7100 Y154.4685
G01 X95.7100 Y153.5685
G01 X95.8000 Y153.5685
G01 X95.8000 Y154.4685
G01 X95.8900 Y154.4685
G01 X95.8900 Y153.5685
G01 X95.9800 Y153.5685
G01 X95.9800 Y154.4685
G01 X96.0700 Y154.4685
G01 X96.0700 Y153.5685
G01 X96.1600 Y153.5685
G01 X96.1600 Y154.4685
G01 X96.2500 Y154.4685
G01 X96.2500 Y153.5685
G01 X96.3400 Y153.5685
G01 X96.3400 Y154.4685
G01 X96.4300 Y154.4685
G01 X96.4300 Y153.5685
G01 X96.5200 Y153.5685
G01 X96.5200 Y154.4685
G01 X96.6100 Y154.4685
G01 X96.6100 Y153.5685
G01 X96.7000 Y153.5685
G01 X96.7000 Y154.4685
G01 X96.7900 Y154.4685
G01 X96.7900 Y153.5685
G01 X96.8800 Y153.5685
G01 X96.8800 Y154.4685
G01 X96.9700 Y154.4685
G01 X96.9700 Y153.5685
G01 X97.0600 Y153.5685
G01 X97.0600 Y154.4685
G01 X97.1500 Y154.4685
G01 X97.1500 Y153.5685
G01 X97.2400 Y153.5685
G01 X97.2400 Y154.4685
G01 X97.3300 Y154.4685
G01 X97.3300 Y153.5685
G01 X97.4200 Y153.5685
G01 X97.4200 Y154.4685
G01 X97.5100 Y154.4685
G01 X97.5100 Y153.5685
G01 X97.6000 Y153.5685
G01 X97.6000 Y154.4685
G01 X97.6900 Y154.4685
G01 X97.6900 Y153.5685
G01 X97.7800 Y153.5685
G01 X97.7800 Y154.4685
G01 X97.8700 Y154.4685
G01 X97.8700 Y153.5685
G01 X97.9600 Y153.5685
G01 X97.9600 Y154.4685
G01 X98.0500 Y154.4685
G01 X98.0500 Y153.5685
G01 X98.1400 Y153.5685
G01 X98.1400 Y154.4685
G01 X98.2300 Y154.4685
G01 X98.2300 Y153.5685
G01 X98.3200 Y153.5685
G01 X98.3200 Y154.4685
G01 X98.4100 Y154.4685
G01 X98.4100 Y153.5685
G01 X98.5000 Y153.5685
G01 X98.5000 Y154.4685
G01 X98.5900 Y154.4685
G01 X98.5900 Y153.5685
G01 X98.6800 Y153.5685
G01 X98.6800 Y154.4685
G01 X98.7700 Y154.4685
G01 X98.7700 Y153.5685
G01 X98.8600 Y153.5685
G01 X98.8600 Y154.4685
G01 X98.9500 Y154.4685
G01 X98.9500 Y153.5685
G01 X99.0400 Y153.5685
G01 X99.0400 Y154.4685
G01 X99.1300 Y154.4685
G01 X99.1300 Y153.5685
G01 X99.2200 Y153.5685
G01 X99.2200 Y154.4685
G01 X99.3100 Y154.4685
G01 X99.3100 Y153.5685
G01 X99.4000 Y153.5685
G01 X99.4000 Y154.4685
G01 X99.4900 Y154.4685
G01 X99.4900 Y153.5685
G01 X99.5800 Y153.5685
G01 X99.5800 Y154.4685
G01 X99.6700 Y154.4685
G01 X99.6700 Y153.5685
G01 X99.7600 Y153.5685
G01 X99.7600 Y154.4685
G01 X99.8500 Y154.4685
G01 X99.8500 Y153.5685
G01 X99.9400 Y153.5685
G01 X99.9400 Y154.4685
G01 X100.0300 Y154.4685
G01 X100.0300 Y153.5685
G01 X100.1200 Y153.5685
G01 X100.1200 Y154.4685
G01 X100.2100 Y154.4685
G01 X100.2100 Y153.5685
G01 X100.3000 Y153.5685
G01 X100.3000 Y154.4685
G01 X100.3900 Y154.4685
G01 X100.3900 Y153.5685
G01 X100.4800 Y153.5685
G01 X100.4800 Y154.4685
G01 X100.5700 Y154.4685
G01 X100.5700 Y153.5685
G01 X100.6600 Y153.5685
G01 X100.6600 Y154.4685
G01 X100.7500 Y154.4685
G01 X100.7500 Y153.5685
G01 X100.8400 Y153.5685
G01 X100.8400 Y154.4685
G01 X100.9300 Y154.4685
G01 X100.9300 Y153.5685
G01 X101.0200 Y153.5685
G01 X101.0200 Y154.4685
G01 X101.1100 Y154.4685
G01 X101.1100 Y153.5685
G01 X101.2000 Y153.5685
G01 X101.2000 Y154.4685
G01 X101.2900 Y154.4685
G01 X101.2900 Y153.5685
G01 X101.3800 Y153.5685
G01 X101.3800 Y154.4685
G01 X101.4700 Y154.4685
G01 X101.4700 Y153.5685
G01 X101.5600 Y153.5685
G01 X101.5600 Y154.4685
G01 X101.6500 Y154.4685
G01 X101.6500 Y153.5685
G01 X101.7400 Y153.5685
G01 X101.7400 Y154.4685
G01 X101.8300 Y154.4685
G01 X101.8300 Y153.5685
G01 X101.9200 Y153.5685
G01 X101.9200 Y154.4685
G01 X102.0100 Y154.4685
G01 X102.0100 Y153.5685
G01 X102.1000 Y153.5685
G01 X102.1000 Y154.4685
G01 X102.1900 Y154.4685
G01 X102.1900 Y153.5685
G01 X102.2800 Y153.5685
G01 X102.2800 Y154.4685
G01 X102.3700 Y154.4685
G01 X102.3700 Y153.5685
G01 X102.4600 Y153.5685
G01 X102.4600 Y154.4685
G01 X102.5500 Y154.4685
G01 X102.5500 Y153.5685
G01 X102.6400 Y153.5685
G01 X102.6400 Y154.4685
G01 X102.7300 Y154.4685
G01 X102.7300 Y153.5685
G01 X102.8200 Y153.5685
G01 X102.8200 Y154.4685
G01 X102.9100 Y154.4685
G01 X102.9100 Y153.5685
G01 X103.0000 Y153.5685
G01 X103.0000 Y154.4685
G01 X103.0900 Y154.4685
G01 X103.0900 Y153.5685
G01 X103.1800 Y153.5685
G01 X103.1800 Y154.4685
G01 X103.2700 Y154.4685
G01 X103.2700 Y153.5685
G01 X103.3600 Y153.5685
G01 X103.3600 Y154.4685
G01 X103.4500 Y154.4685
G01 X103.4500 Y153.5685
G01 X103.5400 Y153.5685
G01 X103.5400 Y154.4685
G01 X103.6300 Y154.4685
G01 X103.6300 Y153.5685
G01 X103.7200 Y153.5685
G01 X103.7200 Y154.4685
G01 X103.8100 Y154.4685
G01 X103.8100 Y153.5685
G01 X103.9000 Y153.5685
G01 X103.9000 Y154.4685
G01 X103.9900 Y154.4685
G01 X103.9900 Y153.5685
G01 X104.0800 Y153.5685
G01 X104.0800 Y154.4685
G01 X104.1700 Y154.4685
G01 X104.1700 Y153.5685
G01 X104.2600 Y153.5685
G01 X104.2600 Y154.4685
G01 X104.3500 Y154.4685
G01 X104.3500 Y153.5685
G01 X104.4400 Y153.5685
G01 X104.4400 Y154.4685
G01 X104.5300 Y154.4685
G01 X104.5300 Y153.5685
G01 X104.6200 Y153.5685
G01 X104.6200 Y154.4685
G01 X104.7100 Y154.4685
G01 X104.7100 Y153.5685
G01 X104.8000 Y153.5685
G01 X104.8000 Y154.4685
G01 X104.8900 Y154.4685
G01 X104.8900 Y153.5685
G01 X104.9800 Y153.5685
G01 X104.9800 Y154.4685
G01 X105.0700 Y154.4685
G01 X105.0700 Y153.5685
G01 X105.1600 Y153.5685
G01 X105.1600 Y154.4685
G01 X105.2500 Y154.4685
G01 X105.2500 Y153.5685
G01 X105.3400 Y153.5685
G01 X105.3400 Y154.4685
G01 X105.4300 Y154.4685
G01 X105.4300 Y153.5685
G01 X105.5200 Y153.5685
G01 X105.5200 Y154.4685
G01 X105.6100 Y154.4685
G01 X105.6100 Y153.5685
G01 X105.7000 Y153.5685
G01 X105.7000 Y154.4685
G01 X105.7900 Y154.4685
G01 X105.7900 Y153.5685
G01 X105.8800 Y153.5685
G01 X105.8800 Y154.4685
G01 X105.9700 Y154.4685
G01 X105.9700 Y153.5685
G01 X106.0600 Y153.5685
G01 X106.0600 Y154.4685
G01 X106.1500 Y154.4685
G01 X106.1500 Y153.5685
G01 X106.2400 Y153.5685
G01 X106.2400 Y154.4685
G01 X106.3300 Y154.4685
G01 X106.3300 Y153.5685
G01 X106.4200 Y153.5685
G01 X106.4200 Y154.4685
G01 X106.5100 Y154.4685
G01 X106.5100 Y153.5685
G01 X106.6000 Y153.5685
G01 X106.6000 Y154.4685
G01 X106.6900 Y154.4685
G01 X106.6900 Y153.5685
G01 X106.7800 Y153.5685
G01 X106.7800 Y154.4685
G01 X106.8700 Y154.4685
G01 X106.8700 Y153.5685
G01 X106.9600 Y153.5685
G01 X106.9600 Y154.4685
G01 X107.0500 Y154.4685
G01 X107.0500 Y153.5685
G01 X107.1400 Y153.5685
G01 X107.1400 Y154.4685
G01 X107.2300 Y154.4685
G01 X107.2300 Y153.5685
G01 X107.3200 Y153.5685
G01 X107.3200 Y154.4685
G01 X107.4100 Y154.4685
G01 X107.4100 Y153.5685
G01 X107.5000 Y153.5685
G01 X107.5000 Y154.4685
G01 X107.5900 Y154.4685
G01 X107.5900 Y153.5685
G01 X107.6800 Y153.5685
G01 X107.6800 Y154.4685
G01 X107.7700 Y154.4685
G01 X107.7700 Y153.5685
G01 X107.8600 Y153.5685
G01 X107.8600 Y154.4685
G01 X107.9500 Y154.4685
G01 X107.9500 Y153.5685
G01 X108.0400 Y153.5685
G01 X108.0400 Y154.4685
G01 X108.1300 Y154.4685
G01 X108.1300 Y153.5685
G01 X108.2200 Y153.5685
G01 X108.2200 Y154.4685
G01 X108.3100 Y154.4685
G01 X108.3100 Y153.5685
G01 X108.4000 Y153.5685
G01 X108.4000 Y154.4685
G01 X108.4900 Y154.4685
G01 X108.4900 Y153.5685
G01 X108.5800 Y153.5685
G01 X108.5800 Y154.4685
G01 X108.6700 Y154.4685
G01 X108.6700 Y153.5685
G01 X108.7600 Y153.5685
G01 X108.7600 Y154.4685
G01 X108.8500 Y154.4685
G01 X108.8500 Y153.5685
G01 X108.9400 Y153.5685
G01 X108.9400 Y154.4685
G01 X109.0300 Y154.4685
G01 X109.0300 Y153.5685
G01 X109.1200 Y153.5685
G01 X109.1200 Y154.4685
G01 X109.2100 Y154.4685
G01 X109.2100 Y153.5685
G01 X109.3000 Y153.5685
G01 X109.3000 Y154.4685
G01 X109.3900 Y154.4685
G01 X109.3900 Y153.5685
G01 X109.4800 Y153.5685
G01 X109.4800 Y154.4685
G01 X109.5700 Y154.4685
G01 X109.5700 Y153.5685
G01 X109.6600 Y153.5685
G01 X109.6600 Y154.4685
G01 X109.7500 Y154.4685
G01 X109.7500 Y153.5685
G01 X109.8400 Y153.5685
G01 X109.8400 Y154.4685
G01 X109.9300 Y154.4685
G01 X109.9300 Y153.5685
G01 X110.0200 Y153.5685
G01 X110.0200 Y154.4685
G01 X110.1100 Y154.4685
G01 X110.1100 Y153.5685
G01 X110.2000 Y153.5685
G01 X110.2000 Y154.4685
G01 X110.2900 Y154.4685
G01 X110.2900 Y153.5685
G01 X110.3800 Y153.5685
G01 X110.3800 Y154.4685
G01 X110.4700 Y154.4685
G01 X110.4700 Y153.5685
G01 X110.5600 Y153.5685
G01 X110.5600 Y154.4685
G01 X110.6500 Y154.4685
G01 X110.6500 Y153.5685
G01 X110.7400 Y153.5685
G01 X110.7400 Y154.4685
G01 X110.8300 Y154.4685
G01 X110.8300 Y153.5685
G01 X110.9200 Y153.5685
G01 X110.9200 Y154.4685
G01 X111.0100 Y154.4685
G01 X111.0100 Y153.5685
G01 X111.1000 Y153.5685
G01 X111.1000 Y154.4685
G01 X111.1900 Y154.4685
G01 X111.1900 Y153.5685
G01 X111.2800 Y153.5685
G01 X111.2800 Y154.4685
G01 X111.3700 Y154.4685
G01 X111.3700 Y153.5685
G01 X111.4600 Y153.5685
G01 X111.4600 Y154.4685
G01 X111.5500 Y154.4685
G01 X111.5500 Y153.5685
G01 X111.6400 Y153.5685
G01 X111.6400 Y154.4685
G01 X111.7300 Y154.4685
G01 X111.7300 Y153.5685
G01 X111.8200 Y153.5685
G01 X111.8200 Y154.4685
G01 X111.9100 Y154.4685
G01 X111.9100 Y153.5685
G01 X112.0000 Y153.5685
G01 X112.0000 Y154.4685
G01 X112.0900 Y154.4685
G01 X112.0900 Y153.5685
G01 X112.1800 Y153.5685
G01 X112.1800 Y154.4685
G01 X112.2700 Y154.4685
G01 X112.2700 Y153.5685
G01 X112.3600 Y153.5685
G01 X112.3600 Y154.4685
G01 X112.4500 Y154.4685
G01 X112.4500 Y153.5685
G01 X112.5400 Y153.5685
G01 X112.5400 Y154.4685
G01 X112.6300 Y154.4685
G01 X112.6300 Y153.5685
G01 X112.7200 Y153.5685
G01 X112.7200 Y154.4685
G01 X112.8100 Y154.4685
G01 X112.8100 Y153.5685
G01 X112.9000 Y153.5685
G01 X112.9000 Y154.4685
G01 X112.9900 Y154.4685
G01 X112.9900 Y153.5685
G01 X113.0800 Y153.5685
G01 X113.0800 Y154.4685
G01 X113.1700 Y154.4685
G01 X113.1700 Y153.5685
G01 X113.2600 Y153.5685
G01 X113.2600 Y154.4685
G01 X113.3500 Y154.4685
G01 X113.3500 Y153.5685
G01 X113.4400 Y153.5685
G01 X113.4400 Y154.4685
G01 X113.5300 Y154.4685
G01 X113.5300 Y153.5685
G01 X113.6200 Y153.5685
G01 X113.6200 Y154.4685
G01 X113.7100 Y154.4685
G01 X113.7100 Y153.5685
G01 X113.8000 Y153.5685
G01 X113.8000 Y154.4685
G01 X113.8900 Y154.4685
G01 X113.8900 Y153.5685
G01 X113.9800 Y153.5685
G01 X113.9800 Y154.4685
G01 X114.0700 Y154.4685
G01 X114.0700 Y153.5685
G01 X114.1600 Y153.5685
G01 X114.1600 Y154.4685
G01 X114.2500 Y154.4685
G01 X114.2500 Y153.5685
G01 X114.3400 Y153.5685
G01 X114.3400 Y154.4685
G01 X114.4300 Y154.4685
G01 X114.4300 Y153.5685
