(G-CODE GENERATED BY FLATCAM v8.994 - www.flatcam.org - Version Date: 2020/11/7)

(Name: ad2_breadboard.stc_edit_iso_combined_cnc)
(Type: G-code from Geometry)
(Units: MM)

(Created on Wednesday, 14 April 2021 at 13:59)

(This preprocessor is the default preprocessor used by FlatCAM.)
(It is made to work with MACH3 compatible motion controllers.)

(TOOL DIAMETER: 0.1 mm)
(Feedrate_XY: 2000.0 mm/min)
(Feedrate_Z: 60.0 mm/min)
(Feedrate rapids 1500.0 mm/min)

(Z_Cut: 0.0 mm)
(Z_Move: 2.0 mm)
(Z Start: None mm)
(Z End: 15.0 mm)
(X,Y End: None mm)
(Steps per circle: 64)
(Preprocessor Geometry: default)

(X range:   89.9400 ...  169.7398  mm)
(Y range:  119.9400 ...  195.2948  mm)

(Spindle Speed: 10.0 RPM)
G21
G90
G94

G01 F2000.00

M5
G00 Z15.0000
G00 X0.0000 Y0.0000
(MSG, Change to Tool Dia = 0.1000)
G00 Z15.0000

M03 S10.0
G01 F2000.00
G00 X89.9630 Y140.8321
G01 F60.00
G01 Z0.0000
G01 F2000.00
G01 X89.9578 Y140.8253
G01 X89.9538 Y140.8177
G01 X89.9512 Y140.8095
G01 X89.9500 Y140.7998
G01 X89.9500 Y140.1462
G01 X89.9510 Y140.1365
G01 X89.9538 Y140.1271
G01 X89.9584 Y140.1185
G01 X89.9646 Y140.1109
G01 X90.4259 Y139.6496
G01 X90.4335 Y139.6434
G01 X90.4421 Y139.6388
G01 X90.4515 Y139.6360
G01 X90.4612 Y139.6350
G01 X91.1135 Y139.6350
G01 X91.1233 Y139.6360
G01 X91.1327 Y139.6388
G01 X91.1413 Y139.6434
G01 X91.1489 Y139.6496
G01 X91.6101 Y140.1109
G01 X91.6164 Y140.1185
G01 X91.6210 Y140.1271
G01 X91.6238 Y140.1365
G01 X91.6248 Y140.1462
G01 X91.6248 Y140.7985
G01 X91.6238 Y140.8083
G01 X91.6210 Y140.8177
G01 X91.6164 Y140.8263
G01 X91.6101 Y140.8339
G01 X91.1489 Y141.2952
G01 X91.1413 Y141.3014
G01 X91.1327 Y141.3060
G01 X91.1233 Y141.3088
G01 X91.1135 Y141.3098
G01 X90.4612 Y141.3098
G01 X90.4515 Y141.3088
G01 X90.4421 Y141.3060
G01 X90.4335 Y141.3014
G01 X90.4259 Y141.2952
G01 X89.9630 Y140.8321
G00 Z2.0000
G00 X89.9555 Y140.8388
G01 F60.00
G01 Z0.0000
G01 F2000.00
G01 X89.9493 Y140.8306
G01 X89.9446 Y140.8215
G01 X89.9415 Y140.8117
G01 X89.9404 Y140.8059
G01 X89.9400 Y140.8000
G01 X89.9400 Y140.1462
G01 X89.9403 Y140.1404
G01 X89.9412 Y140.1345
G01 X89.9440 Y140.1247
G01 X89.9464 Y140.1193
G01 X89.9493 Y140.1141
G01 X89.9527 Y140.1093
G01 X89.9576 Y140.1038
G01 X90.4188 Y139.6426
G01 X90.4232 Y139.6386
G01 X90.4279 Y139.6351
G01 X90.4330 Y139.6321
G01 X90.4383 Y139.6296
G01 X90.4438 Y139.6276
G01 X90.4495 Y139.6262
G01 X90.4554 Y139.6253
G01 X90.4612 Y139.6250
G01 X91.1135 Y139.6250
G01 X91.1194 Y139.6253
G01 X91.1253 Y139.6262
G01 X91.1310 Y139.6276
G01 X91.1365 Y139.6296
G01 X91.1418 Y139.6321
G01 X91.1469 Y139.6351
G01 X91.1516 Y139.6386
G01 X91.1560 Y139.6426
G01 X91.6172 Y140.1038
G01 X91.6212 Y140.1082
G01 X91.6247 Y140.1129
G01 X91.6277 Y140.1180
G01 X91.6302 Y140.1233
G01 X91.6322 Y140.1288
G01 X91.6336 Y140.1345
G01 X91.6345 Y140.1404
G01 X91.6348 Y140.1462
G01 X91.6348 Y140.7985
G01 X91.6345 Y140.8044
G01 X91.6336 Y140.8103
G01 X91.6322 Y140.8160
G01 X91.6302 Y140.8215
G01 X91.6277 Y140.8268
G01 X91.6247 Y140.8319
G01 X91.6212 Y140.8366
G01 X91.6172 Y140.8410
G01 X91.1560 Y141.3022
G01 X91.1516 Y141.3062
G01 X91.1469 Y141.3097
G01 X91.1418 Y141.3127
G01 X91.1365 Y141.3152
G01 X91.1310 Y141.3172
G01 X91.1253 Y141.3186
G01 X91.1194 Y141.3195
G01 X91.1135 Y141.3198
G01 X90.4612 Y141.3198
G01 X90.4554 Y141.3195
G01 X90.4495 Y141.3186
G01 X90.4438 Y141.3172
G01 X90.4383 Y141.3152
G01 X90.4330 Y141.3127
G01 X90.4279 Y141.3097
G01 X90.4232 Y141.3062
G01 X90.4188 Y141.3022
G01 X89.9555 Y140.8388
G00 Z2.0000
G00 X89.9630 Y143.3721
G01 F60.00
G01 Z0.0000
G01 F2000.00
G01 X89.9578 Y143.3653
G01 X89.9538 Y143.3577
G01 X89.9512 Y143.3495
G01 X89.9500 Y143.3398
G01 X89.9500 Y142.6862
G01 X89.9510 Y142.6765
G01 X89.9538 Y142.6671
G01 X89.9584 Y142.6585
G01 X89.9646 Y142.6509
G01 X90.4259 Y142.1896
G01 X90.4335 Y142.1834
G01 X90.4421 Y142.1788
G01 X90.4515 Y142.1760
G01 X90.4612 Y142.1750
G01 X91.1135 Y142.1750
G01 X91.1233 Y142.1760
G01 X91.1327 Y142.1788
G01 X91.1413 Y142.1834
G01 X91.1489 Y142.1896
G01 X91.6101 Y142.6509
G01 X91.6164 Y142.6585
G01 X91.6210 Y142.6671
G01 X91.6238 Y142.6765
G01 X91.6248 Y142.6862
G01 X91.6248 Y143.3385
G01 X91.6238 Y143.3483
G01 X91.6210 Y143.3577
G01 X91.6164 Y143.3663
G01 X91.6101 Y143.3739
G01 X91.1489 Y143.8352
G01 X91.1413 Y143.8414
G01 X91.1327 Y143.8460
G01 X91.1233 Y143.8488
G01 X91.1135 Y143.8498
G01 X90.4612 Y143.8498
G01 X90.4515 Y143.8488
G01 X90.4421 Y143.8460
G01 X90.4335 Y143.8414
G01 X90.4259 Y143.8352
G01 X89.9630 Y143.3721
G00 Z2.0000
G00 X89.9555 Y143.3788
G01 F60.00
G01 Z0.0000
G01 F2000.00
G01 X89.9493 Y143.3706
G01 X89.9446 Y143.3615
G01 X89.9415 Y143.3517
G01 X89.9404 Y143.3459
G01 X89.9400 Y143.3400
G01 X89.9400 Y142.6862
G01 X89.9403 Y142.6804
G01 X89.9412 Y142.6745
G01 X89.9440 Y142.6647
G01 X89.9464 Y142.6593
G01 X89.9493 Y142.6541
G01 X89.9527 Y142.6493
G01 X89.9576 Y142.6438
G01 X90.4188 Y142.1826
G01 X90.4232 Y142.1786
G01 X90.4279 Y142.1751
G01 X90.4330 Y142.1721
G01 X90.4383 Y142.1696
G01 X90.4438 Y142.1676
G01 X90.4495 Y142.1662
G01 X90.4554 Y142.1653
G01 X90.4612 Y142.1650
G01 X91.1135 Y142.1650
G01 X91.1194 Y142.1653
G01 X91.1253 Y142.1662
G01 X91.1310 Y142.1676
G01 X91.1365 Y142.1696
G01 X91.1418 Y142.1721
G01 X91.1469 Y142.1751
G01 X91.1516 Y142.1786
G01 X91.1560 Y142.1826
G01 X91.6172 Y142.6438
G01 X91.6212 Y142.6482
G01 X91.6247 Y142.6529
G01 X91.6277 Y142.6580
G01 X91.6302 Y142.6633
G01 X91.6322 Y142.6688
G01 X91.6336 Y142.6745
G01 X91.6345 Y142.6804
G01 X91.6348 Y142.6862
G01 X91.6348 Y143.3385
G01 X91.6345 Y143.3444
G01 X91.6336 Y143.3503
G01 X91.6322 Y143.3560
G01 X91.6302 Y143.3615
G01 X91.6277 Y143.3668
G01 X91.6247 Y143.3719
G01 X91.6212 Y143.3766
G01 X91.6172 Y143.3810
G01 X91.1560 Y143.8422
G01 X91.1516 Y143.8462
G01 X91.1469 Y143.8497
G01 X91.1418 Y143.8527
G01 X91.1365 Y143.8552
G01 X91.1310 Y143.8572
G01 X91.1253 Y143.8586
G01 X91.1194 Y143.8595
G01 X91.1135 Y143.8598
G01 X90.4612 Y143.8598
G01 X90.4554 Y143.8595
G01 X90.4495 Y143.8586
G01 X90.4438 Y143.8572
G01 X90.4383 Y143.8552
G01 X90.4330 Y143.8527
G01 X90.4279 Y143.8497
G01 X90.4232 Y143.8462
G01 X90.4188 Y143.8422
G01 X89.9555 Y143.3788
G00 Z2.0000
G00 X89.9630 Y145.9121
G01 F60.00
G01 Z0.0000
G01 F2000.00
G01 X89.9578 Y145.9053
G01 X89.9538 Y145.8977
G01 X89.9512 Y145.8895
G01 X89.9500 Y145.8798
G01 X89.9500 Y145.2262
G01 X89.9510 Y145.2165
G01 X89.9538 Y145.2071
G01 X89.9584 Y145.1985
G01 X89.9646 Y145.1909
G01 X90.4259 Y144.7296
G01 X90.4335 Y144.7234
G01 X90.4421 Y144.7188
G01 X90.4515 Y144.7160
G01 X90.4612 Y144.7150
G01 X91.1135 Y144.7150
G01 X91.1233 Y144.7160
G01 X91.1327 Y144.7188
G01 X91.1413 Y144.7234
G01 X91.1489 Y144.7296
G01 X91.6101 Y145.1909
G01 X91.6164 Y145.1985
G01 X91.6210 Y145.2071
G01 X91.6238 Y145.2165
G01 X91.6248 Y145.2262
G01 X91.6248 Y145.8785
G01 X91.6238 Y145.8883
G01 X91.6210 Y145.8977
G01 X91.6164 Y145.9063
G01 X91.6101 Y145.9139
G01 X91.1489 Y146.3752
G01 X91.1413 Y146.3814
G01 X91.1327 Y146.3860
G01 X91.1233 Y146.3888
G01 X91.1135 Y146.3898
G01 X90.4612 Y146.3898
G01 X90.4515 Y146.3888
G01 X90.4421 Y146.3860
G01 X90.4335 Y146.3814
G01 X90.4259 Y146.3752
G01 X89.9630 Y145.9121
G00 Z2.0000
G00 X89.9555 Y145.9188
G01 F60.00
G01 Z0.0000
G01 F2000.00
G01 X89.9493 Y145.9106
G01 X89.9446 Y145.9015
G01 X89.9415 Y145.8917
G01 X89.9404 Y145.8859
G01 X89.9400 Y145.8800
G01 X89.9400 Y145.2262
G01 X89.9403 Y145.2204
G01 X89.9412 Y145.2145
G01 X89.9440 Y145.2047
G01 X89.9464 Y145.1993
G01 X89.9493 Y145.1941
G01 X89.9527 Y145.1893
G01 X89.9576 Y145.1838
G01 X90.4188 Y144.7226
G01 X90.4232 Y144.7186
G01 X90.4279 Y144.7151
G01 X90.4330 Y144.7121
G01 X90.4383 Y144.7096
G01 X90.4438 Y144.7076
G01 X90.4495 Y144.7062
G01 X90.4554 Y144.7053
G01 X90.4612 Y144.7050
G01 X91.1135 Y144.7050
G01 X91.1194 Y144.7053
G01 X91.1253 Y144.7062
G01 X91.1310 Y144.7076
G01 X91.1365 Y144.7096
G01 X91.1418 Y144.7121
G01 X91.1469 Y144.7151
G01 X91.1516 Y144.7186
G01 X91.1560 Y144.7226
G01 X91.6172 Y145.1838
G01 X91.6212 Y145.1882
G01 X91.6247 Y145.1929
G01 X91.6277 Y145.1980
G01 X91.6302 Y145.2033
G01 X91.6322 Y145.2088
G01 X91.6336 Y145.2145
G01 X91.6345 Y145.2204
G01 X91.6348 Y145.2262
G01 X91.6348 Y145.8785
G01 X91.6345 Y145.8844
G01 X91.6336 Y145.8903
G01 X91.6322 Y145.8960
G01 X91.6302 Y145.9015
G01 X91.6277 Y145.9068
G01 X91.6247 Y145.9119
G01 X91.6212 Y145.9166
G01 X91.6172 Y145.9210
G01 X91.1560 Y146.3822
G01 X91.1516 Y146.3862
G01 X91.1469 Y146.3897
G01 X91.1418 Y146.3927
G01 X91.1365 Y146.3952
G01 X91.1310 Y146.3972
G01 X91.1253 Y146.3986
G01 X91.1194 Y146.3995
G01 X91.1135 Y146.3998
G01 X90.4612 Y146.3998
G01 X90.4554 Y146.3995
G01 X90.4495 Y146.3986
G01 X90.4438 Y146.3972
G01 X90.4383 Y146.3952
G01 X90.4330 Y146.3927
G01 X90.4279 Y146.3897
G01 X90.4232 Y146.3862
G01 X90.4188 Y146.3822
G01 X89.9555 Y145.9188
G00 Z2.0000
G00 X89.9630 Y148.4521
G01 F60.00
G01 Z0.0000
G01 F2000.00
G01 X89.9578 Y148.4453
G01 X89.9538 Y148.4377
G01 X89.9512 Y148.4295
G01 X89.9500 Y148.4198
G01 X89.9500 Y147.7662
G01 X89.9510 Y147.7565
G01 X89.9538 Y147.7471
G01 X89.9584 Y147.7385
G01 X89.9646 Y147.7309
G01 X90.4259 Y147.2696
G01 X90.4335 Y147.2634
G01 X90.4421 Y147.2588
G01 X90.4515 Y147.2560
G01 X90.4612 Y147.2550
G01 X91.1135 Y147.2550
G01 X91.1233 Y147.2560
G01 X91.1327 Y147.2588
G01 X91.1413 Y147.2634
G01 X91.1489 Y147.2696
G01 X91.6101 Y147.7309
G01 X91.6164 Y147.7385
G01 X91.6210 Y147.7471
G01 X91.6238 Y147.7565
G01 X91.6248 Y147.7662
G01 X91.6248 Y148.4185
G01 X91.6238 Y148.4283
G01 X91.6210 Y148.4377
G01 X91.6164 Y148.4463
G01 X91.6101 Y148.4539
G01 X91.1489 Y148.9152
G01 X91.1413 Y148.9214
G01 X91.1327 Y148.9260
G01 X91.1233 Y148.9288
G01 X91.1135 Y148.9298
G01 X90.4612 Y148.9298
G01 X90.4515 Y148.9288
G01 X90.4421 Y148.9260
G01 X90.4335 Y148.9214
G01 X90.4259 Y148.9152
G01 X89.9630 Y148.4521
G00 Z2.0000
G00 X89.9555 Y148.4588
G01 F60.00
G01 Z0.0000
G01 F2000.00
G01 X89.9493 Y148.4506
G01 X89.9446 Y148.4415
G01 X89.9415 Y148.4317
G01 X89.9404 Y148.4259
G01 X89.9400 Y148.4200
G01 X89.9400 Y147.7662
G01 X89.9403 Y147.7604
G01 X89.9412 Y147.7545
G01 X89.9440 Y147.7447
G01 X89.9464 Y147.7393
G01 X89.9493 Y147.7341
G01 X89.9527 Y147.7293
G01 X89.9576 Y147.7238
G01 X90.4188 Y147.2626
G01 X90.4232 Y147.2586
G01 X90.4279 Y147.2551
G01 X90.4330 Y147.2521
G01 X90.4383 Y147.2496
G01 X90.4438 Y147.2476
G01 X90.4495 Y147.2462
G01 X90.4554 Y147.2453
G01 X90.4612 Y147.2450
G01 X91.1135 Y147.2450
G01 X91.1194 Y147.2453
G01 X91.1253 Y147.2462
G01 X91.1310 Y147.2476
G01 X91.1365 Y147.2496
G01 X91.1418 Y147.2521
G01 X91.1469 Y147.2551
G01 X91.1516 Y147.2586
G01 X91.1560 Y147.2626
G01 X91.6172 Y147.7238
G01 X91.6212 Y147.7282
G01 X91.6247 Y147.7329
G01 X91.6277 Y147.7380
G01 X91.6302 Y147.7433
G01 X91.6322 Y147.7488
G01 X91.6336 Y147.7545
G01 X91.6345 Y147.7604
G01 X91.6348 Y147.7662
G01 X91.6348 Y148.4185
G01 X91.6345 Y148.4244
G01 X91.6336 Y148.4303
G01 X91.6322 Y148.4360
G01 X91.6302 Y148.4415
G01 X91.6277 Y148.4468
G01 X91.6247 Y148.4519
G01 X91.6212 Y148.4566
G01 X91.6172 Y148.4610
G01 X91.1560 Y148.9222
G01 X91.1516 Y148.9262
G01 X91.1469 Y148.9297
G01 X91.1418 Y148.9327
G01 X91.1365 Y148.9352
G01 X91.1310 Y148.9372
G01 X91.1253 Y148.9386
G01 X91.1194 Y148.9395
G01 X91.1135 Y148.9398
G01 X90.4612 Y148.9398
G01 X90.4554 Y148.9395
G01 X90.4495 Y148.9386
G01 X90.4438 Y148.9372
G01 X90.4383 Y148.9352
G01 X90.4330 Y148.9327
G01 X90.4279 Y148.9297
G01 X90.4232 Y148.9262
G01 X90.4188 Y148.9222
G01 X89.9555 Y148.4588
G00 Z2.0000
G00 X89.9630 Y150.9921
G01 F60.00
G01 Z0.0000
G01 F2000.00
G01 X89.9578 Y150.9853
G01 X89.9538 Y150.9777
G01 X89.9512 Y150.9695
G01 X89.9500 Y150.9598
G01 X89.9500 Y150.3062
G01 X89.9510 Y150.2965
G01 X89.9538 Y150.2871
G01 X89.9584 Y150.2785
G01 X89.9646 Y150.2709
G01 X90.4259 Y149.8096
G01 X90.4335 Y149.8034
G01 X90.4421 Y149.7988
G01 X90.4515 Y149.7960
G01 X90.4612 Y149.7950
G01 X91.1135 Y149.7950
G01 X91.1233 Y149.7960
G01 X91.1327 Y149.7988
G01 X91.1413 Y149.8034
G01 X91.1489 Y149.8096
G01 X91.6101 Y150.2709
G01 X91.6164 Y150.2785
G01 X91.6210 Y150.2871
G01 X91.6238 Y150.2965
G01 X91.6248 Y150.3062
G01 X91.6248 Y150.9585
G01 X91.6238 Y150.9683
G01 X91.6210 Y150.9777
G01 X91.6164 Y150.9863
G01 X91.6101 Y150.9939
G01 X91.1489 Y151.4552
G01 X91.1413 Y151.4614
G01 X91.1327 Y151.4660
G01 X91.1233 Y151.4688
G01 X91.1135 Y151.4698
G01 X90.4612 Y151.4698
G01 X90.4515 Y151.4688
G01 X90.4421 Y151.4660
G01 X90.4335 Y151.4614
G01 X90.4259 Y151.4552
G01 X89.9630 Y150.9921
G00 Z2.0000
G00 X89.9555 Y150.9988
G01 F60.00
G01 Z0.0000
G01 F2000.00
G01 X89.9493 Y150.9906
G01 X89.9446 Y150.9815
G01 X89.9415 Y150.9717
G01 X89.9404 Y150.9659
G01 X89.9400 Y150.9600
G01 X89.9400 Y150.3062
G01 X89.9403 Y150.3004
G01 X89.9412 Y150.2945
G01 X89.9440 Y150.2847
G01 X89.9464 Y150.2793
G01 X89.9493 Y150.2741
G01 X89.9527 Y150.2693
G01 X89.9576 Y150.2638
G01 X90.4188 Y149.8026
G01 X90.4232 Y149.7986
G01 X90.4279 Y149.7951
G01 X90.4330 Y149.7921
G01 X90.4383 Y149.7896
G01 X90.4438 Y149.7876
G01 X90.4495 Y149.7862
G01 X90.4554 Y149.7853
G01 X90.4612 Y149.7850
G01 X91.1135 Y149.7850
G01 X91.1194 Y149.7853
G01 X91.1253 Y149.7862
G01 X91.1310 Y149.7876
G01 X91.1365 Y149.7896
G01 X91.1418 Y149.7921
G01 X91.1469 Y149.7951
G01 X91.1516 Y149.7986
G01 X91.1560 Y149.8026
G01 X91.6172 Y150.2638
G01 X91.6212 Y150.2682
G01 X91.6247 Y150.2729
G01 X91.6277 Y150.2780
G01 X91.6302 Y150.2833
G01 X91.6322 Y150.2888
G01 X91.6336 Y150.2945
G01 X91.6345 Y150.3004
G01 X91.6348 Y150.3062
G01 X91.6348 Y150.9585
G01 X91.6345 Y150.9644
G01 X91.6336 Y150.9703
G01 X91.6322 Y150.9760
G01 X91.6302 Y150.9815
G01 X91.6277 Y150.9868
G01 X91.6247 Y150.9919
G01 X91.6212 Y150.9966
G01 X91.6172 Y151.0010
G01 X91.1560 Y151.4622
G01 X91.1516 Y151.4662
G01 X91.1469 Y151.4697
G01 X91.1418 Y151.4727
G01 X91.1365 Y151.4752
G01 X91.1310 Y151.4772
G01 X91.1253 Y151.4786
G01 X91.1194 Y151.4795
G01 X91.1135 Y151.4798
G01 X90.4612 Y151.4798
G01 X90.4554 Y151.4795
G01 X90.4495 Y151.4786
G01 X90.4438 Y151.4772
G01 X90.4383 Y151.4752
G01 X90.4330 Y151.4727
G01 X90.4279 Y151.4697
G01 X90.4232 Y151.4662
G01 X90.4188 Y151.4622
G01 X89.9555 Y150.9988
G00 Z2.0000
G00 X89.9630 Y153.5321
G01 F60.00
G01 Z0.0000
G01 F2000.00
G01 X89.9578 Y153.5253
G01 X89.9538 Y153.5177
G01 X89.9512 Y153.5095
G01 X89.9500 Y153.4998
G01 X89.9500 Y152.8462
G01 X89.9510 Y152.8365
G01 X89.9538 Y152.8271
G01 X89.9584 Y152.8185
G01 X89.9646 Y152.8109
G01 X90.4259 Y152.3496
G01 X90.4335 Y152.3434
G01 X90.4421 Y152.3388
G01 X90.4515 Y152.3360
G01 X90.4612 Y152.3350
G01 X91.1135 Y152.3350
G01 X91.1233 Y152.3360
G01 X91.1327 Y152.3388
G01 X91.1413 Y152.3434
G01 X91.1489 Y152.3496
G01 X91.6101 Y152.8109
G01 X91.6164 Y152.8185
G01 X91.6210 Y152.8271
G01 X91.6238 Y152.8365
G01 X91.6248 Y152.8462
G01 X91.6248 Y153.4985
G01 X91.6238 Y153.5083
G01 X91.6210 Y153.5177
G01 X91.6164 Y153.5263
G01 X91.6101 Y153.5339
G01 X91.1489 Y153.9952
G01 X91.1413 Y154.0014
G01 X91.1327 Y154.0060
G01 X91.1233 Y154.0088
G01 X91.1135 Y154.0098
G01 X90.4612 Y154.0098
G01 X90.4515 Y154.0088
G01 X90.4421 Y154.0060
G01 X90.4335 Y154.0014
G01 X90.4259 Y153.9952
G01 X89.9630 Y153.5321
G00 Z2.0000
G00 X89.9555 Y153.5388
G01 F60.00
G01 Z0.0000
G01 F2000.00
G01 X89.9493 Y153.5306
G01 X89.9446 Y153.5215
G01 X89.9415 Y153.5117
G01 X89.9404 Y153.5059
G01 X89.9400 Y153.5000
G01 X89.9400 Y152.8462
G01 X89.9403 Y152.8404
G01 X89.9412 Y152.8345
G01 X89.9440 Y152.8247
G01 X89.9464 Y152.8193
G01 X89.9493 Y152.8141
G01 X89.9527 Y152.8093
G01 X89.9576 Y152.8038
G01 X90.4188 Y152.3426
G01 X90.4232 Y152.3386
G01 X90.4279 Y152.3351
G01 X90.4330 Y152.3321
G01 X90.4383 Y152.3296
G01 X90.4438 Y152.3276
G01 X90.4495 Y152.3262
G01 X90.4554 Y152.3253
G01 X90.4612 Y152.3250
G01 X91.1135 Y152.3250
G01 X91.1194 Y152.3253
G01 X91.1253 Y152.3262
G01 X91.1310 Y152.3276
G01 X91.1365 Y152.3296
G01 X91.1418 Y152.3321
G01 X91.1469 Y152.3351
G01 X91.1516 Y152.3386
G01 X91.1560 Y152.3426
G01 X91.6172 Y152.8038
G01 X91.6212 Y152.8082
G01 X91.6247 Y152.8129
G01 X91.6277 Y152.8180
G01 X91.6302 Y152.8233
G01 X91.6322 Y152.8288
G01 X91.6336 Y152.8345
G01 X91.6345 Y152.8404
G01 X91.6348 Y152.8462
G01 X91.6348 Y153.4985
G01 X91.6345 Y153.5044
G01 X91.6336 Y153.5103
G01 X91.6322 Y153.5160
G01 X91.6302 Y153.5215
G01 X91.6277 Y153.5268
G01 X91.6247 Y153.5319
G01 X91.6212 Y153.5366
G01 X91.6172 Y153.5410
G01 X91.1560 Y154.0022
G01 X91.1516 Y154.0062
G01 X91.1469 Y154.0097
G01 X91.1418 Y154.0127
G01 X91.1365 Y154.0152
G01 X91.1310 Y154.0172
G01 X91.1253 Y154.0186
G01 X91.1194 Y154.0195
G01 X91.1135 Y154.0198
G01 X90.4612 Y154.0198
G01 X90.4554 Y154.0195
G01 X90.4495 Y154.0186
G01 X90.4438 Y154.0172
G01 X90.4383 Y154.0152
G01 X90.4330 Y154.0127
G01 X90.4279 Y154.0097
G01 X90.4232 Y154.0062
G01 X90.4188 Y154.0022
G01 X89.9555 Y153.5388
G00 Z2.0000
G00 X89.9630 Y156.0721
G01 F60.00
G01 Z0.0000
G01 F2000.00
G01 X89.9578 Y156.0653
G01 X89.9538 Y156.0577
G01 X89.9512 Y156.0495
G01 X89.9500 Y156.0398
G01 X89.9500 Y155.3862
G01 X89.9510 Y155.3765
G01 X89.9538 Y155.3671
G01 X89.9584 Y155.3585
G01 X89.9646 Y155.3509
G01 X90.4259 Y154.8896
G01 X90.4335 Y154.8834
G01 X90.4421 Y154.8788
G01 X90.4515 Y154.8760
G01 X90.4612 Y154.8750
G01 X91.1135 Y154.8750
G01 X91.1233 Y154.8760
G01 X91.1327 Y154.8788
G01 X91.1413 Y154.8834
G01 X91.1489 Y154.8896
G01 X91.6101 Y155.3509
G01 X91.6164 Y155.3585
G01 X91.6210 Y155.3671
G01 X91.6238 Y155.3765
G01 X91.6248 Y155.3862
G01 X91.6248 Y156.0385
G01 X91.6238 Y156.0483
G01 X91.6210 Y156.0577
G01 X91.6164 Y156.0663
G01 X91.6101 Y156.0739
G01 X91.1489 Y156.5352
G01 X91.1413 Y156.5414
G01 X91.1327 Y156.5460
G01 X91.1233 Y156.5488
G01 X91.1135 Y156.5498
G01 X90.4612 Y156.5498
G01 X90.4515 Y156.5488
G01 X90.4421 Y156.5460
G01 X90.4335 Y156.5414
G01 X90.4259 Y156.5352
G01 X89.9630 Y156.0721
G00 Z2.0000
G00 X89.9555 Y156.0788
G01 F60.00
G01 Z0.0000
G01 F2000.00
G01 X89.9493 Y156.0706
G01 X89.9446 Y156.0615
G01 X89.9415 Y156.0517
G01 X89.9404 Y156.0459
G01 X89.9400 Y156.0400
G01 X89.9400 Y155.3862
G01 X89.9403 Y155.3804
G01 X89.9412 Y155.3745
G01 X89.9440 Y155.3647
G01 X89.9464 Y155.3593
G01 X89.9493 Y155.3541
G01 X89.9527 Y155.3493
G01 X89.9576 Y155.3438
G01 X90.4188 Y154.8826
G01 X90.4232 Y154.8786
G01 X90.4279 Y154.8751
G01 X90.4330 Y154.8721
G01 X90.4383 Y154.8696
G01 X90.4438 Y154.8676
G01 X90.4495 Y154.8662
G01 X90.4554 Y154.8653
G01 X90.4612 Y154.8650
G01 X91.1135 Y154.8650
G01 X91.1194 Y154.8653
G01 X91.1253 Y154.8662
G01 X91.1310 Y154.8676
G01 X91.1365 Y154.8696
G01 X91.1418 Y154.8721
G01 X91.1469 Y154.8751
G01 X91.1516 Y154.8786
G01 X91.1560 Y154.8826
G01 X91.6172 Y155.3438
G01 X91.6212 Y155.3482
G01 X91.6247 Y155.3529
G01 X91.6277 Y155.3580
G01 X91.6302 Y155.3633
G01 X91.6322 Y155.3688
G01 X91.6336 Y155.3745
G01 X91.6345 Y155.3804
G01 X91.6348 Y155.3862
G01 X91.6348 Y156.0385
G01 X91.6345 Y156.0444
G01 X91.6336 Y156.0503
G01 X91.6322 Y156.0560
G01 X91.6302 Y156.0615
G01 X91.6277 Y156.0668
G01 X91.6247 Y156.0719
G01 X91.6212 Y156.0766
G01 X91.6172 Y156.0810
G01 X91.1560 Y156.5422
G01 X91.1516 Y156.5462
G01 X91.1469 Y156.5497
G01 X91.1418 Y156.5527
G01 X91.1365 Y156.5552
G01 X91.1310 Y156.5572
G01 X91.1253 Y156.5586
G01 X91.1194 Y156.5595
G01 X91.1135 Y156.5598
G01 X90.4612 Y156.5598
G01 X90.4554 Y156.5595
G01 X90.4495 Y156.5586
G01 X90.4438 Y156.5572
G01 X90.4383 Y156.5552
G01 X90.4330 Y156.5527
G01 X90.4279 Y156.5497
G01 X90.4232 Y156.5462
G01 X90.4188 Y156.5422
G01 X89.9555 Y156.0788
G00 Z2.0000
G00 X89.9630 Y158.6121
G01 F60.00
G01 Z0.0000
G01 F2000.00
G01 X89.9578 Y158.6053
G01 X89.9538 Y158.5977
G01 X89.9512 Y158.5895
G01 X89.9500 Y158.5798
G01 X89.9500 Y157.9262
G01 X89.9510 Y157.9165
G01 X89.9538 Y157.9071
G01 X89.9584 Y157.8985
G01 X89.9646 Y157.8909
G01 X90.4259 Y157.4296
G01 X90.4335 Y157.4234
G01 X90.4421 Y157.4188
G01 X90.4515 Y157.4160
G01 X90.4612 Y157.4150
G01 X91.1135 Y157.4150
G01 X91.1233 Y157.4160
G01 X91.1327 Y157.4188
G01 X91.1413 Y157.4234
G01 X91.1489 Y157.4296
G01 X91.6101 Y157.8909
G01 X91.6164 Y157.8985
G01 X91.6210 Y157.9071
G01 X91.6238 Y157.9165
G01 X91.6248 Y157.9262
G01 X91.6248 Y158.5785
G01 X91.6238 Y158.5883
G01 X91.6210 Y158.5977
G01 X91.6164 Y158.6063
G01 X91.6101 Y158.6139
G01 X91.1489 Y159.0752
G01 X91.1413 Y159.0814
G01 X91.1327 Y159.0860
G01 X91.1233 Y159.0888
G01 X91.1135 Y159.0898
G01 X90.4612 Y159.0898
G01 X90.4515 Y159.0888
G01 X90.4421 Y159.0860
G01 X90.4335 Y159.0814
G01 X90.4259 Y159.0752
G01 X89.9630 Y158.6121
G00 Z2.0000
G00 X89.9555 Y158.6188
G01 F60.00
G01 Z0.0000
G01 F2000.00
G01 X89.9493 Y158.6106
G01 X89.9446 Y158.6015
G01 X89.9415 Y158.5917
G01 X89.9404 Y158.5859
G01 X89.9400 Y158.5800
G01 X89.9400 Y157.9262
G01 X89.9403 Y157.9204
G01 X89.9412 Y157.9145
G01 X89.9440 Y157.9047
G01 X89.9464 Y157.8993
G01 X89.9493 Y157.8941
G01 X89.9527 Y157.8893
G01 X89.9576 Y157.8838
G01 X90.4188 Y157.4226
G01 X90.4232 Y157.4186
G01 X90.4279 Y157.4151
G01 X90.4330 Y157.4121
G01 X90.4383 Y157.4096
G01 X90.4438 Y157.4076
G01 X90.4495 Y157.4062
G01 X90.4554 Y157.4053
G01 X90.4612 Y157.4050
G01 X91.1135 Y157.4050
G01 X91.1194 Y157.4053
G01 X91.1253 Y157.4062
G01 X91.1310 Y157.4076
G01 X91.1365 Y157.4096
G01 X91.1418 Y157.4121
G01 X91.1469 Y157.4151
G01 X91.1516 Y157.4186
G01 X91.1560 Y157.4226
G01 X91.6172 Y157.8838
G01 X91.6212 Y157.8882
G01 X91.6247 Y157.8929
G01 X91.6277 Y157.8980
G01 X91.6302 Y157.9033
G01 X91.6322 Y157.9088
G01 X91.6336 Y157.9145
G01 X91.6345 Y157.9204
G01 X91.6348 Y157.9262
G01 X91.6348 Y158.5785
G01 X91.6345 Y158.5844
G01 X91.6336 Y158.5903
G01 X91.6322 Y158.5960
G01 X91.6302 Y158.6015
G01 X91.6277 Y158.6068
G01 X91.6247 Y158.6119
G01 X91.6212 Y158.6166
G01 X91.6172 Y158.6210
G01 X91.1560 Y159.0822
G01 X91.1516 Y159.0862
G01 X91.1469 Y159.0897
G01 X91.1418 Y159.0927
G01 X91.1365 Y159.0952
G01 X91.1310 Y159.0972
G01 X91.1253 Y159.0986
G01 X91.1194 Y159.0995
G01 X91.1135 Y159.0998
G01 X90.4612 Y159.0998
G01 X90.4554 Y159.0995
G01 X90.4495 Y159.0986
G01 X90.4438 Y159.0972
G01 X90.4383 Y159.0952
G01 X90.4330 Y159.0927
G01 X90.4279 Y159.0897
G01 X90.4232 Y159.0862
G01 X90.4188 Y159.0822
G01 X89.9555 Y158.6188
G00 Z2.0000
G00 X89.9630 Y161.1521
G01 F60.00
G01 Z0.0000
G01 F2000.00
G01 X89.9578 Y161.1453
G01 X89.9538 Y161.1377
G01 X89.9512 Y161.1295
G01 X89.9500 Y161.1198
G01 X89.9500 Y160.4662
G01 X89.9510 Y160.4565
G01 X89.9538 Y160.4471
G01 X89.9584 Y160.4385
G01 X89.9646 Y160.4309
G01 X90.4259 Y159.9696
G01 X90.4335 Y159.9634
G01 X90.4421 Y159.9588
G01 X90.4515 Y159.9560
G01 X90.4612 Y159.9550
G01 X91.1135 Y159.9550
G01 X91.1233 Y159.9560
G01 X91.1327 Y159.9588
G01 X91.1413 Y159.9634
G01 X91.1489 Y159.9696
G01 X91.6101 Y160.4309
G01 X91.6164 Y160.4385
G01 X91.6210 Y160.4471
G01 X91.6238 Y160.4565
G01 X91.6248 Y160.4662
G01 X91.6248 Y161.1185
G01 X91.6238 Y161.1283
G01 X91.6210 Y161.1377
G01 X91.6164 Y161.1463
G01 X91.6101 Y161.1539
G01 X91.1489 Y161.6152
G01 X91.1413 Y161.6214
G01 X91.1327 Y161.6260
G01 X91.1233 Y161.6288
G01 X91.1135 Y161.6298
G01 X90.4612 Y161.6298
G01 X90.4515 Y161.6288
G01 X90.4421 Y161.6260
G01 X90.4335 Y161.6214
G01 X90.4259 Y161.6152
G01 X89.9630 Y161.1521
G00 Z2.0000
G00 X89.9555 Y161.1588
G01 F60.00
G01 Z0.0000
G01 F2000.00
G01 X89.9493 Y161.1506
G01 X89.9446 Y161.1415
G01 X89.9415 Y161.1317
G01 X89.9404 Y161.1259
G01 X89.9400 Y161.1200
G01 X89.9400 Y160.4662
G01 X89.9403 Y160.4604
G01 X89.9412 Y160.4545
G01 X89.9440 Y160.4447
G01 X89.9464 Y160.4393
G01 X89.9493 Y160.4341
G01 X89.9527 Y160.4293
G01 X89.9576 Y160.4238
G01 X90.4188 Y159.9626
G01 X90.4232 Y159.9586
G01 X90.4279 Y159.9551
G01 X90.4330 Y159.9521
G01 X90.4383 Y159.9496
G01 X90.4438 Y159.9476
G01 X90.4495 Y159.9462
G01 X90.4554 Y159.9453
G01 X90.4612 Y159.9450
G01 X91.1135 Y159.9450
G01 X91.1194 Y159.9453
G01 X91.1253 Y159.9462
G01 X91.1310 Y159.9476
G01 X91.1365 Y159.9496
G01 X91.1418 Y159.9521
G01 X91.1469 Y159.9551
G01 X91.1516 Y159.9586
G01 X91.1560 Y159.9626
G01 X91.6172 Y160.4238
G01 X91.6212 Y160.4282
G01 X91.6247 Y160.4329
G01 X91.6277 Y160.4380
G01 X91.6302 Y160.4433
G01 X91.6322 Y160.4488
G01 X91.6336 Y160.4545
G01 X91.6345 Y160.4604
G01 X91.6348 Y160.4662
G01 X91.6348 Y161.1185
G01 X91.6345 Y161.1244
G01 X91.6336 Y161.1303
G01 X91.6322 Y161.1360
G01 X91.6302 Y161.1415
G01 X91.6277 Y161.1468
G01 X91.6247 Y161.1519
G01 X91.6212 Y161.1566
G01 X91.6172 Y161.1610
G01 X91.1560 Y161.6222
G01 X91.1516 Y161.6262
G01 X91.1469 Y161.6297
G01 X91.1418 Y161.6327
G01 X91.1365 Y161.6352
G01 X91.1310 Y161.6372
G01 X91.1253 Y161.6386
G01 X91.1194 Y161.6395
G01 X91.1135 Y161.6398
G01 X90.4612 Y161.6398
G01 X90.4554 Y161.6395
G01 X90.4495 Y161.6386
G01 X90.4438 Y161.6372
G01 X90.4383 Y161.6352
G01 X90.4330 Y161.6327
G01 X90.4279 Y161.6297
G01 X90.4232 Y161.6262
G01 X90.4188 Y161.6222
G01 X89.9555 Y161.1588
G00 Z2.0000
G00 X89.9630 Y163.6921
G01 F60.00
G01 Z0.0000
G01 F2000.00
G01 X89.9578 Y163.6853
G01 X89.9538 Y163.6777
G01 X89.9512 Y163.6695
G01 X89.9500 Y163.6598
G01 X89.9500 Y163.0062
G01 X89.9510 Y162.9965
G01 X89.9538 Y162.9871
G01 X89.9584 Y162.9785
G01 X89.9646 Y162.9709
G01 X90.4259 Y162.5096
G01 X90.4335 Y162.5034
G01 X90.4421 Y162.4988
G01 X90.4515 Y162.4960
G01 X90.4612 Y162.4950
G01 X91.1135 Y162.4950
G01 X91.1233 Y162.4960
G01 X91.1327 Y162.4988
G01 X91.1413 Y162.5034
G01 X91.1489 Y162.5096
G01 X91.6101 Y162.9709
G01 X91.6164 Y162.9785
G01 X91.6210 Y162.9871
G01 X91.6238 Y162.9965
G01 X91.6248 Y163.0062
G01 X91.6248 Y163.6585
G01 X91.6238 Y163.6683
G01 X91.6210 Y163.6777
G01 X91.6164 Y163.6863
G01 X91.6101 Y163.6939
G01 X91.1489 Y164.1552
G01 X91.1413 Y164.1614
G01 X91.1327 Y164.1660
G01 X91.1233 Y164.1688
G01 X91.1135 Y164.1698
G01 X90.4612 Y164.1698
G01 X90.4515 Y164.1688
G01 X90.4421 Y164.1660
G01 X90.4335 Y164.1614
G01 X90.4259 Y164.1552
G01 X89.9630 Y163.6921
G00 Z2.0000
G00 X89.9555 Y163.6988
G01 F60.00
G01 Z0.0000
G01 F2000.00
G01 X89.9493 Y163.6906
G01 X89.9446 Y163.6815
G01 X89.9415 Y163.6717
G01 X89.9404 Y163.6659
G01 X89.9400 Y163.6600
G01 X89.9400 Y163.0062
G01 X89.9403 Y163.0004
G01 X89.9412 Y162.9945
G01 X89.9440 Y162.9847
G01 X89.9464 Y162.9793
G01 X89.9493 Y162.9741
G01 X89.9527 Y162.9693
G01 X89.9576 Y162.9638
G01 X90.4188 Y162.5026
G01 X90.4232 Y162.4986
G01 X90.4279 Y162.4951
G01 X90.4330 Y162.4921
G01 X90.4383 Y162.4896
G01 X90.4438 Y162.4876
G01 X90.4495 Y162.4862
G01 X90.4554 Y162.4853
G01 X90.4612 Y162.4850
G01 X91.1135 Y162.4850
G01 X91.1194 Y162.4853
G01 X91.1253 Y162.4862
G01 X91.1310 Y162.4876
G01 X91.1365 Y162.4896
G01 X91.1418 Y162.4921
G01 X91.1469 Y162.4951
G01 X91.1516 Y162.4986
G01 X91.1560 Y162.5026
G01 X91.6172 Y162.9638
G01 X91.6212 Y162.9682
G01 X91.6247 Y162.9729
G01 X91.6277 Y162.9780
G01 X91.6302 Y162.9833
G01 X91.6322 Y162.9888
G01 X91.6336 Y162.9945
G01 X91.6345 Y163.0004
G01 X91.6348 Y163.0062
G01 X91.6348 Y163.6585
G01 X91.6345 Y163.6644
G01 X91.6336 Y163.6703
G01 X91.6322 Y163.6760
G01 X91.6302 Y163.6815
G01 X91.6277 Y163.6868
G01 X91.6247 Y163.6919
G01 X91.6212 Y163.6966
G01 X91.6172 Y163.7010
G01 X91.1560 Y164.1622
G01 X91.1516 Y164.1662
G01 X91.1469 Y164.1697
G01 X91.1418 Y164.1727
G01 X91.1365 Y164.1752
G01 X91.1310 Y164.1772
G01 X91.1253 Y164.1786
G01 X91.1194 Y164.1795
G01 X91.1135 Y164.1798
G01 X90.4612 Y164.1798
G01 X90.4554 Y164.1795
G01 X90.4495 Y164.1786
G01 X90.4438 Y164.1772
G01 X90.4383 Y164.1752
G01 X90.4330 Y164.1727
G01 X90.4279 Y164.1697
G01 X90.4232 Y164.1662
G01 X90.4188 Y164.1622
G01 X89.9555 Y163.6988
G00 Z2.0000
G00 X89.9630 Y166.2321
G01 F60.00
G01 Z0.0000
G01 F2000.00
G01 X89.9578 Y166.2253
G01 X89.9538 Y166.2177
G01 X89.9512 Y166.2095
G01 X89.9500 Y166.1998
G01 X89.9500 Y165.5462
G01 X89.9510 Y165.5365
G01 X89.9538 Y165.5271
G01 X89.9584 Y165.5185
G01 X89.9646 Y165.5109
G01 X90.4259 Y165.0496
G01 X90.4335 Y165.0434
G01 X90.4421 Y165.0388
G01 X90.4515 Y165.0360
G01 X90.4612 Y165.0350
G01 X91.1135 Y165.0350
G01 X91.1233 Y165.0360
G01 X91.1327 Y165.0388
G01 X91.1413 Y165.0434
G01 X91.1489 Y165.0496
G01 X91.6101 Y165.5109
G01 X91.6164 Y165.5185
G01 X91.6210 Y165.5271
G01 X91.6238 Y165.5365
G01 X91.6248 Y165.5462
G01 X91.6248 Y166.1985
G01 X91.6238 Y166.2083
G01 X91.6210 Y166.2177
G01 X91.6164 Y166.2263
G01 X91.6101 Y166.2339
G01 X91.1489 Y166.6952
G01 X91.1413 Y166.7014
G01 X91.1327 Y166.7060
G01 X91.1233 Y166.7088
G01 X91.1135 Y166.7098
G01 X90.4612 Y166.7098
G01 X90.4515 Y166.7088
G01 X90.4421 Y166.7060
G01 X90.4335 Y166.7014
G01 X90.4259 Y166.6952
G01 X89.9630 Y166.2321
G00 Z2.0000
G00 X89.9555 Y166.2388
G01 F60.00
G01 Z0.0000
G01 F2000.00
G01 X89.9493 Y166.2306
G01 X89.9446 Y166.2215
G01 X89.9415 Y166.2117
G01 X89.9404 Y166.2059
G01 X89.9400 Y166.2000
G01 X89.9400 Y165.5462
G01 X89.9403 Y165.5404
G01 X89.9412 Y165.5345
G01 X89.9440 Y165.5247
G01 X89.9464 Y165.5193
G01 X89.9493 Y165.5141
G01 X89.9527 Y165.5093
G01 X89.9576 Y165.5038
G01 X90.4188 Y165.0426
G01 X90.4232 Y165.0386
G01 X90.4279 Y165.0351
G01 X90.4330 Y165.0321
G01 X90.4383 Y165.0296
G01 X90.4438 Y165.0276
G01 X90.4495 Y165.0262
G01 X90.4554 Y165.0253
G01 X90.4612 Y165.0250
G01 X91.1135 Y165.0250
G01 X91.1194 Y165.0253
G01 X91.1253 Y165.0262
G01 X91.1310 Y165.0276
G01 X91.1365 Y165.0296
G01 X91.1418 Y165.0321
G01 X91.1469 Y165.0351
G01 X91.1516 Y165.0386
G01 X91.1560 Y165.0426
G01 X91.6172 Y165.5038
G01 X91.6212 Y165.5082
G01 X91.6247 Y165.5129
G01 X91.6277 Y165.5180
G01 X91.6302 Y165.5233
G01 X91.6322 Y165.5288
G01 X91.6336 Y165.5345
G01 X91.6345 Y165.5404
G01 X91.6348 Y165.5462
G01 X91.6348 Y166.1985
G01 X91.6345 Y166.2044
G01 X91.6336 Y166.2103
G01 X91.6322 Y166.2160
G01 X91.6302 Y166.2215
G01 X91.6277 Y166.2268
G01 X91.6247 Y166.2319
G01 X91.6212 Y166.2366
G01 X91.6172 Y166.2410
G01 X91.1560 Y166.7022
G01 X91.1516 Y166.7062
G01 X91.1469 Y166.7097
G01 X91.1418 Y166.7127
G01 X91.1365 Y166.7152
G01 X91.1310 Y166.7172
G01 X91.1253 Y166.7186
G01 X91.1194 Y166.7195
G01 X91.1135 Y166.7198
G01 X90.4612 Y166.7198
G01 X90.4554 Y166.7195
G01 X90.4495 Y166.7186
G01 X90.4438 Y166.7172
G01 X90.4383 Y166.7152
G01 X90.4330 Y166.7127
G01 X90.4279 Y166.7097
G01 X90.4232 Y166.7062
G01 X90.4188 Y166.7022
G01 X89.9555 Y166.2388
G00 Z2.0000
G00 X89.9630 Y168.7721
G01 F60.00
G01 Z0.0000
G01 F2000.00
G01 X89.9578 Y168.7653
G01 X89.9538 Y168.7577
G01 X89.9512 Y168.7495
G01 X89.9500 Y168.7398
G01 X89.9500 Y168.0862
G01 X89.9510 Y168.0765
G01 X89.9538 Y168.0671
G01 X89.9584 Y168.0585
G01 X89.9646 Y168.0509
G01 X90.4259 Y167.5896
G01 X90.4335 Y167.5834
G01 X90.4421 Y167.5788
G01 X90.4515 Y167.5760
G01 X90.4612 Y167.5750
G01 X91.1135 Y167.5750
G01 X91.1233 Y167.5760
G01 X91.1327 Y167.5788
G01 X91.1413 Y167.5834
G01 X91.1489 Y167.5896
G01 X91.6101 Y168.0509
G01 X91.6164 Y168.0585
G01 X91.6210 Y168.0671
G01 X91.6238 Y168.0765
G01 X91.6248 Y168.0862
G01 X91.6248 Y168.7385
G01 X91.6238 Y168.7483
G01 X91.6210 Y168.7577
G01 X91.6164 Y168.7663
G01 X91.6101 Y168.7739
G01 X91.1489 Y169.2352
G01 X91.1413 Y169.2414
G01 X91.1327 Y169.2460
G01 X91.1233 Y169.2488
G01 X91.1135 Y169.2498
G01 X90.4612 Y169.2498
G01 X90.4515 Y169.2488
G01 X90.4421 Y169.2460
G01 X90.4335 Y169.2414
G01 X90.4259 Y169.2352
G01 X89.9630 Y168.7721
G00 Z2.0000
G00 X89.9555 Y168.7788
G01 F60.00
G01 Z0.0000
G01 F2000.00
G01 X89.9493 Y168.7706
G01 X89.9446 Y168.7615
G01 X89.9415 Y168.7517
G01 X89.9404 Y168.7459
G01 X89.9400 Y168.7400
G01 X89.9400 Y168.0862
G01 X89.9403 Y168.0804
G01 X89.9412 Y168.0745
G01 X89.9440 Y168.0647
G01 X89.9464 Y168.0593
G01 X89.9493 Y168.0541
G01 X89.9527 Y168.0493
G01 X89.9576 Y168.0438
G01 X90.4188 Y167.5826
G01 X90.4232 Y167.5786
G01 X90.4279 Y167.5751
G01 X90.4330 Y167.5721
G01 X90.4383 Y167.5696
G01 X90.4438 Y167.5676
G01 X90.4495 Y167.5662
G01 X90.4554 Y167.5653
G01 X90.4612 Y167.5650
G01 X91.1135 Y167.5650
G01 X91.1194 Y167.5653
G01 X91.1253 Y167.5662
G01 X91.1310 Y167.5676
G01 X91.1365 Y167.5696
G01 X91.1418 Y167.5721
G01 X91.1469 Y167.5751
G01 X91.1516 Y167.5786
G01 X91.1560 Y167.5826
G01 X91.6172 Y168.0438
G01 X91.6212 Y168.0482
G01 X91.6247 Y168.0529
G01 X91.6277 Y168.0580
G01 X91.6302 Y168.0633
G01 X91.6322 Y168.0688
G01 X91.6336 Y168.0745
G01 X91.6345 Y168.0804
G01 X91.6348 Y168.0862
G01 X91.6348 Y168.7385
G01 X91.6345 Y168.7444
G01 X91.6336 Y168.7503
G01 X91.6322 Y168.7560
G01 X91.6302 Y168.7615
G01 X91.6277 Y168.7668
G01 X91.6247 Y168.7719
G01 X91.6212 Y168.7766
G01 X91.6172 Y168.7810
G01 X91.1560 Y169.2422
G01 X91.1516 Y169.2462
G01 X91.1469 Y169.2497
G01 X91.1418 Y169.2527
G01 X91.1365 Y169.2552
G01 X91.1310 Y169.2572
G01 X91.1253 Y169.2586
G01 X91.1194 Y169.2595
G01 X91.1135 Y169.2598
G01 X90.4612 Y169.2598
G01 X90.4554 Y169.2595
G01 X90.4495 Y169.2586
G01 X90.4438 Y169.2572
G01 X90.4383 Y169.2552
G01 X90.4330 Y169.2527
G01 X90.4279 Y169.2497
G01 X90.4232 Y169.2462
G01 X90.4188 Y169.2422
G01 X89.9555 Y168.7788
G00 Z2.0000
G00 X89.9630 Y171.3121
G01 F60.00
G01 Z0.0000
G01 F2000.00
G01 X89.9578 Y171.3053
G01 X89.9538 Y171.2977
G01 X89.9512 Y171.2895
G01 X89.9500 Y171.2798
G01 X89.9500 Y170.6262
G01 X89.9510 Y170.6165
G01 X89.9538 Y170.6071
G01 X89.9584 Y170.5985
G01 X89.9646 Y170.5909
G01 X90.4259 Y170.1296
G01 X90.4335 Y170.1234
G01 X90.4421 Y170.1188
G01 X90.4515 Y170.1160
G01 X90.4612 Y170.1150
G01 X91.1135 Y170.1150
G01 X91.1233 Y170.1160
G01 X91.1327 Y170.1188
G01 X91.1413 Y170.1234
G01 X91.1489 Y170.1296
G01 X91.6101 Y170.5909
G01 X91.6164 Y170.5985
G01 X91.6210 Y170.6071
G01 X91.6238 Y170.6165
G01 X91.6248 Y170.6262
G01 X91.6248 Y171.2785
G01 X91.6238 Y171.2883
G01 X91.6210 Y171.2977
G01 X91.6164 Y171.3063
G01 X91.6101 Y171.3139
G01 X91.1489 Y171.7752
G01 X91.1413 Y171.7814
G01 X91.1327 Y171.7860
G01 X91.1233 Y171.7888
G01 X91.1135 Y171.7898
G01 X90.4612 Y171.7898
G01 X90.4515 Y171.7888
G01 X90.4421 Y171.7860
G01 X90.4335 Y171.7814
G01 X90.4259 Y171.7752
G01 X89.9630 Y171.3121
G00 Z2.0000
G00 X89.9555 Y171.3188
G01 F60.00
G01 Z0.0000
G01 F2000.00
G01 X89.9493 Y171.3106
G01 X89.9446 Y171.3015
G01 X89.9415 Y171.2917
G01 X89.9404 Y171.2859
G01 X89.9400 Y171.2800
G01 X89.9400 Y170.6262
G01 X89.9403 Y170.6204
G01 X89.9412 Y170.6145
G01 X89.9440 Y170.6047
G01 X89.9464 Y170.5993
G01 X89.9493 Y170.5941
G01 X89.9527 Y170.5893
G01 X89.9576 Y170.5838
G01 X90.4188 Y170.1226
G01 X90.4232 Y170.1186
G01 X90.4279 Y170.1151
G01 X90.4330 Y170.1121
G01 X90.4383 Y170.1096
G01 X90.4438 Y170.1076
G01 X90.4495 Y170.1062
G01 X90.4554 Y170.1053
G01 X90.4612 Y170.1050
G01 X91.1135 Y170.1050
G01 X91.1194 Y170.1053
G01 X91.1253 Y170.1062
G01 X91.1310 Y170.1076
G01 X91.1365 Y170.1096
G01 X91.1418 Y170.1121
G01 X91.1469 Y170.1151
G01 X91.1516 Y170.1186
G01 X91.1560 Y170.1226
G01 X91.6172 Y170.5838
G01 X91.6212 Y170.5882
G01 X91.6247 Y170.5929
G01 X91.6277 Y170.5980
G01 X91.6302 Y170.6033
G01 X91.6322 Y170.6088
G01 X91.6336 Y170.6145
G01 X91.6345 Y170.6204
G01 X91.6348 Y170.6262
G01 X91.6348 Y171.2785
G01 X91.6345 Y171.2844
G01 X91.6336 Y171.2903
G01 X91.6322 Y171.2960
G01 X91.6302 Y171.3015
G01 X91.6277 Y171.3068
G01 X91.6247 Y171.3119
G01 X91.6212 Y171.3166
G01 X91.6172 Y171.3210
G01 X91.1560 Y171.7822
G01 X91.1516 Y171.7862
G01 X91.1469 Y171.7897
G01 X91.1418 Y171.7927
G01 X91.1365 Y171.7952
G01 X91.1310 Y171.7972
G01 X91.1253 Y171.7986
G01 X91.1194 Y171.7995
G01 X91.1135 Y171.7998
G01 X90.4612 Y171.7998
G01 X90.4554 Y171.7995
G01 X90.4495 Y171.7986
G01 X90.4438 Y171.7972
G01 X90.4383 Y171.7952
G01 X90.4330 Y171.7927
G01 X90.4279 Y171.7897
G01 X90.4232 Y171.7862
G01 X90.4188 Y171.7822
G01 X89.9555 Y171.3188
G00 Z2.0000
G00 X89.9630 Y173.8521
G01 F60.00
G01 Z0.0000
G01 F2000.00
G01 X89.9578 Y173.8453
G01 X89.9538 Y173.8377
G01 X89.9512 Y173.8295
G01 X89.9500 Y173.8198
G01 X89.9500 Y173.1662
G01 X89.9510 Y173.1565
G01 X89.9538 Y173.1471
G01 X89.9584 Y173.1385
G01 X89.9646 Y173.1309
G01 X90.4259 Y172.6696
G01 X90.4335 Y172.6634
G01 X90.4421 Y172.6588
G01 X90.4515 Y172.6560
G01 X90.4612 Y172.6550
G01 X91.1135 Y172.6550
G01 X91.1233 Y172.6560
G01 X91.1327 Y172.6588
G01 X91.1413 Y172.6634
G01 X91.1489 Y172.6696
G01 X91.6101 Y173.1309
G01 X91.6164 Y173.1385
G01 X91.6210 Y173.1471
G01 X91.6238 Y173.1565
G01 X91.6248 Y173.1662
G01 X91.6248 Y173.8185
G01 X91.6238 Y173.8283
G01 X91.6210 Y173.8377
G01 X91.6164 Y173.8463
G01 X91.6101 Y173.8539
G01 X91.1489 Y174.3152
G01 X91.1413 Y174.3214
G01 X91.1327 Y174.3260
G01 X91.1233 Y174.3288
G01 X91.1135 Y174.3298
G01 X90.4612 Y174.3298
G01 X90.4515 Y174.3288
G01 X90.4421 Y174.3260
G01 X90.4335 Y174.3214
G01 X90.4259 Y174.3152
G01 X89.9630 Y173.8521
G00 Z2.0000
G00 X89.9555 Y173.8588
G01 F60.00
G01 Z0.0000
G01 F2000.00
G01 X89.9493 Y173.8506
G01 X89.9446 Y173.8415
G01 X89.9415 Y173.8317
G01 X89.9404 Y173.8259
G01 X89.9400 Y173.8200
G01 X89.9400 Y173.1662
G01 X89.9403 Y173.1604
G01 X89.9412 Y173.1545
G01 X89.9440 Y173.1447
G01 X89.9464 Y173.1393
G01 X89.9493 Y173.1341
G01 X89.9527 Y173.1293
G01 X89.9576 Y173.1238
G01 X90.4188 Y172.6626
G01 X90.4232 Y172.6586
G01 X90.4279 Y172.6551
G01 X90.4330 Y172.6521
G01 X90.4383 Y172.6496
G01 X90.4438 Y172.6476
G01 X90.4495 Y172.6462
G01 X90.4554 Y172.6453
G01 X90.4612 Y172.6450
G01 X91.1135 Y172.6450
G01 X91.1194 Y172.6453
G01 X91.1253 Y172.6462
G01 X91.1310 Y172.6476
G01 X91.1365 Y172.6496
G01 X91.1418 Y172.6521
G01 X91.1469 Y172.6551
G01 X91.1516 Y172.6586
G01 X91.1560 Y172.6626
G01 X91.6172 Y173.1238
G01 X91.6212 Y173.1282
G01 X91.6247 Y173.1329
G01 X91.6277 Y173.1380
G01 X91.6302 Y173.1433
G01 X91.6322 Y173.1488
G01 X91.6336 Y173.1545
G01 X91.6345 Y173.1604
G01 X91.6348 Y173.1662
G01 X91.6348 Y173.8185
G01 X91.6345 Y173.8244
G01 X91.6336 Y173.8303
G01 X91.6322 Y173.8360
G01 X91.6302 Y173.8415
G01 X91.6277 Y173.8468
G01 X91.6247 Y173.8519
G01 X91.6212 Y173.8566
G01 X91.6172 Y173.8610
G01 X91.1560 Y174.3222
G01 X91.1516 Y174.3262
G01 X91.1469 Y174.3297
G01 X91.1418 Y174.3327
G01 X91.1365 Y174.3352
G01 X91.1310 Y174.3372
G01 X91.1253 Y174.3386
G01 X91.1194 Y174.3395
G01 X91.1135 Y174.3398
G01 X90.4612 Y174.3398
G01 X90.4554 Y174.3395
G01 X90.4495 Y174.3386
G01 X90.4438 Y174.3372
G01 X90.4383 Y174.3352
G01 X90.4330 Y174.3327
G01 X90.4279 Y174.3297
G01 X90.4232 Y174.3262
G01 X90.4188 Y174.3222
G01 X89.9555 Y173.8588
G00 Z2.0000
G00 X89.9630 Y176.3921
G01 F60.00
G01 Z0.0000
G01 F2000.00
G01 X89.9578 Y176.3853
G01 X89.9538 Y176.3777
G01 X89.9512 Y176.3695
G01 X89.9500 Y176.3598
G01 X89.9500 Y175.7062
G01 X89.9510 Y175.6965
G01 X89.9538 Y175.6871
G01 X89.9584 Y175.6785
G01 X89.9646 Y175.6709
G01 X90.4259 Y175.2096
G01 X90.4335 Y175.2034
G01 X90.4421 Y175.1988
G01 X90.4515 Y175.1960
G01 X90.4612 Y175.1950
G01 X91.1135 Y175.1950
G01 X91.1233 Y175.1960
G01 X91.1327 Y175.1988
G01 X91.1413 Y175.2034
G01 X91.1489 Y175.2096
G01 X91.6101 Y175.6709
G01 X91.6164 Y175.6785
G01 X91.6210 Y175.6871
G01 X91.6238 Y175.6965
G01 X91.6248 Y175.7062
G01 X91.6248 Y176.3585
G01 X91.6238 Y176.3683
G01 X91.6210 Y176.3777
G01 X91.6164 Y176.3863
G01 X91.6101 Y176.3939
G01 X91.1489 Y176.8552
G01 X91.1413 Y176.8614
G01 X91.1327 Y176.8660
G01 X91.1233 Y176.8688
G01 X91.1135 Y176.8698
G01 X90.4612 Y176.8698
G01 X90.4515 Y176.8688
G01 X90.4421 Y176.8660
G01 X90.4335 Y176.8614
G01 X90.4259 Y176.8552
G01 X89.9630 Y176.3921
G00 Z2.0000
G00 X89.9555 Y176.3988
G01 F60.00
G01 Z0.0000
G01 F2000.00
G01 X89.9493 Y176.3906
G01 X89.9446 Y176.3815
G01 X89.9415 Y176.3717
G01 X89.9404 Y176.3659
G01 X89.9400 Y176.3600
G01 X89.9400 Y175.7062
G01 X89.9403 Y175.7004
G01 X89.9412 Y175.6945
G01 X89.9440 Y175.6847
G01 X89.9464 Y175.6793
G01 X89.9493 Y175.6741
G01 X89.9527 Y175.6693
G01 X89.9576 Y175.6638
G01 X90.4188 Y175.2026
G01 X90.4232 Y175.1986
G01 X90.4279 Y175.1951
G01 X90.4330 Y175.1921
G01 X90.4383 Y175.1896
G01 X90.4438 Y175.1876
G01 X90.4495 Y175.1862
G01 X90.4554 Y175.1853
G01 X90.4612 Y175.1850
G01 X91.1135 Y175.1850
G01 X91.1194 Y175.1853
G01 X91.1253 Y175.1862
G01 X91.1310 Y175.1876
G01 X91.1365 Y175.1896
G01 X91.1418 Y175.1921
G01 X91.1469 Y175.1951
G01 X91.1516 Y175.1986
G01 X91.1560 Y175.2026
G01 X91.6172 Y175.6638
G01 X91.6212 Y175.6682
G01 X91.6247 Y175.6729
G01 X91.6277 Y175.6780
G01 X91.6302 Y175.6833
G01 X91.6322 Y175.6888
G01 X91.6336 Y175.6945
G01 X91.6345 Y175.7004
G01 X91.6348 Y175.7062
G01 X91.6348 Y176.3585
G01 X91.6345 Y176.3644
G01 X91.6336 Y176.3703
G01 X91.6322 Y176.3760
G01 X91.6302 Y176.3815
G01 X91.6277 Y176.3868
G01 X91.6247 Y176.3919
G01 X91.6212 Y176.3966
G01 X91.6172 Y176.4010
G01 X91.1560 Y176.8622
G01 X91.1516 Y176.8662
G01 X91.1469 Y176.8697
G01 X91.1418 Y176.8727
G01 X91.1365 Y176.8752
G01 X91.1310 Y176.8772
G01 X91.1253 Y176.8786
G01 X91.1194 Y176.8795
G01 X91.1135 Y176.8798
G01 X90.4612 Y176.8798
G01 X90.4554 Y176.8795
G01 X90.4495 Y176.8786
G01 X90.4438 Y176.8772
G01 X90.4383 Y176.8752
G01 X90.4330 Y176.8727
G01 X90.4279 Y176.8697
G01 X90.4232 Y176.8662
G01 X90.4188 Y176.8622
G01 X89.9555 Y176.3988
G00 Z2.0000
G00 X92.4955 Y176.3988
G01 F60.00
G01 Z0.0000
G01 F2000.00
G01 X92.4893 Y176.3906
G01 X92.4846 Y176.3815
G01 X92.4815 Y176.3717
G01 X92.4804 Y176.3659
G01 X92.4800 Y176.3600
G01 X92.4800 Y175.7062
G01 X92.4803 Y175.7004
G01 X92.4812 Y175.6945
G01 X92.4840 Y175.6847
G01 X92.4864 Y175.6793
G01 X92.4893 Y175.6741
G01 X92.4927 Y175.6693
G01 X92.4976 Y175.6638
G01 X92.9588 Y175.2026
G01 X92.9632 Y175.1986
G01 X92.9679 Y175.1951
G01 X92.9730 Y175.1921
G01 X92.9783 Y175.1896
G01 X92.9838 Y175.1876
G01 X92.9895 Y175.1862
G01 X92.9954 Y175.1853
G01 X93.0012 Y175.1850
G01 X93.6535 Y175.1850
G01 X93.6594 Y175.1853
G01 X93.6653 Y175.1862
G01 X93.6710 Y175.1876
G01 X93.6765 Y175.1896
G01 X93.6818 Y175.1921
G01 X93.6869 Y175.1951
G01 X93.6916 Y175.1986
G01 X93.6960 Y175.2026
G01 X94.1572 Y175.6638
G01 X94.1612 Y175.6682
G01 X94.1647 Y175.6729
G01 X94.1677 Y175.6780
G01 X94.1702 Y175.6833
G01 X94.1722 Y175.6888
G01 X94.1736 Y175.6945
G01 X94.1745 Y175.7004
G01 X94.1748 Y175.7062
G01 X94.1748 Y176.3585
G01 X94.1745 Y176.3644
G01 X94.1736 Y176.3703
G01 X94.1722 Y176.3760
G01 X94.1702 Y176.3815
G01 X94.1677 Y176.3868
G01 X94.1647 Y176.3919
G01 X94.1612 Y176.3966
G01 X94.1572 Y176.4010
G01 X93.6960 Y176.8622
G01 X93.6916 Y176.8662
G01 X93.6869 Y176.8697
G01 X93.6818 Y176.8727
G01 X93.6765 Y176.8752
G01 X93.6710 Y176.8772
G01 X93.6653 Y176.8786
G01 X93.6594 Y176.8795
G01 X93.6535 Y176.8798
G01 X93.0012 Y176.8798
G01 X92.9954 Y176.8795
G01 X92.9895 Y176.8786
G01 X92.9838 Y176.8772
G01 X92.9783 Y176.8752
G01 X92.9730 Y176.8727
G01 X92.9679 Y176.8697
G01 X92.9632 Y176.8662
G01 X92.9588 Y176.8622
G01 X92.4955 Y176.3988
G00 Z2.0000
G00 X92.5030 Y176.3921
G01 F60.00
G01 Z0.0000
G01 F2000.00
G01 X92.4978 Y176.3853
G01 X92.4938 Y176.3777
G01 X92.4912 Y176.3695
G01 X92.4900 Y176.3598
G01 X92.4900 Y175.7062
G01 X92.4910 Y175.6965
G01 X92.4938 Y175.6871
G01 X92.4984 Y175.6785
G01 X92.5046 Y175.6709
G01 X92.9659 Y175.2096
G01 X92.9735 Y175.2034
G01 X92.9821 Y175.1988
G01 X92.9915 Y175.1960
G01 X93.0012 Y175.1950
G01 X93.6535 Y175.1950
G01 X93.6633 Y175.1960
G01 X93.6727 Y175.1988
G01 X93.6813 Y175.2034
G01 X93.6889 Y175.2096
G01 X94.1501 Y175.6709
G01 X94.1564 Y175.6785
G01 X94.1610 Y175.6871
G01 X94.1638 Y175.6965
G01 X94.1648 Y175.7062
G01 X94.1648 Y176.3585
G01 X94.1638 Y176.3683
G01 X94.1610 Y176.3777
G01 X94.1564 Y176.3863
G01 X94.1501 Y176.3939
G01 X93.6889 Y176.8552
G01 X93.6813 Y176.8614
G01 X93.6727 Y176.8660
G01 X93.6633 Y176.8688
G01 X93.6535 Y176.8698
G01 X93.0012 Y176.8698
G01 X92.9915 Y176.8688
G01 X92.9821 Y176.8660
G01 X92.9735 Y176.8614
G01 X92.9659 Y176.8552
G01 X92.5030 Y176.3921
G00 Z2.0000
G00 X92.4955 Y173.8588
G01 F60.00
G01 Z0.0000
G01 F2000.00
G01 X92.4893 Y173.8506
G01 X92.4846 Y173.8415
G01 X92.4815 Y173.8317
G01 X92.4804 Y173.8259
G01 X92.4800 Y173.8200
G01 X92.4800 Y173.1662
G01 X92.4803 Y173.1604
G01 X92.4812 Y173.1545
G01 X92.4840 Y173.1447
G01 X92.4864 Y173.1393
G01 X92.4893 Y173.1341
G01 X92.4927 Y173.1293
G01 X92.4976 Y173.1238
G01 X92.9588 Y172.6626
G01 X92.9632 Y172.6586
G01 X92.9679 Y172.6551
G01 X92.9730 Y172.6521
G01 X92.9783 Y172.6496
G01 X92.9838 Y172.6476
G01 X92.9895 Y172.6462
G01 X92.9954 Y172.6453
G01 X93.0012 Y172.6450
G01 X93.6535 Y172.6450
G01 X93.6594 Y172.6453
G01 X93.6653 Y172.6462
G01 X93.6710 Y172.6476
G01 X93.6765 Y172.6496
G01 X93.6818 Y172.6521
G01 X93.6869 Y172.6551
G01 X93.6916 Y172.6586
G01 X93.6960 Y172.6626
G01 X94.1572 Y173.1238
G01 X94.1612 Y173.1282
G01 X94.1647 Y173.1329
G01 X94.1677 Y173.1380
G01 X94.1702 Y173.1433
G01 X94.1722 Y173.1488
G01 X94.1736 Y173.1545
G01 X94.1745 Y173.1604
G01 X94.1748 Y173.1662
G01 X94.1748 Y173.8185
G01 X94.1745 Y173.8244
G01 X94.1736 Y173.8303
G01 X94.1722 Y173.8360
G01 X94.1702 Y173.8415
G01 X94.1677 Y173.8468
G01 X94.1647 Y173.8519
G01 X94.1612 Y173.8566
G01 X94.1572 Y173.8610
G01 X93.6960 Y174.3222
G01 X93.6916 Y174.3262
G01 X93.6869 Y174.3297
G01 X93.6818 Y174.3327
G01 X93.6765 Y174.3352
G01 X93.6710 Y174.3372
G01 X93.6653 Y174.3386
G01 X93.6594 Y174.3395
G01 X93.6535 Y174.3398
G01 X93.0012 Y174.3398
G01 X92.9954 Y174.3395
G01 X92.9895 Y174.3386
G01 X92.9838 Y174.3372
G01 X92.9783 Y174.3352
G01 X92.9730 Y174.3327
G01 X92.9679 Y174.3297
G01 X92.9632 Y174.3262
G01 X92.9588 Y174.3222
G01 X92.4955 Y173.8588
G00 Z2.0000
G00 X92.5030 Y173.8521
G01 F60.00
G01 Z0.0000
G01 F2000.00
G01 X92.4978 Y173.8453
G01 X92.4938 Y173.8377
G01 X92.4912 Y173.8295
G01 X92.4900 Y173.8198
G01 X92.4900 Y173.1662
G01 X92.4910 Y173.1565
G01 X92.4938 Y173.1471
G01 X92.4984 Y173.1385
G01 X92.5046 Y173.1309
G01 X92.9659 Y172.6696
G01 X92.9735 Y172.6634
G01 X92.9821 Y172.6588
G01 X92.9915 Y172.6560
G01 X93.0012 Y172.6550
G01 X93.6535 Y172.6550
G01 X93.6633 Y172.6560
G01 X93.6727 Y172.6588
G01 X93.6813 Y172.6634
G01 X93.6889 Y172.6696
G01 X94.1501 Y173.1309
G01 X94.1564 Y173.1385
G01 X94.1610 Y173.1471
G01 X94.1638 Y173.1565
G01 X94.1648 Y173.1662
G01 X94.1648 Y173.8185
G01 X94.1638 Y173.8283
G01 X94.1610 Y173.8377
G01 X94.1564 Y173.8463
G01 X94.1501 Y173.8539
G01 X93.6889 Y174.3152
G01 X93.6813 Y174.3214
G01 X93.6727 Y174.3260
G01 X93.6633 Y174.3288
G01 X93.6535 Y174.3298
G01 X93.0012 Y174.3298
G01 X92.9915 Y174.3288
G01 X92.9821 Y174.3260
G01 X92.9735 Y174.3214
G01 X92.9659 Y174.3152
G01 X92.5030 Y173.8521
G00 Z2.0000
G00 X92.4955 Y171.3188
G01 F60.00
G01 Z0.0000
G01 F2000.00
G01 X92.4893 Y171.3106
G01 X92.4846 Y171.3015
G01 X92.4815 Y171.2917
G01 X92.4804 Y171.2859
G01 X92.4800 Y171.2800
G01 X92.4800 Y170.6262
G01 X92.4803 Y170.6204
G01 X92.4812 Y170.6145
G01 X92.4840 Y170.6047
G01 X92.4864 Y170.5993
G01 X92.4893 Y170.5941
G01 X92.4927 Y170.5893
G01 X92.4976 Y170.5838
G01 X92.9588 Y170.1226
G01 X92.9632 Y170.1186
G01 X92.9679 Y170.1151
G01 X92.9730 Y170.1121
G01 X92.9783 Y170.1096
G01 X92.9838 Y170.1076
G01 X92.9895 Y170.1062
G01 X92.9954 Y170.1053
G01 X93.0012 Y170.1050
G01 X93.6535 Y170.1050
G01 X93.6594 Y170.1053
G01 X93.6653 Y170.1062
G01 X93.6710 Y170.1076
G01 X93.6765 Y170.1096
G01 X93.6818 Y170.1121
G01 X93.6869 Y170.1151
G01 X93.6916 Y170.1186
G01 X93.6960 Y170.1226
G01 X94.1572 Y170.5838
G01 X94.1612 Y170.5882
G01 X94.1647 Y170.5929
G01 X94.1677 Y170.5980
G01 X94.1702 Y170.6033
G01 X94.1722 Y170.6088
G01 X94.1736 Y170.6145
G01 X94.1745 Y170.6204
G01 X94.1748 Y170.6262
G01 X94.1748 Y171.2785
G01 X94.1745 Y171.2844
G01 X94.1736 Y171.2903
G01 X94.1722 Y171.2960
G01 X94.1702 Y171.3015
G01 X94.1677 Y171.3068
G01 X94.1647 Y171.3119
G01 X94.1612 Y171.3166
G01 X94.1572 Y171.3210
G01 X93.6960 Y171.7822
G01 X93.6916 Y171.7862
G01 X93.6869 Y171.7897
G01 X93.6818 Y171.7927
G01 X93.6765 Y171.7952
G01 X93.6710 Y171.7972
G01 X93.6653 Y171.7986
G01 X93.6594 Y171.7995
G01 X93.6535 Y171.7998
G01 X93.0012 Y171.7998
G01 X92.9954 Y171.7995
G01 X92.9895 Y171.7986
G01 X92.9838 Y171.7972
G01 X92.9783 Y171.7952
G01 X92.9730 Y171.7927
G01 X92.9679 Y171.7897
G01 X92.9632 Y171.7862
G01 X92.9588 Y171.7822
G01 X92.4955 Y171.3188
G00 Z2.0000
G00 X92.5030 Y171.3121
G01 F60.00
G01 Z0.0000
G01 F2000.00
G01 X92.4978 Y171.3053
G01 X92.4938 Y171.2977
G01 X92.4912 Y171.2895
G01 X92.4900 Y171.2798
G01 X92.4900 Y170.6262
G01 X92.4910 Y170.6165
G01 X92.4938 Y170.6071
G01 X92.4984 Y170.5985
G01 X92.5046 Y170.5909
G01 X92.9659 Y170.1296
G01 X92.9735 Y170.1234
G01 X92.9821 Y170.1188
G01 X92.9915 Y170.1160
G01 X93.0012 Y170.1150
G01 X93.6535 Y170.1150
G01 X93.6633 Y170.1160
G01 X93.6727 Y170.1188
G01 X93.6813 Y170.1234
G01 X93.6889 Y170.1296
G01 X94.1501 Y170.5909
G01 X94.1564 Y170.5985
G01 X94.1610 Y170.6071
G01 X94.1638 Y170.6165
G01 X94.1648 Y170.6262
G01 X94.1648 Y171.2785
G01 X94.1638 Y171.2883
G01 X94.1610 Y171.2977
G01 X94.1564 Y171.3063
G01 X94.1501 Y171.3139
G01 X93.6889 Y171.7752
G01 X93.6813 Y171.7814
G01 X93.6727 Y171.7860
G01 X93.6633 Y171.7888
G01 X93.6535 Y171.7898
G01 X93.0012 Y171.7898
G01 X92.9915 Y171.7888
G01 X92.9821 Y171.7860
G01 X92.9735 Y171.7814
G01 X92.9659 Y171.7752
G01 X92.5030 Y171.3121
G00 Z2.0000
G00 X92.4955 Y168.7788
G01 F60.00
G01 Z0.0000
G01 F2000.00
G01 X92.4893 Y168.7706
G01 X92.4846 Y168.7615
G01 X92.4815 Y168.7517
G01 X92.4804 Y168.7459
G01 X92.4800 Y168.7400
G01 X92.4800 Y168.0862
G01 X92.4803 Y168.0804
G01 X92.4812 Y168.0745
G01 X92.4840 Y168.0647
G01 X92.4864 Y168.0593
G01 X92.4893 Y168.0541
G01 X92.4927 Y168.0493
G01 X92.4976 Y168.0438
G01 X92.9588 Y167.5826
G01 X92.9632 Y167.5786
G01 X92.9679 Y167.5751
G01 X92.9730 Y167.5721
G01 X92.9783 Y167.5696
G01 X92.9838 Y167.5676
G01 X92.9895 Y167.5662
G01 X92.9954 Y167.5653
G01 X93.0012 Y167.5650
G01 X93.6535 Y167.5650
G01 X93.6594 Y167.5653
G01 X93.6653 Y167.5662
G01 X93.6710 Y167.5676
G01 X93.6765 Y167.5696
G01 X93.6818 Y167.5721
G01 X93.6869 Y167.5751
G01 X93.6916 Y167.5786
G01 X93.6960 Y167.5826
G01 X94.1572 Y168.0438
G01 X94.1612 Y168.0482
G01 X94.1647 Y168.0529
G01 X94.1677 Y168.0580
G01 X94.1702 Y168.0633
G01 X94.1722 Y168.0688
G01 X94.1736 Y168.0745
G01 X94.1745 Y168.0804
G01 X94.1748 Y168.0862
G01 X94.1748 Y168.7385
G01 X94.1745 Y168.7444
G01 X94.1736 Y168.7503
G01 X94.1722 Y168.7560
G01 X94.1702 Y168.7615
G01 X94.1677 Y168.7668
G01 X94.1647 Y168.7719
G01 X94.1612 Y168.7766
G01 X94.1572 Y168.7810
G01 X93.6960 Y169.2422
G01 X93.6916 Y169.2462
G01 X93.6869 Y169.2497
G01 X93.6818 Y169.2527
G01 X93.6765 Y169.2552
G01 X93.6710 Y169.2572
G01 X93.6653 Y169.2586
G01 X93.6594 Y169.2595
G01 X93.6535 Y169.2598
G01 X93.0012 Y169.2598
G01 X92.9954 Y169.2595
G01 X92.9895 Y169.2586
G01 X92.9838 Y169.2572
G01 X92.9783 Y169.2552
G01 X92.9730 Y169.2527
G01 X92.9679 Y169.2497
G01 X92.9632 Y169.2462
G01 X92.9588 Y169.2422
G01 X92.4955 Y168.7788
G00 Z2.0000
G00 X92.5030 Y168.7721
G01 F60.00
G01 Z0.0000
G01 F2000.00
G01 X92.4978 Y168.7653
G01 X92.4938 Y168.7577
G01 X92.4912 Y168.7495
G01 X92.4900 Y168.7398
G01 X92.4900 Y168.0862
G01 X92.4910 Y168.0765
G01 X92.4938 Y168.0671
G01 X92.4984 Y168.0585
G01 X92.5046 Y168.0509
G01 X92.9659 Y167.5896
G01 X92.9735 Y167.5834
G01 X92.9821 Y167.5788
G01 X92.9915 Y167.5760
G01 X93.0012 Y167.5750
G01 X93.6535 Y167.5750
G01 X93.6633 Y167.5760
G01 X93.6727 Y167.5788
G01 X93.6813 Y167.5834
G01 X93.6889 Y167.5896
G01 X94.1501 Y168.0509
G01 X94.1564 Y168.0585
G01 X94.1610 Y168.0671
G01 X94.1638 Y168.0765
G01 X94.1648 Y168.0862
G01 X94.1648 Y168.7385
G01 X94.1638 Y168.7483
G01 X94.1610 Y168.7577
G01 X94.1564 Y168.7663
G01 X94.1501 Y168.7739
G01 X93.6889 Y169.2352
G01 X93.6813 Y169.2414
G01 X93.6727 Y169.2460
G01 X93.6633 Y169.2488
G01 X93.6535 Y169.2498
G01 X93.0012 Y169.2498
G01 X92.9915 Y169.2488
G01 X92.9821 Y169.2460
G01 X92.9735 Y169.2414
G01 X92.9659 Y169.2352
G01 X92.5030 Y168.7721
G00 Z2.0000
G00 X92.4955 Y166.2388
G01 F60.00
G01 Z0.0000
G01 F2000.00
G01 X92.4893 Y166.2306
G01 X92.4846 Y166.2215
G01 X92.4815 Y166.2117
G01 X92.4804 Y166.2059
G01 X92.4800 Y166.2000
G01 X92.4800 Y165.5462
G01 X92.4803 Y165.5404
G01 X92.4812 Y165.5345
G01 X92.4840 Y165.5247
G01 X92.4864 Y165.5193
G01 X92.4893 Y165.5141
G01 X92.4927 Y165.5093
G01 X92.4976 Y165.5038
G01 X92.9588 Y165.0426
G01 X92.9632 Y165.0386
G01 X92.9679 Y165.0351
G01 X92.9730 Y165.0321
G01 X92.9783 Y165.0296
G01 X92.9838 Y165.0276
G01 X92.9895 Y165.0262
G01 X92.9954 Y165.0253
G01 X93.0012 Y165.0250
G01 X93.6535 Y165.0250
G01 X93.6594 Y165.0253
G01 X93.6653 Y165.0262
G01 X93.6710 Y165.0276
G01 X93.6765 Y165.0296
G01 X93.6818 Y165.0321
G01 X93.6869 Y165.0351
G01 X93.6916 Y165.0386
G01 X93.6960 Y165.0426
G01 X94.1572 Y165.5038
G01 X94.1612 Y165.5082
G01 X94.1647 Y165.5129
G01 X94.1677 Y165.5180
G01 X94.1702 Y165.5233
G01 X94.1722 Y165.5288
G01 X94.1736 Y165.5345
G01 X94.1745 Y165.5404
G01 X94.1748 Y165.5462
G01 X94.1748 Y166.1985
G01 X94.1745 Y166.2044
G01 X94.1736 Y166.2103
G01 X94.1722 Y166.2160
G01 X94.1702 Y166.2215
G01 X94.1677 Y166.2268
G01 X94.1647 Y166.2319
G01 X94.1612 Y166.2366
G01 X94.1572 Y166.2410
G01 X93.6960 Y166.7022
G01 X93.6916 Y166.7062
G01 X93.6869 Y166.7097
G01 X93.6818 Y166.7127
G01 X93.6765 Y166.7152
G01 X93.6710 Y166.7172
G01 X93.6653 Y166.7186
G01 X93.6594 Y166.7195
G01 X93.6535 Y166.7198
G01 X93.0012 Y166.7198
G01 X92.9954 Y166.7195
G01 X92.9895 Y166.7186
G01 X92.9838 Y166.7172
G01 X92.9783 Y166.7152
G01 X92.9730 Y166.7127
G01 X92.9679 Y166.7097
G01 X92.9632 Y166.7062
G01 X92.9588 Y166.7022
G01 X92.4955 Y166.2388
G00 Z2.0000
G00 X92.5030 Y166.2321
G01 F60.00
G01 Z0.0000
G01 F2000.00
G01 X92.4978 Y166.2253
G01 X92.4938 Y166.2177
G01 X92.4912 Y166.2095
G01 X92.4900 Y166.1998
G01 X92.4900 Y165.5462
G01 X92.4910 Y165.5365
G01 X92.4938 Y165.5271
G01 X92.4984 Y165.5185
G01 X92.5046 Y165.5109
G01 X92.9659 Y165.0496
G01 X92.9735 Y165.0434
G01 X92.9821 Y165.0388
G01 X92.9915 Y165.0360
G01 X93.0012 Y165.0350
G01 X93.6535 Y165.0350
G01 X93.6633 Y165.0360
G01 X93.6727 Y165.0388
G01 X93.6813 Y165.0434
G01 X93.6889 Y165.0496
G01 X94.1501 Y165.5109
G01 X94.1564 Y165.5185
G01 X94.1610 Y165.5271
G01 X94.1638 Y165.5365
G01 X94.1648 Y165.5462
G01 X94.1648 Y166.1985
G01 X94.1638 Y166.2083
G01 X94.1610 Y166.2177
G01 X94.1564 Y166.2263
G01 X94.1501 Y166.2339
G01 X93.6889 Y166.6952
G01 X93.6813 Y166.7014
G01 X93.6727 Y166.7060
G01 X93.6633 Y166.7088
G01 X93.6535 Y166.7098
G01 X93.0012 Y166.7098
G01 X92.9915 Y166.7088
G01 X92.9821 Y166.7060
G01 X92.9735 Y166.7014
G01 X92.9659 Y166.6952
G01 X92.5030 Y166.2321
G00 Z2.0000
G00 X92.4955 Y163.6988
G01 F60.00
G01 Z0.0000
G01 F2000.00
G01 X92.4893 Y163.6906
G01 X92.4846 Y163.6815
G01 X92.4815 Y163.6717
G01 X92.4804 Y163.6659
G01 X92.4800 Y163.6600
G01 X92.4800 Y163.0062
G01 X92.4803 Y163.0004
G01 X92.4812 Y162.9945
G01 X92.4840 Y162.9847
G01 X92.4864 Y162.9793
G01 X92.4893 Y162.9741
G01 X92.4927 Y162.9693
G01 X92.4976 Y162.9638
G01 X92.9588 Y162.5026
G01 X92.9632 Y162.4986
G01 X92.9679 Y162.4951
G01 X92.9730 Y162.4921
G01 X92.9783 Y162.4896
G01 X92.9838 Y162.4876
G01 X92.9895 Y162.4862
G01 X92.9954 Y162.4853
G01 X93.0012 Y162.4850
G01 X93.6535 Y162.4850
G01 X93.6594 Y162.4853
G01 X93.6653 Y162.4862
G01 X93.6710 Y162.4876
G01 X93.6765 Y162.4896
G01 X93.6818 Y162.4921
G01 X93.6869 Y162.4951
G01 X93.6916 Y162.4986
G01 X93.6960 Y162.5026
G01 X94.1572 Y162.9638
G01 X94.1612 Y162.9682
G01 X94.1647 Y162.9729
G01 X94.1677 Y162.9780
G01 X94.1702 Y162.9833
G01 X94.1722 Y162.9888
G01 X94.1736 Y162.9945
G01 X94.1745 Y163.0004
G01 X94.1748 Y163.0062
G01 X94.1748 Y163.6585
G01 X94.1745 Y163.6644
G01 X94.1736 Y163.6703
G01 X94.1722 Y163.6760
G01 X94.1702 Y163.6815
G01 X94.1677 Y163.6868
G01 X94.1647 Y163.6919
G01 X94.1612 Y163.6966
G01 X94.1572 Y163.7010
G01 X93.6960 Y164.1622
G01 X93.6916 Y164.1662
G01 X93.6869 Y164.1697
G01 X93.6818 Y164.1727
G01 X93.6765 Y164.1752
G01 X93.6710 Y164.1772
G01 X93.6653 Y164.1786
G01 X93.6594 Y164.1795
G01 X93.6535 Y164.1798
G01 X93.0012 Y164.1798
G01 X92.9954 Y164.1795
G01 X92.9895 Y164.1786
G01 X92.9838 Y164.1772
G01 X92.9783 Y164.1752
G01 X92.9730 Y164.1727
G01 X92.9679 Y164.1697
G01 X92.9632 Y164.1662
G01 X92.9588 Y164.1622
G01 X92.4955 Y163.6988
G00 Z2.0000
G00 X92.5030 Y163.6921
G01 F60.00
G01 Z0.0000
G01 F2000.00
G01 X92.4978 Y163.6853
G01 X92.4938 Y163.6777
G01 X92.4912 Y163.6695
G01 X92.4900 Y163.6598
G01 X92.4900 Y163.0062
G01 X92.4910 Y162.9965
G01 X92.4938 Y162.9871
G01 X92.4984 Y162.9785
G01 X92.5046 Y162.9709
G01 X92.9659 Y162.5096
G01 X92.9735 Y162.5034
G01 X92.9821 Y162.4988
G01 X92.9915 Y162.4960
G01 X93.0012 Y162.4950
G01 X93.6535 Y162.4950
G01 X93.6633 Y162.4960
G01 X93.6727 Y162.4988
G01 X93.6813 Y162.5034
G01 X93.6889 Y162.5096
G01 X94.1501 Y162.9709
G01 X94.1564 Y162.9785
G01 X94.1610 Y162.9871
G01 X94.1638 Y162.9965
G01 X94.1648 Y163.0062
G01 X94.1648 Y163.6585
G01 X94.1638 Y163.6683
G01 X94.1610 Y163.6777
G01 X94.1564 Y163.6863
G01 X94.1501 Y163.6939
G01 X93.6889 Y164.1552
G01 X93.6813 Y164.1614
G01 X93.6727 Y164.1660
G01 X93.6633 Y164.1688
G01 X93.6535 Y164.1698
G01 X93.0012 Y164.1698
G01 X92.9915 Y164.1688
G01 X92.9821 Y164.1660
G01 X92.9735 Y164.1614
G01 X92.9659 Y164.1552
G01 X92.5030 Y163.6921
G00 Z2.0000
G00 X92.4955 Y161.1588
G01 F60.00
G01 Z0.0000
G01 F2000.00
G01 X92.4893 Y161.1506
G01 X92.4846 Y161.1415
G01 X92.4815 Y161.1317
G01 X92.4804 Y161.1259
G01 X92.4800 Y161.1200
G01 X92.4800 Y160.4662
G01 X92.4803 Y160.4604
G01 X92.4812 Y160.4545
G01 X92.4840 Y160.4447
G01 X92.4864 Y160.4393
G01 X92.4893 Y160.4341
G01 X92.4927 Y160.4293
G01 X92.4976 Y160.4238
G01 X92.9588 Y159.9626
G01 X92.9632 Y159.9586
G01 X92.9679 Y159.9551
G01 X92.9730 Y159.9521
G01 X92.9783 Y159.9496
G01 X92.9838 Y159.9476
G01 X92.9895 Y159.9462
G01 X92.9954 Y159.9453
G01 X93.0012 Y159.9450
G01 X93.6535 Y159.9450
G01 X93.6594 Y159.9453
G01 X93.6653 Y159.9462
G01 X93.6710 Y159.9476
G01 X93.6765 Y159.9496
G01 X93.6818 Y159.9521
G01 X93.6869 Y159.9551
G01 X93.6916 Y159.9586
G01 X93.6960 Y159.9626
G01 X94.1572 Y160.4238
G01 X94.1612 Y160.4282
G01 X94.1647 Y160.4329
G01 X94.1677 Y160.4380
G01 X94.1702 Y160.4433
G01 X94.1722 Y160.4488
G01 X94.1736 Y160.4545
G01 X94.1745 Y160.4604
G01 X94.1748 Y160.4662
G01 X94.1748 Y161.1185
G01 X94.1745 Y161.1244
G01 X94.1736 Y161.1303
G01 X94.1722 Y161.1360
G01 X94.1702 Y161.1415
G01 X94.1677 Y161.1468
G01 X94.1647 Y161.1519
G01 X94.1612 Y161.1566
G01 X94.1572 Y161.1610
G01 X93.6960 Y161.6222
G01 X93.6916 Y161.6262
G01 X93.6869 Y161.6297
G01 X93.6818 Y161.6327
G01 X93.6765 Y161.6352
G01 X93.6710 Y161.6372
G01 X93.6653 Y161.6386
G01 X93.6594 Y161.6395
G01 X93.6535 Y161.6398
G01 X93.0012 Y161.6398
G01 X92.9954 Y161.6395
G01 X92.9895 Y161.6386
G01 X92.9838 Y161.6372
G01 X92.9783 Y161.6352
G01 X92.9730 Y161.6327
G01 X92.9679 Y161.6297
G01 X92.9632 Y161.6262
G01 X92.9588 Y161.6222
G01 X92.4955 Y161.1588
G00 Z2.0000
G00 X92.5030 Y161.1521
G01 F60.00
G01 Z0.0000
G01 F2000.00
G01 X92.4978 Y161.1453
G01 X92.4938 Y161.1377
G01 X92.4912 Y161.1295
G01 X92.4900 Y161.1198
G01 X92.4900 Y160.4662
G01 X92.4910 Y160.4565
G01 X92.4938 Y160.4471
G01 X92.4984 Y160.4385
G01 X92.5046 Y160.4309
G01 X92.9659 Y159.9696
G01 X92.9735 Y159.9634
G01 X92.9821 Y159.9588
G01 X92.9915 Y159.9560
G01 X93.0012 Y159.9550
G01 X93.6535 Y159.9550
G01 X93.6633 Y159.9560
G01 X93.6727 Y159.9588
G01 X93.6813 Y159.9634
G01 X93.6889 Y159.9696
G01 X94.1501 Y160.4309
G01 X94.1564 Y160.4385
G01 X94.1610 Y160.4471
G01 X94.1638 Y160.4565
G01 X94.1648 Y160.4662
G01 X94.1648 Y161.1185
G01 X94.1638 Y161.1283
G01 X94.1610 Y161.1377
G01 X94.1564 Y161.1463
G01 X94.1501 Y161.1539
G01 X93.6889 Y161.6152
G01 X93.6813 Y161.6214
G01 X93.6727 Y161.6260
G01 X93.6633 Y161.6288
G01 X93.6535 Y161.6298
G01 X93.0012 Y161.6298
G01 X92.9915 Y161.6288
G01 X92.9821 Y161.6260
G01 X92.9735 Y161.6214
G01 X92.9659 Y161.6152
G01 X92.5030 Y161.1521
G00 Z2.0000
G00 X92.4955 Y158.6188
G01 F60.00
G01 Z0.0000
G01 F2000.00
G01 X92.4893 Y158.6106
G01 X92.4846 Y158.6015
G01 X92.4815 Y158.5917
G01 X92.4804 Y158.5859
G01 X92.4800 Y158.5800
G01 X92.4800 Y157.9262
G01 X92.4803 Y157.9204
G01 X92.4812 Y157.9145
G01 X92.4840 Y157.9047
G01 X92.4864 Y157.8993
G01 X92.4893 Y157.8941
G01 X92.4927 Y157.8893
G01 X92.4976 Y157.8838
G01 X92.9588 Y157.4226
G01 X92.9632 Y157.4186
G01 X92.9679 Y157.4151
G01 X92.9730 Y157.4121
G01 X92.9783 Y157.4096
G01 X92.9838 Y157.4076
G01 X92.9895 Y157.4062
G01 X92.9954 Y157.4053
G01 X93.0012 Y157.4050
G01 X93.6535 Y157.4050
G01 X93.6594 Y157.4053
G01 X93.6653 Y157.4062
G01 X93.6710 Y157.4076
G01 X93.6765 Y157.4096
G01 X93.6818 Y157.4121
G01 X93.6869 Y157.4151
G01 X93.6916 Y157.4186
G01 X93.6960 Y157.4226
G01 X94.1572 Y157.8838
G01 X94.1612 Y157.8882
G01 X94.1647 Y157.8929
G01 X94.1677 Y157.8980
G01 X94.1702 Y157.9033
G01 X94.1722 Y157.9088
G01 X94.1736 Y157.9145
G01 X94.1745 Y157.9204
G01 X94.1748 Y157.9262
G01 X94.1748 Y158.5785
G01 X94.1745 Y158.5844
G01 X94.1736 Y158.5903
G01 X94.1722 Y158.5960
G01 X94.1702 Y158.6015
G01 X94.1677 Y158.6068
G01 X94.1647 Y158.6119
G01 X94.1612 Y158.6166
G01 X94.1572 Y158.6210
G01 X93.6960 Y159.0822
G01 X93.6916 Y159.0862
G01 X93.6869 Y159.0897
G01 X93.6818 Y159.0927
G01 X93.6765 Y159.0952
G01 X93.6710 Y159.0972
G01 X93.6653 Y159.0986
G01 X93.6594 Y159.0995
G01 X93.6535 Y159.0998
G01 X93.0012 Y159.0998
G01 X92.9954 Y159.0995
G01 X92.9895 Y159.0986
G01 X92.9838 Y159.0972
G01 X92.9783 Y159.0952
G01 X92.9730 Y159.0927
G01 X92.9679 Y159.0897
G01 X92.9632 Y159.0862
G01 X92.9588 Y159.0822
G01 X92.4955 Y158.6188
G00 Z2.0000
G00 X92.5030 Y158.6121
G01 F60.00
G01 Z0.0000
G01 F2000.00
G01 X92.4978 Y158.6053
G01 X92.4938 Y158.5977
G01 X92.4912 Y158.5895
G01 X92.4900 Y158.5798
G01 X92.4900 Y157.9262
G01 X92.4910 Y157.9165
G01 X92.4938 Y157.9071
G01 X92.4984 Y157.8985
G01 X92.5046 Y157.8909
G01 X92.9659 Y157.4296
G01 X92.9735 Y157.4234
G01 X92.9821 Y157.4188
G01 X92.9915 Y157.4160
G01 X93.0012 Y157.4150
G01 X93.6535 Y157.4150
G01 X93.6633 Y157.4160
G01 X93.6727 Y157.4188
G01 X93.6813 Y157.4234
G01 X93.6889 Y157.4296
G01 X94.1501 Y157.8909
G01 X94.1564 Y157.8985
G01 X94.1610 Y157.9071
G01 X94.1638 Y157.9165
G01 X94.1648 Y157.9262
G01 X94.1648 Y158.5785
G01 X94.1638 Y158.5883
G01 X94.1610 Y158.5977
G01 X94.1564 Y158.6063
G01 X94.1501 Y158.6139
G01 X93.6889 Y159.0752
G01 X93.6813 Y159.0814
G01 X93.6727 Y159.0860
G01 X93.6633 Y159.0888
G01 X93.6535 Y159.0898
G01 X93.0012 Y159.0898
G01 X92.9915 Y159.0888
G01 X92.9821 Y159.0860
G01 X92.9735 Y159.0814
G01 X92.9659 Y159.0752
G01 X92.5030 Y158.6121
G00 Z2.0000
G00 X92.4955 Y156.0788
G01 F60.00
G01 Z0.0000
G01 F2000.00
G01 X92.4893 Y156.0706
G01 X92.4846 Y156.0615
G01 X92.4815 Y156.0517
G01 X92.4804 Y156.0459
G01 X92.4800 Y156.0400
G01 X92.4800 Y155.3862
G01 X92.4803 Y155.3804
G01 X92.4812 Y155.3745
G01 X92.4840 Y155.3647
G01 X92.4864 Y155.3593
G01 X92.4893 Y155.3541
G01 X92.4927 Y155.3493
G01 X92.4976 Y155.3438
G01 X92.9588 Y154.8826
G01 X92.9632 Y154.8786
G01 X92.9679 Y154.8751
G01 X92.9730 Y154.8721
G01 X92.9783 Y154.8696
G01 X92.9838 Y154.8676
G01 X92.9895 Y154.8662
G01 X92.9954 Y154.8653
G01 X93.0012 Y154.8650
G01 X93.6535 Y154.8650
G01 X93.6594 Y154.8653
G01 X93.6653 Y154.8662
G01 X93.6710 Y154.8676
G01 X93.6765 Y154.8696
G01 X93.6818 Y154.8721
G01 X93.6869 Y154.8751
G01 X93.6916 Y154.8786
G01 X93.6960 Y154.8826
G01 X94.1572 Y155.3438
G01 X94.1612 Y155.3482
G01 X94.1647 Y155.3529
G01 X94.1677 Y155.3580
G01 X94.1702 Y155.3633
G01 X94.1722 Y155.3688
G01 X94.1736 Y155.3745
G01 X94.1745 Y155.3804
G01 X94.1748 Y155.3862
G01 X94.1748 Y156.0385
G01 X94.1745 Y156.0444
G01 X94.1736 Y156.0503
G01 X94.1722 Y156.0560
G01 X94.1702 Y156.0615
G01 X94.1677 Y156.0668
G01 X94.1647 Y156.0719
G01 X94.1612 Y156.0766
G01 X94.1572 Y156.0810
G01 X93.6960 Y156.5422
G01 X93.6916 Y156.5462
G01 X93.6869 Y156.5497
G01 X93.6818 Y156.5527
G01 X93.6765 Y156.5552
G01 X93.6710 Y156.5572
G01 X93.6653 Y156.5586
G01 X93.6594 Y156.5595
G01 X93.6535 Y156.5598
G01 X93.0012 Y156.5598
G01 X92.9954 Y156.5595
G01 X92.9895 Y156.5586
G01 X92.9838 Y156.5572
G01 X92.9783 Y156.5552
G01 X92.9730 Y156.5527
G01 X92.9679 Y156.5497
G01 X92.9632 Y156.5462
G01 X92.9588 Y156.5422
G01 X92.4955 Y156.0788
G00 Z2.0000
G00 X92.5030 Y156.0721
G01 F60.00
G01 Z0.0000
G01 F2000.00
G01 X92.4978 Y156.0653
G01 X92.4938 Y156.0577
G01 X92.4912 Y156.0495
G01 X92.4900 Y156.0398
G01 X92.4900 Y155.3862
G01 X92.4910 Y155.3765
G01 X92.4938 Y155.3671
G01 X92.4984 Y155.3585
G01 X92.5046 Y155.3509
G01 X92.9659 Y154.8896
G01 X92.9735 Y154.8834
G01 X92.9821 Y154.8788
G01 X92.9915 Y154.8760
G01 X93.0012 Y154.8750
G01 X93.6535 Y154.8750
G01 X93.6633 Y154.8760
G01 X93.6727 Y154.8788
G01 X93.6813 Y154.8834
G01 X93.6889 Y154.8896
G01 X94.1501 Y155.3509
G01 X94.1564 Y155.3585
G01 X94.1610 Y155.3671
G01 X94.1638 Y155.3765
G01 X94.1648 Y155.3862
G01 X94.1648 Y156.0385
G01 X94.1638 Y156.0483
G01 X94.1610 Y156.0577
G01 X94.1564 Y156.0663
G01 X94.1501 Y156.0739
G01 X93.6889 Y156.5352
G01 X93.6813 Y156.5414
G01 X93.6727 Y156.5460
G01 X93.6633 Y156.5488
G01 X93.6535 Y156.5498
G01 X93.0012 Y156.5498
G01 X92.9915 Y156.5488
G01 X92.9821 Y156.5460
G01 X92.9735 Y156.5414
G01 X92.9659 Y156.5352
G01 X92.5030 Y156.0721
G00 Z2.0000
G00 X92.4955 Y153.5388
G01 F60.00
G01 Z0.0000
G01 F2000.00
G01 X92.4893 Y153.5306
G01 X92.4846 Y153.5215
G01 X92.4815 Y153.5117
G01 X92.4804 Y153.5059
G01 X92.4800 Y153.5000
G01 X92.4800 Y152.8462
G01 X92.4803 Y152.8404
G01 X92.4812 Y152.8345
G01 X92.4840 Y152.8247
G01 X92.4864 Y152.8193
G01 X92.4893 Y152.8141
G01 X92.4927 Y152.8093
G01 X92.4976 Y152.8038
G01 X92.9588 Y152.3426
G01 X92.9632 Y152.3386
G01 X92.9679 Y152.3351
G01 X92.9730 Y152.3321
G01 X92.9783 Y152.3296
G01 X92.9838 Y152.3276
G01 X92.9895 Y152.3262
G01 X92.9954 Y152.3253
G01 X93.0012 Y152.3250
G01 X93.6535 Y152.3250
G01 X93.6594 Y152.3253
G01 X93.6653 Y152.3262
G01 X93.6710 Y152.3276
G01 X93.6765 Y152.3296
G01 X93.6818 Y152.3321
G01 X93.6869 Y152.3351
G01 X93.6916 Y152.3386
G01 X93.6960 Y152.3426
G01 X94.1572 Y152.8038
G01 X94.1612 Y152.8082
G01 X94.1647 Y152.8129
G01 X94.1677 Y152.8180
G01 X94.1702 Y152.8233
G01 X94.1722 Y152.8288
G01 X94.1736 Y152.8345
G01 X94.1745 Y152.8404
G01 X94.1748 Y152.8462
G01 X94.1748 Y153.4985
G01 X94.1745 Y153.5044
G01 X94.1736 Y153.5103
G01 X94.1722 Y153.5160
G01 X94.1702 Y153.5215
G01 X94.1677 Y153.5268
G01 X94.1647 Y153.5319
G01 X94.1612 Y153.5366
G01 X94.1572 Y153.5410
G01 X93.6960 Y154.0022
G01 X93.6916 Y154.0062
G01 X93.6869 Y154.0097
G01 X93.6818 Y154.0127
G01 X93.6765 Y154.0152
G01 X93.6710 Y154.0172
G01 X93.6653 Y154.0186
G01 X93.6594 Y154.0195
G01 X93.6535 Y154.0198
G01 X93.0012 Y154.0198
G01 X92.9954 Y154.0195
G01 X92.9895 Y154.0186
G01 X92.9838 Y154.0172
G01 X92.9783 Y154.0152
G01 X92.9730 Y154.0127
G01 X92.9679 Y154.0097
G01 X92.9632 Y154.0062
G01 X92.9588 Y154.0022
G01 X92.4955 Y153.5388
G00 Z2.0000
G00 X92.5030 Y153.5321
G01 F60.00
G01 Z0.0000
G01 F2000.00
G01 X92.4978 Y153.5253
G01 X92.4938 Y153.5177
G01 X92.4912 Y153.5095
G01 X92.4900 Y153.4998
G01 X92.4900 Y152.8462
G01 X92.4910 Y152.8365
G01 X92.4938 Y152.8271
G01 X92.4984 Y152.8185
G01 X92.5046 Y152.8109
G01 X92.9659 Y152.3496
G01 X92.9735 Y152.3434
G01 X92.9821 Y152.3388
G01 X92.9915 Y152.3360
G01 X93.0012 Y152.3350
G01 X93.6535 Y152.3350
G01 X93.6633 Y152.3360
G01 X93.6727 Y152.3388
G01 X93.6813 Y152.3434
G01 X93.6889 Y152.3496
G01 X94.1501 Y152.8109
G01 X94.1564 Y152.8185
G01 X94.1610 Y152.8271
G01 X94.1638 Y152.8365
G01 X94.1648 Y152.8462
G01 X94.1648 Y153.4985
G01 X94.1638 Y153.5083
G01 X94.1610 Y153.5177
G01 X94.1564 Y153.5263
G01 X94.1501 Y153.5339
G01 X93.6889 Y153.9952
G01 X93.6813 Y154.0014
G01 X93.6727 Y154.0060
G01 X93.6633 Y154.0088
G01 X93.6535 Y154.0098
G01 X93.0012 Y154.0098
G01 X92.9915 Y154.0088
G01 X92.9821 Y154.0060
G01 X92.9735 Y154.0014
G01 X92.9659 Y153.9952
G01 X92.5030 Y153.5321
G00 Z2.0000
G00 X92.4955 Y150.9988
G01 F60.00
G01 Z0.0000
G01 F2000.00
G01 X92.4893 Y150.9906
G01 X92.4846 Y150.9815
G01 X92.4815 Y150.9717
G01 X92.4804 Y150.9659
G01 X92.4800 Y150.9600
G01 X92.4800 Y150.3062
G01 X92.4803 Y150.3004
G01 X92.4812 Y150.2945
G01 X92.4840 Y150.2847
G01 X92.4864 Y150.2793
G01 X92.4893 Y150.2741
G01 X92.4927 Y150.2693
G01 X92.4976 Y150.2638
G01 X92.9588 Y149.8026
G01 X92.9632 Y149.7986
G01 X92.9679 Y149.7951
G01 X92.9730 Y149.7921
G01 X92.9783 Y149.7896
G01 X92.9838 Y149.7876
G01 X92.9895 Y149.7862
G01 X92.9954 Y149.7853
G01 X93.0012 Y149.7850
G01 X93.6535 Y149.7850
G01 X93.6594 Y149.7853
G01 X93.6653 Y149.7862
G01 X93.6710 Y149.7876
G01 X93.6765 Y149.7896
G01 X93.6818 Y149.7921
G01 X93.6869 Y149.7951
G01 X93.6916 Y149.7986
G01 X93.6960 Y149.8026
G01 X94.1572 Y150.2638
G01 X94.1612 Y150.2682
G01 X94.1647 Y150.2729
G01 X94.1677 Y150.2780
G01 X94.1702 Y150.2833
G01 X94.1722 Y150.2888
G01 X94.1736 Y150.2945
G01 X94.1745 Y150.3004
G01 X94.1748 Y150.3062
G01 X94.1748 Y150.9585
G01 X94.1745 Y150.9644
G01 X94.1736 Y150.9703
G01 X94.1722 Y150.9760
G01 X94.1702 Y150.9815
G01 X94.1677 Y150.9868
G01 X94.1647 Y150.9919
G01 X94.1612 Y150.9966
G01 X94.1572 Y151.0010
G01 X93.6960 Y151.4622
G01 X93.6916 Y151.4662
G01 X93.6869 Y151.4697
G01 X93.6818 Y151.4727
G01 X93.6765 Y151.4752
G01 X93.6710 Y151.4772
G01 X93.6653 Y151.4786
G01 X93.6594 Y151.4795
G01 X93.6535 Y151.4798
G01 X93.0012 Y151.4798
G01 X92.9954 Y151.4795
G01 X92.9895 Y151.4786
G01 X92.9838 Y151.4772
G01 X92.9783 Y151.4752
G01 X92.9730 Y151.4727
G01 X92.9679 Y151.4697
G01 X92.9632 Y151.4662
G01 X92.9588 Y151.4622
G01 X92.4955 Y150.9988
G00 Z2.0000
G00 X92.5030 Y150.9921
G01 F60.00
G01 Z0.0000
G01 F2000.00
G01 X92.4978 Y150.9853
G01 X92.4938 Y150.9777
G01 X92.4912 Y150.9695
G01 X92.4900 Y150.9598
G01 X92.4900 Y150.3062
G01 X92.4910 Y150.2965
G01 X92.4938 Y150.2871
G01 X92.4984 Y150.2785
G01 X92.5046 Y150.2709
G01 X92.9659 Y149.8096
G01 X92.9735 Y149.8034
G01 X92.9821 Y149.7988
G01 X92.9915 Y149.7960
G01 X93.0012 Y149.7950
G01 X93.6535 Y149.7950
G01 X93.6633 Y149.7960
G01 X93.6727 Y149.7988
G01 X93.6813 Y149.8034
G01 X93.6889 Y149.8096
G01 X94.1501 Y150.2709
G01 X94.1564 Y150.2785
G01 X94.1610 Y150.2871
G01 X94.1638 Y150.2965
G01 X94.1648 Y150.3062
G01 X94.1648 Y150.9585
G01 X94.1638 Y150.9683
G01 X94.1610 Y150.9777
G01 X94.1564 Y150.9863
G01 X94.1501 Y150.9939
G01 X93.6889 Y151.4552
G01 X93.6813 Y151.4614
G01 X93.6727 Y151.4660
G01 X93.6633 Y151.4688
G01 X93.6535 Y151.4698
G01 X93.0012 Y151.4698
G01 X92.9915 Y151.4688
G01 X92.9821 Y151.4660
G01 X92.9735 Y151.4614
G01 X92.9659 Y151.4552
G01 X92.5030 Y150.9921
G00 Z2.0000
G00 X92.4955 Y148.4588
G01 F60.00
G01 Z0.0000
G01 F2000.00
G01 X92.4893 Y148.4506
G01 X92.4846 Y148.4415
G01 X92.4815 Y148.4317
G01 X92.4804 Y148.4259
G01 X92.4800 Y148.4200
G01 X92.4800 Y147.7662
G01 X92.4803 Y147.7604
G01 X92.4812 Y147.7545
G01 X92.4840 Y147.7447
G01 X92.4864 Y147.7393
G01 X92.4893 Y147.7341
G01 X92.4927 Y147.7293
G01 X92.4976 Y147.7238
G01 X92.9588 Y147.2626
G01 X92.9632 Y147.2586
G01 X92.9679 Y147.2551
G01 X92.9730 Y147.2521
G01 X92.9783 Y147.2496
G01 X92.9838 Y147.2476
G01 X92.9895 Y147.2462
G01 X92.9954 Y147.2453
G01 X93.0012 Y147.2450
G01 X93.6535 Y147.2450
G01 X93.6594 Y147.2453
G01 X93.6653 Y147.2462
G01 X93.6710 Y147.2476
G01 X93.6765 Y147.2496
G01 X93.6818 Y147.2521
G01 X93.6869 Y147.2551
G01 X93.6916 Y147.2586
G01 X93.6960 Y147.2626
G01 X94.1572 Y147.7238
G01 X94.1612 Y147.7282
G01 X94.1647 Y147.7329
G01 X94.1677 Y147.7380
G01 X94.1702 Y147.7433
G01 X94.1722 Y147.7488
G01 X94.1736 Y147.7545
G01 X94.1745 Y147.7604
G01 X94.1748 Y147.7662
G01 X94.1748 Y148.4185
G01 X94.1745 Y148.4244
G01 X94.1736 Y148.4303
G01 X94.1722 Y148.4360
G01 X94.1702 Y148.4415
G01 X94.1677 Y148.4468
G01 X94.1647 Y148.4519
G01 X94.1612 Y148.4566
G01 X94.1572 Y148.4610
G01 X93.6960 Y148.9222
G01 X93.6916 Y148.9262
G01 X93.6869 Y148.9297
G01 X93.6818 Y148.9327
G01 X93.6765 Y148.9352
G01 X93.6710 Y148.9372
G01 X93.6653 Y148.9386
G01 X93.6594 Y148.9395
G01 X93.6535 Y148.9398
G01 X93.0012 Y148.9398
G01 X92.9954 Y148.9395
G01 X92.9895 Y148.9386
G01 X92.9838 Y148.9372
G01 X92.9783 Y148.9352
G01 X92.9730 Y148.9327
G01 X92.9679 Y148.9297
G01 X92.9632 Y148.9262
G01 X92.9588 Y148.9222
G01 X92.4955 Y148.4588
G00 Z2.0000
G00 X92.5030 Y148.4521
G01 F60.00
G01 Z0.0000
G01 F2000.00
G01 X92.4978 Y148.4453
G01 X92.4938 Y148.4377
G01 X92.4912 Y148.4295
G01 X92.4900 Y148.4198
G01 X92.4900 Y147.7662
G01 X92.4910 Y147.7565
G01 X92.4938 Y147.7471
G01 X92.4984 Y147.7385
G01 X92.5046 Y147.7309
G01 X92.9659 Y147.2696
G01 X92.9735 Y147.2634
G01 X92.9821 Y147.2588
G01 X92.9915 Y147.2560
G01 X93.0012 Y147.2550
G01 X93.6535 Y147.2550
G01 X93.6633 Y147.2560
G01 X93.6727 Y147.2588
G01 X93.6813 Y147.2634
G01 X93.6889 Y147.2696
G01 X94.1501 Y147.7309
G01 X94.1564 Y147.7385
G01 X94.1610 Y147.7471
G01 X94.1638 Y147.7565
G01 X94.1648 Y147.7662
G01 X94.1648 Y148.4185
G01 X94.1638 Y148.4283
G01 X94.1610 Y148.4377
G01 X94.1564 Y148.4463
G01 X94.1501 Y148.4539
G01 X93.6889 Y148.9152
G01 X93.6813 Y148.9214
G01 X93.6727 Y148.9260
G01 X93.6633 Y148.9288
G01 X93.6535 Y148.9298
G01 X93.0012 Y148.9298
G01 X92.9915 Y148.9288
G01 X92.9821 Y148.9260
G01 X92.9735 Y148.9214
G01 X92.9659 Y148.9152
G01 X92.5030 Y148.4521
G00 Z2.0000
G00 X92.4955 Y145.9188
G01 F60.00
G01 Z0.0000
G01 F2000.00
G01 X92.4893 Y145.9106
G01 X92.4846 Y145.9015
G01 X92.4815 Y145.8917
G01 X92.4804 Y145.8859
G01 X92.4800 Y145.8800
G01 X92.4800 Y145.2262
G01 X92.4803 Y145.2204
G01 X92.4812 Y145.2145
G01 X92.4840 Y145.2047
G01 X92.4864 Y145.1993
G01 X92.4893 Y145.1941
G01 X92.4927 Y145.1893
G01 X92.4976 Y145.1838
G01 X92.9588 Y144.7226
G01 X92.9632 Y144.7186
G01 X92.9679 Y144.7151
G01 X92.9730 Y144.7121
G01 X92.9783 Y144.7096
G01 X92.9838 Y144.7076
G01 X92.9895 Y144.7062
G01 X92.9954 Y144.7053
G01 X93.0012 Y144.7050
G01 X93.6535 Y144.7050
G01 X93.6594 Y144.7053
G01 X93.6653 Y144.7062
G01 X93.6710 Y144.7076
G01 X93.6765 Y144.7096
G01 X93.6818 Y144.7121
G01 X93.6869 Y144.7151
G01 X93.6916 Y144.7186
G01 X93.6960 Y144.7226
G01 X94.1572 Y145.1838
G01 X94.1612 Y145.1882
G01 X94.1647 Y145.1929
G01 X94.1677 Y145.1980
G01 X94.1702 Y145.2033
G01 X94.1722 Y145.2088
G01 X94.1736 Y145.2145
G01 X94.1745 Y145.2204
G01 X94.1748 Y145.2262
G01 X94.1748 Y145.8785
G01 X94.1745 Y145.8844
G01 X94.1736 Y145.8903
G01 X94.1722 Y145.8960
G01 X94.1702 Y145.9015
G01 X94.1677 Y145.9068
G01 X94.1647 Y145.9119
G01 X94.1612 Y145.9166
G01 X94.1572 Y145.9210
G01 X93.6960 Y146.3822
G01 X93.6916 Y146.3862
G01 X93.6869 Y146.3897
G01 X93.6818 Y146.3927
G01 X93.6765 Y146.3952
G01 X93.6710 Y146.3972
G01 X93.6653 Y146.3986
G01 X93.6594 Y146.3995
G01 X93.6535 Y146.3998
G01 X93.0012 Y146.3998
G01 X92.9954 Y146.3995
G01 X92.9895 Y146.3986
G01 X92.9838 Y146.3972
G01 X92.9783 Y146.3952
G01 X92.9730 Y146.3927
G01 X92.9679 Y146.3897
G01 X92.9632 Y146.3862
G01 X92.9588 Y146.3822
G01 X92.4955 Y145.9188
G00 Z2.0000
G00 X92.5030 Y145.9121
G01 F60.00
G01 Z0.0000
G01 F2000.00
G01 X92.4978 Y145.9053
G01 X92.4938 Y145.8977
G01 X92.4912 Y145.8895
G01 X92.4900 Y145.8798
G01 X92.4900 Y145.2262
G01 X92.4910 Y145.2165
G01 X92.4938 Y145.2071
G01 X92.4984 Y145.1985
G01 X92.5046 Y145.1909
G01 X92.9659 Y144.7296
G01 X92.9735 Y144.7234
G01 X92.9821 Y144.7188
G01 X92.9915 Y144.7160
G01 X93.0012 Y144.7150
G01 X93.6535 Y144.7150
G01 X93.6633 Y144.7160
G01 X93.6727 Y144.7188
G01 X93.6813 Y144.7234
G01 X93.6889 Y144.7296
G01 X94.1501 Y145.1909
G01 X94.1564 Y145.1985
G01 X94.1610 Y145.2071
G01 X94.1638 Y145.2165
G01 X94.1648 Y145.2262
G01 X94.1648 Y145.8785
G01 X94.1638 Y145.8883
G01 X94.1610 Y145.8977
G01 X94.1564 Y145.9063
G01 X94.1501 Y145.9139
G01 X93.6889 Y146.3752
G01 X93.6813 Y146.3814
G01 X93.6727 Y146.3860
G01 X93.6633 Y146.3888
G01 X93.6535 Y146.3898
G01 X93.0012 Y146.3898
G01 X92.9915 Y146.3888
G01 X92.9821 Y146.3860
G01 X92.9735 Y146.3814
G01 X92.9659 Y146.3752
G01 X92.5030 Y145.9121
G00 Z2.0000
G00 X92.4955 Y143.3788
G01 F60.00
G01 Z0.0000
G01 F2000.00
G01 X92.4893 Y143.3706
G01 X92.4846 Y143.3615
G01 X92.4815 Y143.3517
G01 X92.4804 Y143.3459
G01 X92.4800 Y143.3400
G01 X92.4800 Y142.6862
G01 X92.4803 Y142.6804
G01 X92.4812 Y142.6745
G01 X92.4840 Y142.6647
G01 X92.4864 Y142.6593
G01 X92.4893 Y142.6541
G01 X92.4927 Y142.6493
G01 X92.4976 Y142.6438
G01 X92.9588 Y142.1826
G01 X92.9632 Y142.1786
G01 X92.9679 Y142.1751
G01 X92.9730 Y142.1721
G01 X92.9783 Y142.1696
G01 X92.9838 Y142.1676
G01 X92.9895 Y142.1662
G01 X92.9954 Y142.1653
G01 X93.0012 Y142.1650
G01 X93.6535 Y142.1650
G01 X93.6594 Y142.1653
G01 X93.6653 Y142.1662
G01 X93.6710 Y142.1676
G01 X93.6765 Y142.1696
G01 X93.6818 Y142.1721
G01 X93.6869 Y142.1751
G01 X93.6916 Y142.1786
G01 X93.6960 Y142.1826
G01 X94.1572 Y142.6438
G01 X94.1612 Y142.6482
G01 X94.1647 Y142.6529
G01 X94.1677 Y142.6580
G01 X94.1702 Y142.6633
G01 X94.1722 Y142.6688
G01 X94.1736 Y142.6745
G01 X94.1745 Y142.6804
G01 X94.1748 Y142.6862
G01 X94.1748 Y143.3385
G01 X94.1745 Y143.3444
G01 X94.1736 Y143.3503
G01 X94.1722 Y143.3560
G01 X94.1702 Y143.3615
G01 X94.1677 Y143.3668
G01 X94.1647 Y143.3719
G01 X94.1612 Y143.3766
G01 X94.1572 Y143.3810
G01 X93.6960 Y143.8422
G01 X93.6916 Y143.8462
G01 X93.6869 Y143.8497
G01 X93.6818 Y143.8527
G01 X93.6765 Y143.8552
G01 X93.6710 Y143.8572
G01 X93.6653 Y143.8586
G01 X93.6594 Y143.8595
G01 X93.6535 Y143.8598
G01 X93.0012 Y143.8598
G01 X92.9954 Y143.8595
G01 X92.9895 Y143.8586
G01 X92.9838 Y143.8572
G01 X92.9783 Y143.8552
G01 X92.9730 Y143.8527
G01 X92.9679 Y143.8497
G01 X92.9632 Y143.8462
G01 X92.9588 Y143.8422
G01 X92.4955 Y143.3788
G00 Z2.0000
G00 X92.5030 Y143.3721
G01 F60.00
G01 Z0.0000
G01 F2000.00
G01 X92.4978 Y143.3653
G01 X92.4938 Y143.3577
G01 X92.4912 Y143.3495
G01 X92.4900 Y143.3398
G01 X92.4900 Y142.6862
G01 X92.4910 Y142.6765
G01 X92.4938 Y142.6671
G01 X92.4984 Y142.6585
G01 X92.5046 Y142.6509
G01 X92.9659 Y142.1896
G01 X92.9735 Y142.1834
G01 X92.9821 Y142.1788
G01 X92.9915 Y142.1760
G01 X93.0012 Y142.1750
G01 X93.6535 Y142.1750
G01 X93.6633 Y142.1760
G01 X93.6727 Y142.1788
G01 X93.6813 Y142.1834
G01 X93.6889 Y142.1896
G01 X94.1501 Y142.6509
G01 X94.1564 Y142.6585
G01 X94.1610 Y142.6671
G01 X94.1638 Y142.6765
G01 X94.1648 Y142.6862
G01 X94.1648 Y143.3385
G01 X94.1638 Y143.3483
G01 X94.1610 Y143.3577
G01 X94.1564 Y143.3663
G01 X94.1501 Y143.3739
G01 X93.6889 Y143.8352
G01 X93.6813 Y143.8414
G01 X93.6727 Y143.8460
G01 X93.6633 Y143.8488
G01 X93.6535 Y143.8498
G01 X93.0012 Y143.8498
G01 X92.9915 Y143.8488
G01 X92.9821 Y143.8460
G01 X92.9735 Y143.8414
G01 X92.9659 Y143.8352
G01 X92.5030 Y143.3721
G00 Z2.0000
G00 X92.4955 Y140.8388
G01 F60.00
G01 Z0.0000
G01 F2000.00
G01 X92.4893 Y140.8306
G01 X92.4846 Y140.8215
G01 X92.4815 Y140.8117
G01 X92.4804 Y140.8059
G01 X92.4800 Y140.8000
G01 X92.4800 Y140.1462
G01 X92.4803 Y140.1404
G01 X92.4812 Y140.1345
G01 X92.4840 Y140.1247
G01 X92.4864 Y140.1193
G01 X92.4893 Y140.1141
G01 X92.4927 Y140.1093
G01 X92.4976 Y140.1038
G01 X92.9588 Y139.6426
G01 X92.9632 Y139.6386
G01 X92.9679 Y139.6351
G01 X92.9730 Y139.6321
G01 X92.9783 Y139.6296
G01 X92.9838 Y139.6276
G01 X92.9895 Y139.6262
G01 X92.9954 Y139.6253
G01 X93.0012 Y139.6250
G01 X93.6535 Y139.6250
G01 X93.6594 Y139.6253
G01 X93.6653 Y139.6262
G01 X93.6710 Y139.6276
G01 X93.6765 Y139.6296
G01 X93.6818 Y139.6321
G01 X93.6869 Y139.6351
G01 X93.6916 Y139.6386
G01 X93.6960 Y139.6426
G01 X94.1572 Y140.1038
G01 X94.1612 Y140.1082
G01 X94.1647 Y140.1129
G01 X94.1677 Y140.1180
G01 X94.1702 Y140.1233
G01 X94.1722 Y140.1288
G01 X94.1736 Y140.1345
G01 X94.1745 Y140.1404
G01 X94.1748 Y140.1462
G01 X94.1748 Y140.7985
G01 X94.1745 Y140.8044
G01 X94.1736 Y140.8103
G01 X94.1722 Y140.8160
G01 X94.1702 Y140.8215
G01 X94.1677 Y140.8268
G01 X94.1647 Y140.8319
G01 X94.1612 Y140.8366
G01 X94.1572 Y140.8410
G01 X93.6960 Y141.3022
G01 X93.6916 Y141.3062
G01 X93.6869 Y141.3097
G01 X93.6818 Y141.3127
G01 X93.6765 Y141.3152
G01 X93.6710 Y141.3172
G01 X93.6653 Y141.3186
G01 X93.6594 Y141.3195
G01 X93.6535 Y141.3198
G01 X93.0012 Y141.3198
G01 X92.9954 Y141.3195
G01 X92.9895 Y141.3186
G01 X92.9838 Y141.3172
G01 X92.9783 Y141.3152
G01 X92.9730 Y141.3127
G01 X92.9679 Y141.3097
G01 X92.9632 Y141.3062
G01 X92.9588 Y141.3022
G01 X92.4955 Y140.8388
G00 Z2.0000
G00 X92.5030 Y140.8321
G01 F60.00
G01 Z0.0000
G01 F2000.00
G01 X92.4978 Y140.8253
G01 X92.4938 Y140.8177
G01 X92.4912 Y140.8095
G01 X92.4900 Y140.7998
G01 X92.4900 Y140.1462
G01 X92.4910 Y140.1365
G01 X92.4938 Y140.1271
G01 X92.4984 Y140.1185
G01 X92.5046 Y140.1109
G01 X92.9659 Y139.6496
G01 X92.9735 Y139.6434
G01 X92.9821 Y139.6388
G01 X92.9915 Y139.6360
G01 X93.0012 Y139.6350
G01 X93.6535 Y139.6350
G01 X93.6633 Y139.6360
G01 X93.6727 Y139.6388
G01 X93.6813 Y139.6434
G01 X93.6889 Y139.6496
G01 X94.1501 Y140.1109
G01 X94.1564 Y140.1185
G01 X94.1610 Y140.1271
G01 X94.1638 Y140.1365
G01 X94.1648 Y140.1462
G01 X94.1648 Y140.7985
G01 X94.1638 Y140.8083
G01 X94.1610 Y140.8177
G01 X94.1564 Y140.8263
G01 X94.1501 Y140.8339
G01 X93.6889 Y141.2952
G01 X93.6813 Y141.3014
G01 X93.6727 Y141.3060
G01 X93.6633 Y141.3088
G01 X93.6535 Y141.3098
G01 X93.0012 Y141.3098
G01 X92.9915 Y141.3088
G01 X92.9821 Y141.3060
G01 X92.9735 Y141.3014
G01 X92.9659 Y141.2952
G01 X92.5030 Y140.8321
G00 Z2.0000
G00 X95.6705 Y140.8388
G01 F60.00
G01 Z0.0000
G01 F2000.00
G01 X95.6643 Y140.8306
G01 X95.6596 Y140.8215
G01 X95.6565 Y140.8117
G01 X95.6554 Y140.8059
G01 X95.6550 Y140.8000
G01 X95.6550 Y140.1462
G01 X95.6553 Y140.1404
G01 X95.6562 Y140.1345
G01 X95.6590 Y140.1247
G01 X95.6614 Y140.1193
G01 X95.6643 Y140.1141
G01 X95.6677 Y140.1093
G01 X95.6726 Y140.1038
G01 X96.1338 Y139.6426
G01 X96.1382 Y139.6386
G01 X96.1429 Y139.6351
G01 X96.1480 Y139.6321
G01 X96.1533 Y139.6296
G01 X96.1588 Y139.6276
G01 X96.1645 Y139.6262
G01 X96.1704 Y139.6253
G01 X96.1762 Y139.6250
G01 X96.8285 Y139.6250
G01 X96.8344 Y139.6253
G01 X96.8403 Y139.6262
G01 X96.8460 Y139.6276
G01 X96.8515 Y139.6296
G01 X96.8568 Y139.6321
G01 X96.8619 Y139.6351
G01 X96.8666 Y139.6386
G01 X96.8710 Y139.6426
G01 X97.3322 Y140.1038
G01 X97.3362 Y140.1082
G01 X97.3397 Y140.1129
G01 X97.3427 Y140.1180
G01 X97.3452 Y140.1233
G01 X97.3472 Y140.1288
G01 X97.3486 Y140.1345
G01 X97.3495 Y140.1404
G01 X97.3498 Y140.1462
G01 X97.3498 Y140.7985
G01 X97.3495 Y140.8044
G01 X97.3486 Y140.8103
G01 X97.3472 Y140.8160
G01 X97.3452 Y140.8215
G01 X97.3427 Y140.8268
G01 X97.3397 Y140.8319
G01 X97.3362 Y140.8366
G01 X97.3322 Y140.8410
G01 X96.8710 Y141.3022
G01 X96.8666 Y141.3062
G01 X96.8619 Y141.3097
G01 X96.8568 Y141.3127
G01 X96.8515 Y141.3152
G01 X96.8460 Y141.3172
G01 X96.8403 Y141.3186
G01 X96.8344 Y141.3195
G01 X96.8285 Y141.3198
G01 X96.1762 Y141.3198
G01 X96.1704 Y141.3195
G01 X96.1645 Y141.3186
G01 X96.1588 Y141.3172
G01 X96.1533 Y141.3152
G01 X96.1480 Y141.3127
G01 X96.1429 Y141.3097
G01 X96.1382 Y141.3062
G01 X96.1338 Y141.3022
G01 X95.6705 Y140.8388
G00 Z2.0000
G00 X95.6780 Y140.8321
G01 F60.00
G01 Z0.0000
G01 F2000.00
G01 X95.6728 Y140.8253
G01 X95.6688 Y140.8177
G01 X95.6662 Y140.8095
G01 X95.6650 Y140.7998
G01 X95.6650 Y140.1462
G01 X95.6660 Y140.1365
G01 X95.6688 Y140.1271
G01 X95.6734 Y140.1185
G01 X95.6796 Y140.1109
G01 X96.1409 Y139.6496
G01 X96.1485 Y139.6434
G01 X96.1571 Y139.6388
G01 X96.1665 Y139.6360
G01 X96.1762 Y139.6350
G01 X96.8285 Y139.6350
G01 X96.8383 Y139.6360
G01 X96.8477 Y139.6388
G01 X96.8563 Y139.6434
G01 X96.8639 Y139.6496
G01 X97.3251 Y140.1109
G01 X97.3314 Y140.1185
G01 X97.3360 Y140.1271
G01 X97.3388 Y140.1365
G01 X97.3398 Y140.1462
G01 X97.3398 Y140.7985
G01 X97.3388 Y140.8083
G01 X97.3360 Y140.8177
G01 X97.3314 Y140.8263
G01 X97.3251 Y140.8339
G01 X96.8639 Y141.2952
G01 X96.8563 Y141.3014
G01 X96.8477 Y141.3060
G01 X96.8383 Y141.3088
G01 X96.8285 Y141.3098
G01 X96.1762 Y141.3098
G01 X96.1665 Y141.3088
G01 X96.1571 Y141.3060
G01 X96.1485 Y141.3014
G01 X96.1409 Y141.2952
G01 X95.6780 Y140.8321
G00 Z2.0000
G00 X98.2105 Y140.8388
G01 F60.00
G01 Z0.0000
G01 F2000.00
G01 X98.2043 Y140.8306
G01 X98.1996 Y140.8215
G01 X98.1965 Y140.8117
G01 X98.1954 Y140.8059
G01 X98.1950 Y140.8000
G01 X98.1950 Y140.1462
G01 X98.1953 Y140.1404
G01 X98.1962 Y140.1345
G01 X98.1990 Y140.1247
G01 X98.2014 Y140.1193
G01 X98.2043 Y140.1141
G01 X98.2077 Y140.1093
G01 X98.2126 Y140.1038
G01 X98.6738 Y139.6426
G01 X98.6782 Y139.6386
G01 X98.6829 Y139.6351
G01 X98.6880 Y139.6321
G01 X98.6933 Y139.6296
G01 X98.6988 Y139.6276
G01 X98.7045 Y139.6262
G01 X98.7104 Y139.6253
G01 X98.7162 Y139.6250
G01 X99.3685 Y139.6250
G01 X99.3744 Y139.6253
G01 X99.3803 Y139.6262
G01 X99.3860 Y139.6276
G01 X99.3915 Y139.6296
G01 X99.3968 Y139.6321
G01 X99.4019 Y139.6351
G01 X99.4066 Y139.6386
G01 X99.4110 Y139.6426
G01 X99.8722 Y140.1038
G01 X99.8762 Y140.1082
G01 X99.8797 Y140.1129
G01 X99.8827 Y140.1180
G01 X99.8852 Y140.1233
G01 X99.8872 Y140.1288
G01 X99.8886 Y140.1345
G01 X99.8895 Y140.1404
G01 X99.8898 Y140.1462
G01 X99.8898 Y140.7985
G01 X99.8895 Y140.8044
G01 X99.8886 Y140.8103
G01 X99.8872 Y140.8160
G01 X99.8852 Y140.8215
G01 X99.8827 Y140.8268
G01 X99.8797 Y140.8319
G01 X99.8762 Y140.8366
G01 X99.8722 Y140.8410
G01 X99.4110 Y141.3022
G01 X99.4066 Y141.3062
G01 X99.4019 Y141.3097
G01 X99.3968 Y141.3127
G01 X99.3915 Y141.3152
G01 X99.3860 Y141.3172
G01 X99.3803 Y141.3186
G01 X99.3744 Y141.3195
G01 X99.3685 Y141.3198
G01 X98.7162 Y141.3198
G01 X98.7104 Y141.3195
G01 X98.7045 Y141.3186
G01 X98.6988 Y141.3172
G01 X98.6933 Y141.3152
G01 X98.6880 Y141.3127
G01 X98.6829 Y141.3097
G01 X98.6782 Y141.3062
G01 X98.6738 Y141.3022
G01 X98.2105 Y140.8388
G00 Z2.0000
G00 X98.2180 Y140.8321
G01 F60.00
G01 Z0.0000
G01 F2000.00
G01 X98.2128 Y140.8253
G01 X98.2088 Y140.8177
G01 X98.2062 Y140.8095
G01 X98.2050 Y140.7998
G01 X98.2050 Y140.1462
G01 X98.2060 Y140.1365
G01 X98.2088 Y140.1271
G01 X98.2134 Y140.1185
G01 X98.2196 Y140.1109
G01 X98.6809 Y139.6496
G01 X98.6885 Y139.6434
G01 X98.6971 Y139.6388
G01 X98.7065 Y139.6360
G01 X98.7162 Y139.6350
G01 X99.3685 Y139.6350
G01 X99.3783 Y139.6360
G01 X99.3877 Y139.6388
G01 X99.3963 Y139.6434
G01 X99.4039 Y139.6496
G01 X99.8651 Y140.1109
G01 X99.8714 Y140.1185
G01 X99.8760 Y140.1271
G01 X99.8788 Y140.1365
G01 X99.8798 Y140.1462
G01 X99.8798 Y140.7985
G01 X99.8788 Y140.8083
G01 X99.8760 Y140.8177
G01 X99.8714 Y140.8263
G01 X99.8651 Y140.8339
G01 X99.4039 Y141.2952
G01 X99.3963 Y141.3014
G01 X99.3877 Y141.3060
G01 X99.3783 Y141.3088
G01 X99.3685 Y141.3098
G01 X98.7162 Y141.3098
G01 X98.7065 Y141.3088
G01 X98.6971 Y141.3060
G01 X98.6885 Y141.3014
G01 X98.6809 Y141.2952
G01 X98.2180 Y140.8321
G00 Z2.0000
G00 X98.2180 Y143.3721
G01 F60.00
G01 Z0.0000
G01 F2000.00
G01 X98.2128 Y143.3653
G01 X98.2088 Y143.3577
G01 X98.2062 Y143.3495
G01 X98.2050 Y143.3398
G01 X98.2050 Y142.6862
G01 X98.2060 Y142.6765
G01 X98.2088 Y142.6671
G01 X98.2134 Y142.6585
G01 X98.2196 Y142.6509
G01 X98.6809 Y142.1896
G01 X98.6885 Y142.1834
G01 X98.6971 Y142.1788
G01 X98.7065 Y142.1760
G01 X98.7162 Y142.1750
G01 X99.3685 Y142.1750
G01 X99.3783 Y142.1760
G01 X99.3877 Y142.1788
G01 X99.3963 Y142.1834
G01 X99.4039 Y142.1896
G01 X99.8651 Y142.6509
G01 X99.8714 Y142.6585
G01 X99.8760 Y142.6671
G01 X99.8788 Y142.6765
G01 X99.8798 Y142.6862
G01 X99.8798 Y143.3385
G01 X99.8788 Y143.3483
G01 X99.8760 Y143.3577
G01 X99.8714 Y143.3663
G01 X99.8651 Y143.3739
G01 X99.4039 Y143.8352
G01 X99.3963 Y143.8414
G01 X99.3877 Y143.8460
G01 X99.3783 Y143.8488
G01 X99.3685 Y143.8498
G01 X98.7162 Y143.8498
G01 X98.7065 Y143.8488
G01 X98.6971 Y143.8460
G01 X98.6885 Y143.8414
G01 X98.6809 Y143.8352
G01 X98.2180 Y143.3721
G00 Z2.0000
G00 X98.2105 Y143.3788
G01 F60.00
G01 Z0.0000
G01 F2000.00
G01 X98.2043 Y143.3706
G01 X98.1996 Y143.3615
G01 X98.1965 Y143.3517
G01 X98.1954 Y143.3459
G01 X98.1950 Y143.3400
G01 X98.1950 Y142.6862
G01 X98.1953 Y142.6804
G01 X98.1962 Y142.6745
G01 X98.1990 Y142.6647
G01 X98.2014 Y142.6593
G01 X98.2043 Y142.6541
G01 X98.2077 Y142.6493
G01 X98.2126 Y142.6438
G01 X98.6738 Y142.1826
G01 X98.6782 Y142.1786
G01 X98.6829 Y142.1751
G01 X98.6880 Y142.1721
G01 X98.6933 Y142.1696
G01 X98.6988 Y142.1676
G01 X98.7045 Y142.1662
G01 X98.7104 Y142.1653
G01 X98.7162 Y142.1650
G01 X99.3685 Y142.1650
G01 X99.3744 Y142.1653
G01 X99.3803 Y142.1662
G01 X99.3860 Y142.1676
G01 X99.3915 Y142.1696
G01 X99.3968 Y142.1721
G01 X99.4019 Y142.1751
G01 X99.4066 Y142.1786
G01 X99.4110 Y142.1826
G01 X99.8722 Y142.6438
G01 X99.8762 Y142.6482
G01 X99.8797 Y142.6529
G01 X99.8827 Y142.6580
G01 X99.8852 Y142.6633
G01 X99.8872 Y142.6688
G01 X99.8886 Y142.6745
G01 X99.8895 Y142.6804
G01 X99.8898 Y142.6862
G01 X99.8898 Y143.3385
G01 X99.8895 Y143.3444
G01 X99.8886 Y143.3503
G01 X99.8872 Y143.3560
G01 X99.8852 Y143.3615
G01 X99.8827 Y143.3668
G01 X99.8797 Y143.3719
G01 X99.8762 Y143.3766
G01 X99.8722 Y143.3810
G01 X99.4110 Y143.8422
G01 X99.4066 Y143.8462
G01 X99.4019 Y143.8497
G01 X99.3968 Y143.8527
G01 X99.3915 Y143.8552
G01 X99.3860 Y143.8572
G01 X99.3803 Y143.8586
G01 X99.3744 Y143.8595
G01 X99.3685 Y143.8598
G01 X98.7162 Y143.8598
G01 X98.7104 Y143.8595
G01 X98.7045 Y143.8586
G01 X98.6988 Y143.8572
G01 X98.6933 Y143.8552
G01 X98.6880 Y143.8527
G01 X98.6829 Y143.8497
G01 X98.6782 Y143.8462
G01 X98.6738 Y143.8422
G01 X98.2105 Y143.3788
G00 Z2.0000
G00 X95.6780 Y143.3721
G01 F60.00
G01 Z0.0000
G01 F2000.00
G01 X95.6728 Y143.3653
G01 X95.6688 Y143.3577
G01 X95.6662 Y143.3495
G01 X95.6650 Y143.3398
G01 X95.6650 Y142.6862
G01 X95.6660 Y142.6765
G01 X95.6688 Y142.6671
G01 X95.6734 Y142.6585
G01 X95.6796 Y142.6509
G01 X96.1409 Y142.1896
G01 X96.1485 Y142.1834
G01 X96.1571 Y142.1788
G01 X96.1665 Y142.1760
G01 X96.1762 Y142.1750
G01 X96.8285 Y142.1750
G01 X96.8383 Y142.1760
G01 X96.8477 Y142.1788
G01 X96.8563 Y142.1834
G01 X96.8639 Y142.1896
G01 X97.3251 Y142.6509
G01 X97.3314 Y142.6585
G01 X97.3360 Y142.6671
G01 X97.3388 Y142.6765
G01 X97.3398 Y142.6862
G01 X97.3398 Y143.3385
G01 X97.3388 Y143.3483
G01 X97.3360 Y143.3577
G01 X97.3314 Y143.3663
G01 X97.3251 Y143.3739
G01 X96.8639 Y143.8352
G01 X96.8563 Y143.8414
G01 X96.8477 Y143.8460
G01 X96.8383 Y143.8488
G01 X96.8285 Y143.8498
G01 X96.1762 Y143.8498
G01 X96.1665 Y143.8488
G01 X96.1571 Y143.8460
G01 X96.1485 Y143.8414
G01 X96.1409 Y143.8352
G01 X95.6780 Y143.3721
G00 Z2.0000
G00 X95.6705 Y143.3788
G01 F60.00
G01 Z0.0000
G01 F2000.00
G01 X95.6643 Y143.3706
G01 X95.6596 Y143.3615
G01 X95.6565 Y143.3517
G01 X95.6554 Y143.3459
G01 X95.6550 Y143.3400
G01 X95.6550 Y142.6862
G01 X95.6553 Y142.6804
G01 X95.6562 Y142.6745
G01 X95.6590 Y142.6647
G01 X95.6614 Y142.6593
G01 X95.6643 Y142.6541
G01 X95.6677 Y142.6493
G01 X95.6726 Y142.6438
G01 X96.1338 Y142.1826
G01 X96.1382 Y142.1786
G01 X96.1429 Y142.1751
G01 X96.1480 Y142.1721
G01 X96.1533 Y142.1696
G01 X96.1588 Y142.1676
G01 X96.1645 Y142.1662
G01 X96.1704 Y142.1653
G01 X96.1762 Y142.1650
G01 X96.8285 Y142.1650
G01 X96.8344 Y142.1653
G01 X96.8403 Y142.1662
G01 X96.8460 Y142.1676
G01 X96.8515 Y142.1696
G01 X96.8568 Y142.1721
G01 X96.8619 Y142.1751
G01 X96.8666 Y142.1786
G01 X96.8710 Y142.1826
G01 X97.3322 Y142.6438
G01 X97.3362 Y142.6482
G01 X97.3397 Y142.6529
G01 X97.3427 Y142.6580
G01 X97.3452 Y142.6633
G01 X97.3472 Y142.6688
G01 X97.3486 Y142.6745
G01 X97.3495 Y142.6804
G01 X97.3498 Y142.6862
G01 X97.3498 Y143.3385
G01 X97.3495 Y143.3444
G01 X97.3486 Y143.3503
G01 X97.3472 Y143.3560
G01 X97.3452 Y143.3615
G01 X97.3427 Y143.3668
G01 X97.3397 Y143.3719
G01 X97.3362 Y143.3766
G01 X97.3322 Y143.3810
G01 X96.8710 Y143.8422
G01 X96.8666 Y143.8462
G01 X96.8619 Y143.8497
G01 X96.8568 Y143.8527
G01 X96.8515 Y143.8552
G01 X96.8460 Y143.8572
G01 X96.8403 Y143.8586
G01 X96.8344 Y143.8595
G01 X96.8285 Y143.8598
G01 X96.1762 Y143.8598
G01 X96.1704 Y143.8595
G01 X96.1645 Y143.8586
G01 X96.1588 Y143.8572
G01 X96.1533 Y143.8552
G01 X96.1480 Y143.8527
G01 X96.1429 Y143.8497
G01 X96.1382 Y143.8462
G01 X96.1338 Y143.8422
G01 X95.6705 Y143.3788
G00 Z2.0000
G00 X95.6780 Y145.9121
G01 F60.00
G01 Z0.0000
G01 F2000.00
G01 X95.6728 Y145.9053
G01 X95.6688 Y145.8977
G01 X95.6662 Y145.8895
G01 X95.6650 Y145.8798
G01 X95.6650 Y145.2262
G01 X95.6660 Y145.2165
G01 X95.6688 Y145.2071
G01 X95.6734 Y145.1985
G01 X95.6796 Y145.1909
G01 X96.1409 Y144.7296
G01 X96.1485 Y144.7234
G01 X96.1571 Y144.7188
G01 X96.1665 Y144.7160
G01 X96.1762 Y144.7150
G01 X96.8285 Y144.7150
G01 X96.8383 Y144.7160
G01 X96.8477 Y144.7188
G01 X96.8563 Y144.7234
G01 X96.8639 Y144.7296
G01 X97.3251 Y145.1909
G01 X97.3314 Y145.1985
G01 X97.3360 Y145.2071
G01 X97.3388 Y145.2165
G01 X97.3398 Y145.2262
G01 X97.3398 Y145.8785
G01 X97.3388 Y145.8883
G01 X97.3360 Y145.8977
G01 X97.3314 Y145.9063
G01 X97.3251 Y145.9139
G01 X96.8639 Y146.3752
G01 X96.8563 Y146.3814
G01 X96.8477 Y146.3860
G01 X96.8383 Y146.3888
G01 X96.8285 Y146.3898
G01 X96.1762 Y146.3898
G01 X96.1665 Y146.3888
G01 X96.1571 Y146.3860
G01 X96.1485 Y146.3814
G01 X96.1409 Y146.3752
G01 X95.6780 Y145.9121
G00 Z2.0000
G00 X95.6705 Y145.9188
G01 F60.00
G01 Z0.0000
G01 F2000.00
G01 X95.6643 Y145.9106
G01 X95.6596 Y145.9015
G01 X95.6565 Y145.8917
G01 X95.6554 Y145.8859
G01 X95.6550 Y145.8800
G01 X95.6550 Y145.2262
G01 X95.6553 Y145.2204
G01 X95.6562 Y145.2145
G01 X95.6590 Y145.2047
G01 X95.6614 Y145.1993
G01 X95.6643 Y145.1941
G01 X95.6677 Y145.1893
G01 X95.6726 Y145.1838
G01 X96.1338 Y144.7226
G01 X96.1382 Y144.7186
G01 X96.1429 Y144.7151
G01 X96.1480 Y144.7121
G01 X96.1533 Y144.7096
G01 X96.1588 Y144.7076
G01 X96.1645 Y144.7062
G01 X96.1704 Y144.7053
G01 X96.1762 Y144.7050
G01 X96.8285 Y144.7050
G01 X96.8344 Y144.7053
G01 X96.8403 Y144.7062
G01 X96.8460 Y144.7076
G01 X96.8515 Y144.7096
G01 X96.8568 Y144.7121
G01 X96.8619 Y144.7151
G01 X96.8666 Y144.7186
G01 X96.8710 Y144.7226
G01 X97.3322 Y145.1838
G01 X97.3362 Y145.1882
G01 X97.3397 Y145.1929
G01 X97.3427 Y145.1980
G01 X97.3452 Y145.2033
G01 X97.3472 Y145.2088
G01 X97.3486 Y145.2145
G01 X97.3495 Y145.2204
G01 X97.3498 Y145.2262
G01 X97.3498 Y145.8785
G01 X97.3495 Y145.8844
G01 X97.3486 Y145.8903
G01 X97.3472 Y145.8960
G01 X97.3452 Y145.9015
G01 X97.3427 Y145.9068
G01 X97.3397 Y145.9119
G01 X97.3362 Y145.9166
G01 X97.3322 Y145.9210
G01 X96.8710 Y146.3822
G01 X96.8666 Y146.3862
G01 X96.8619 Y146.3897
G01 X96.8568 Y146.3927
G01 X96.8515 Y146.3952
G01 X96.8460 Y146.3972
G01 X96.8403 Y146.3986
G01 X96.8344 Y146.3995
G01 X96.8285 Y146.3998
G01 X96.1762 Y146.3998
G01 X96.1704 Y146.3995
G01 X96.1645 Y146.3986
G01 X96.1588 Y146.3972
G01 X96.1533 Y146.3952
G01 X96.1480 Y146.3927
G01 X96.1429 Y146.3897
G01 X96.1382 Y146.3862
G01 X96.1338 Y146.3822
G01 X95.6705 Y145.9188
G00 Z2.0000
G00 X95.6780 Y148.4521
G01 F60.00
G01 Z0.0000
G01 F2000.00
G01 X95.6728 Y148.4453
G01 X95.6688 Y148.4377
G01 X95.6662 Y148.4295
G01 X95.6650 Y148.4198
G01 X95.6650 Y147.7662
G01 X95.6660 Y147.7565
G01 X95.6688 Y147.7471
G01 X95.6734 Y147.7385
G01 X95.6796 Y147.7309
G01 X96.1409 Y147.2696
G01 X96.1485 Y147.2634
G01 X96.1571 Y147.2588
G01 X96.1665 Y147.2560
G01 X96.1762 Y147.2550
G01 X96.8285 Y147.2550
G01 X96.8383 Y147.2560
G01 X96.8477 Y147.2588
G01 X96.8563 Y147.2634
G01 X96.8639 Y147.2696
G01 X97.3251 Y147.7309
G01 X97.3314 Y147.7385
G01 X97.3360 Y147.7471
G01 X97.3388 Y147.7565
G01 X97.3398 Y147.7662
G01 X97.3398 Y148.4185
G01 X97.3388 Y148.4283
G01 X97.3360 Y148.4377
G01 X97.3314 Y148.4463
G01 X97.3251 Y148.4539
G01 X96.8639 Y148.9152
G01 X96.8563 Y148.9214
G01 X96.8477 Y148.9260
G01 X96.8383 Y148.9288
G01 X96.8285 Y148.9298
G01 X96.1762 Y148.9298
G01 X96.1665 Y148.9288
G01 X96.1571 Y148.9260
G01 X96.1485 Y148.9214
G01 X96.1409 Y148.9152
G01 X95.6780 Y148.4521
G00 Z2.0000
G00 X95.6705 Y148.4588
G01 F60.00
G01 Z0.0000
G01 F2000.00
G01 X95.6643 Y148.4506
G01 X95.6596 Y148.4415
G01 X95.6565 Y148.4317
G01 X95.6554 Y148.4259
G01 X95.6550 Y148.4200
G01 X95.6550 Y147.7662
G01 X95.6553 Y147.7604
G01 X95.6562 Y147.7545
G01 X95.6590 Y147.7447
G01 X95.6614 Y147.7393
G01 X95.6643 Y147.7341
G01 X95.6677 Y147.7293
G01 X95.6726 Y147.7238
G01 X96.1338 Y147.2626
G01 X96.1382 Y147.2586
G01 X96.1429 Y147.2551
G01 X96.1480 Y147.2521
G01 X96.1533 Y147.2496
G01 X96.1588 Y147.2476
G01 X96.1645 Y147.2462
G01 X96.1704 Y147.2453
G01 X96.1762 Y147.2450
G01 X96.8285 Y147.2450
G01 X96.8344 Y147.2453
G01 X96.8403 Y147.2462
G01 X96.8460 Y147.2476
G01 X96.8515 Y147.2496
G01 X96.8568 Y147.2521
G01 X96.8619 Y147.2551
G01 X96.8666 Y147.2586
G01 X96.8710 Y147.2626
G01 X97.3322 Y147.7238
G01 X97.3362 Y147.7282
G01 X97.3397 Y147.7329
G01 X97.3427 Y147.7380
G01 X97.3452 Y147.7433
G01 X97.3472 Y147.7488
G01 X97.3486 Y147.7545
G01 X97.3495 Y147.7604
G01 X97.3498 Y147.7662
G01 X97.3498 Y148.4185
G01 X97.3495 Y148.4244
G01 X97.3486 Y148.4303
G01 X97.3472 Y148.4360
G01 X97.3452 Y148.4415
G01 X97.3427 Y148.4468
G01 X97.3397 Y148.4519
G01 X97.3362 Y148.4566
G01 X97.3322 Y148.4610
G01 X96.8710 Y148.9222
G01 X96.8666 Y148.9262
G01 X96.8619 Y148.9297
G01 X96.8568 Y148.9327
G01 X96.8515 Y148.9352
G01 X96.8460 Y148.9372
G01 X96.8403 Y148.9386
G01 X96.8344 Y148.9395
G01 X96.8285 Y148.9398
G01 X96.1762 Y148.9398
G01 X96.1704 Y148.9395
G01 X96.1645 Y148.9386
G01 X96.1588 Y148.9372
G01 X96.1533 Y148.9352
G01 X96.1480 Y148.9327
G01 X96.1429 Y148.9297
G01 X96.1382 Y148.9262
G01 X96.1338 Y148.9222
G01 X95.6705 Y148.4588
G00 Z2.0000
G00 X95.6780 Y150.9921
G01 F60.00
G01 Z0.0000
G01 F2000.00
G01 X95.6728 Y150.9853
G01 X95.6688 Y150.9777
G01 X95.6662 Y150.9695
G01 X95.6650 Y150.9598
G01 X95.6650 Y150.3062
G01 X95.6660 Y150.2965
G01 X95.6688 Y150.2871
G01 X95.6734 Y150.2785
G01 X95.6796 Y150.2709
G01 X96.1409 Y149.8096
G01 X96.1485 Y149.8034
G01 X96.1571 Y149.7988
G01 X96.1665 Y149.7960
G01 X96.1762 Y149.7950
G01 X96.8285 Y149.7950
G01 X96.8383 Y149.7960
G01 X96.8477 Y149.7988
G01 X96.8563 Y149.8034
G01 X96.8639 Y149.8096
G01 X97.3251 Y150.2709
G01 X97.3314 Y150.2785
G01 X97.3360 Y150.2871
G01 X97.3388 Y150.2965
G01 X97.3398 Y150.3062
G01 X97.3398 Y150.9585
G01 X97.3388 Y150.9683
G01 X97.3360 Y150.9777
G01 X97.3314 Y150.9863
G01 X97.3251 Y150.9939
G01 X96.8639 Y151.4552
G01 X96.8563 Y151.4614
G01 X96.8477 Y151.4660
G01 X96.8383 Y151.4688
G01 X96.8285 Y151.4698
G01 X96.1762 Y151.4698
G01 X96.1665 Y151.4688
G01 X96.1571 Y151.4660
G01 X96.1485 Y151.4614
G01 X96.1409 Y151.4552
G01 X95.6780 Y150.9921
G00 Z2.0000
G00 X95.6705 Y150.9988
G01 F60.00
G01 Z0.0000
G01 F2000.00
G01 X95.6643 Y150.9906
G01 X95.6596 Y150.9815
G01 X95.6565 Y150.9717
G01 X95.6554 Y150.9659
G01 X95.6550 Y150.9600
G01 X95.6550 Y150.3062
G01 X95.6553 Y150.3004
G01 X95.6562 Y150.2945
G01 X95.6590 Y150.2847
G01 X95.6614 Y150.2793
G01 X95.6643 Y150.2741
G01 X95.6677 Y150.2693
G01 X95.6726 Y150.2638
G01 X96.1338 Y149.8026
G01 X96.1382 Y149.7986
G01 X96.1429 Y149.7951
G01 X96.1480 Y149.7921
G01 X96.1533 Y149.7896
G01 X96.1588 Y149.7876
G01 X96.1645 Y149.7862
G01 X96.1704 Y149.7853
G01 X96.1762 Y149.7850
G01 X96.8285 Y149.7850
G01 X96.8344 Y149.7853
G01 X96.8403 Y149.7862
G01 X96.8460 Y149.7876
G01 X96.8515 Y149.7896
G01 X96.8568 Y149.7921
G01 X96.8619 Y149.7951
G01 X96.8666 Y149.7986
G01 X96.8710 Y149.8026
G01 X97.3322 Y150.2638
G01 X97.3362 Y150.2682
G01 X97.3397 Y150.2729
G01 X97.3427 Y150.2780
G01 X97.3452 Y150.2833
G01 X97.3472 Y150.2888
G01 X97.3486 Y150.2945
G01 X97.3495 Y150.3004
G01 X97.3498 Y150.3062
G01 X97.3498 Y150.9585
G01 X97.3495 Y150.9644
G01 X97.3486 Y150.9703
G01 X97.3472 Y150.9760
G01 X97.3452 Y150.9815
G01 X97.3427 Y150.9868
G01 X97.3397 Y150.9919
G01 X97.3362 Y150.9966
G01 X97.3322 Y151.0010
G01 X96.8710 Y151.4622
G01 X96.8666 Y151.4662
G01 X96.8619 Y151.4697
G01 X96.8568 Y151.4727
G01 X96.8515 Y151.4752
G01 X96.8460 Y151.4772
G01 X96.8403 Y151.4786
G01 X96.8344 Y151.4795
G01 X96.8285 Y151.4798
G01 X96.1762 Y151.4798
G01 X96.1704 Y151.4795
G01 X96.1645 Y151.4786
G01 X96.1588 Y151.4772
G01 X96.1533 Y151.4752
G01 X96.1480 Y151.4727
G01 X96.1429 Y151.4697
G01 X96.1382 Y151.4662
G01 X96.1338 Y151.4622
G01 X95.6705 Y150.9988
G00 Z2.0000
G00 X95.6780 Y153.5321
G01 F60.00
G01 Z0.0000
G01 F2000.00
G01 X95.6728 Y153.5253
G01 X95.6688 Y153.5177
G01 X95.6662 Y153.5095
G01 X95.6650 Y153.4998
G01 X95.6650 Y152.8462
G01 X95.6660 Y152.8365
G01 X95.6688 Y152.8271
G01 X95.6734 Y152.8185
G01 X95.6796 Y152.8109
G01 X96.1409 Y152.3496
G01 X96.1485 Y152.3434
G01 X96.1571 Y152.3388
G01 X96.1665 Y152.3360
G01 X96.1762 Y152.3350
G01 X96.8285 Y152.3350
G01 X96.8383 Y152.3360
G01 X96.8477 Y152.3388
G01 X96.8563 Y152.3434
G01 X96.8639 Y152.3496
G01 X97.3251 Y152.8109
G01 X97.3314 Y152.8185
G01 X97.3360 Y152.8271
G01 X97.3388 Y152.8365
G01 X97.3398 Y152.8462
G01 X97.3398 Y153.4985
G01 X97.3388 Y153.5083
G01 X97.3360 Y153.5177
G01 X97.3314 Y153.5263
G01 X97.3251 Y153.5339
G01 X96.8639 Y153.9952
G01 X96.8563 Y154.0014
G01 X96.8477 Y154.0060
G01 X96.8383 Y154.0088
G01 X96.8285 Y154.0098
G01 X96.1762 Y154.0098
G01 X96.1665 Y154.0088
G01 X96.1571 Y154.0060
G01 X96.1485 Y154.0014
G01 X96.1409 Y153.9952
G01 X95.6780 Y153.5321
G00 Z2.0000
G00 X95.6705 Y153.5388
G01 F60.00
G01 Z0.0000
G01 F2000.00
G01 X95.6643 Y153.5306
G01 X95.6596 Y153.5215
G01 X95.6565 Y153.5117
G01 X95.6554 Y153.5059
G01 X95.6550 Y153.5000
G01 X95.6550 Y152.8462
G01 X95.6553 Y152.8404
G01 X95.6562 Y152.8345
G01 X95.6590 Y152.8247
G01 X95.6614 Y152.8193
G01 X95.6643 Y152.8141
G01 X95.6677 Y152.8093
G01 X95.6726 Y152.8038
G01 X96.1338 Y152.3426
G01 X96.1382 Y152.3386
G01 X96.1429 Y152.3351
G01 X96.1480 Y152.3321
G01 X96.1533 Y152.3296
G01 X96.1588 Y152.3276
G01 X96.1645 Y152.3262
G01 X96.1704 Y152.3253
G01 X96.1762 Y152.3250
G01 X96.8285 Y152.3250
G01 X96.8344 Y152.3253
G01 X96.8403 Y152.3262
G01 X96.8460 Y152.3276
G01 X96.8515 Y152.3296
G01 X96.8568 Y152.3321
G01 X96.8619 Y152.3351
G01 X96.8666 Y152.3386
G01 X96.8710 Y152.3426
G01 X97.3322 Y152.8038
G01 X97.3362 Y152.8082
G01 X97.3397 Y152.8129
G01 X97.3427 Y152.8180
G01 X97.3452 Y152.8233
G01 X97.3472 Y152.8288
G01 X97.3486 Y152.8345
G01 X97.3495 Y152.8404
G01 X97.3498 Y152.8462
