(G-CODE GENERATED BY FLATCAM v8.994 - www.flatcam.org - Version Date: 2020/11/7)

(Name: isolatio_route_cnc)
(Type: G-code from Geometry)
(Units: MM)

(Created on Monday, 26 April 2021 at 10:26)

(This preprocessor is the default preprocessor used by FlatCAM.)
(It is made to work with MACH3 compatible motion controllers.)

(TOOL DIAMETER: 0.2 mm)
(Feedrate_XY: 2000.0 mm/min)
(Feedrate_Z: 60.0 mm/min)
(Feedrate rapids 1500.0 mm/min)

(Z_Cut: -0.02 mm)
(Z_Move: 0.02 mm)
(Z Start: None mm)
(Z End: 15.0 mm)
(X,Y End: None mm)
(Steps per circle: 64)
(Preprocessor Geometry: default)

(X range:   90.1161 ...  124.3266  mm)
(Y range:  134.5661 ...  169.8839  mm)

(Spindle Speed: 100 RPM)
G21
G90
G94

G01 F2000.00
G00 Z0.0200

M03 S100
G00 X95.1561 Y135.4150
G01 F60.00
G01 Z-0.0200
G01 F2000.00
G01 X95.1561 Y134.5843
G01 X94.9761 Y134.6278
G01 X94.9761 Y135.5581
G00 Z0.0200
G00 X95.3361 Y135.3678
G01 F60.00
G01 Z-0.0200
G01 F2000.00
G01 X95.3361 Y134.5668
G01 X95.3511 Y134.5661
G01 X95.2595 Y134.5704
G01 X95.1788 Y134.5800
G01 X95.0782 Y134.5990
G01 X94.9991 Y134.6201
G01 X94.9027 Y134.6527
G01 X94.8273 Y134.6847
G01 X94.7390 Y134.7292
G01 X94.6678 Y134.7715
G01 X94.5835 Y134.8304
G01 X94.5204 Y134.8814
G01 X94.4577 Y134.9396
G01 X90.4751 Y138.9097
G01 X90.4247 Y138.9653
G01 X90.3610 Y139.0471
G01 X90.3156 Y139.1148
G01 X90.2657 Y139.2014
G01 X90.2299 Y139.2749
G01 X90.1916 Y139.3700
G01 X90.1666 Y139.4478
G01 X90.1424 Y139.5460
G01 X90.1265 Y139.6374
G01 X90.1161 Y139.7715
G01 X90.1161 Y164.6515
G01 X90.1204 Y164.7431
G01 X90.1300 Y164.8239
G01 X90.1490 Y164.9245
G01 X90.1701 Y165.0036
G01 X90.2027 Y165.1000
G01 X90.2349 Y165.1759
G01 X90.2790 Y165.2630
G01 X90.3211 Y165.3344
G01 X90.3808 Y165.4196
G01 X90.4314 Y165.4822
G01 X90.4901 Y165.5455
G01 X94.4702 Y169.5254
G01 X94.5253 Y169.5753
G01 X94.6071 Y169.6390
G01 X94.6748 Y169.6844
G01 X94.7614 Y169.7343
G01 X94.8349 Y169.7701
G01 X94.9300 Y169.8084
G01 X95.0078 Y169.8334
G01 X95.1060 Y169.8576
G01 X95.1974 Y169.8735
G01 X95.3315 Y169.8839
G01 X102.8004 Y169.8839
G01 X102.8686 Y169.8821
G01 X102.9650 Y169.8724
G01 X103.0293 Y169.8617
G01 X114.1347 Y167.6793
G01 X122.3860 Y163.5223
G01 X122.4926 Y163.4564
G01 X122.5970 Y163.3764
G01 X122.6928 Y163.2862
G01 X122.7791 Y163.1869
G01 X122.8550 Y163.0794
G01 X122.9085 Y162.9846
G01 X124.1980 Y160.4057
G01 X124.2386 Y160.3140
G01 X124.2773 Y160.1991
G01 X124.3051 Y160.0811
G01 X124.3220 Y159.9611
G01 X124.3266 Y159.8609
G01 X124.3266 Y142.0379
G01 X124.3214 Y141.9318
G01 X124.3026 Y141.8049
G01 X124.2714 Y141.6804
G01 X124.2300 Y141.5649
G01 X121.3627 Y135.3007
G01 X121.3187 Y135.2179
G01 X121.2759 Y135.1484
G01 X121.2149 Y135.0643
G01 X121.1621 Y135.0014
G01 X121.0926 Y134.9296
G01 X121.0320 Y134.8747
G01 X120.9513 Y134.8118
G01 X120.8833 Y134.7659
G01 X120.7953 Y134.7155
G01 X120.7224 Y134.6799
G01 X120.6273 Y134.6416
G01 X120.5495 Y134.6166
G01 X120.4517 Y134.5925
G01 X120.3604 Y134.5765
G01 X120.2259 Y134.5661
G01 X120.1878 Y134.5661
G01 X95.3511 Y134.5661
G01 X95.5161 Y134.5661
G01 X95.5161 Y135.3661
G01 X95.6961 Y135.3661
G01 X95.6961 Y134.5661
G01 X95.8761 Y134.5661
G01 X95.8761 Y135.3661
G01 X96.0561 Y135.3661
G01 X96.0561 Y134.5661
G01 X96.2361 Y134.5661
G01 X96.2361 Y135.3661
G01 X96.4161 Y135.3661
G01 X96.4161 Y134.5661
G01 X96.5961 Y134.5661
G01 X96.5961 Y135.3661
G01 X96.7761 Y135.3661
G01 X96.7761 Y134.5661
G01 X96.9561 Y134.5661
G01 X96.9561 Y135.3661
G01 X97.1361 Y135.3661
G01 X97.1361 Y134.5661
G01 X97.3161 Y134.5661
G01 X97.3161 Y135.3661
G01 X97.4961 Y135.3661
G01 X97.4961 Y134.5661
G01 X97.6761 Y134.5661
G01 X97.6761 Y135.3661
G01 X97.8561 Y135.3661
G01 X97.8561 Y134.5661
G01 X98.0361 Y134.5661
G01 X98.0361 Y135.3661
G01 X98.2161 Y135.3661
G01 X98.2161 Y134.5661
G01 X98.3961 Y134.5661
G01 X98.3961 Y135.3661
G01 X98.5761 Y135.3661
G01 X98.5761 Y134.5661
G01 X98.7561 Y134.5661
G01 X98.7561 Y135.3661
G01 X98.9361 Y135.3661
G01 X98.9361 Y134.5661
G01 X99.1161 Y134.5661
G01 X99.1161 Y135.3661
G01 X99.2961 Y135.3661
G01 X99.2961 Y134.5661
G01 X99.4761 Y134.5661
G01 X99.4761 Y135.3661
G01 X99.6561 Y135.3661
G01 X99.6561 Y134.5661
G01 X99.8361 Y134.5661
G01 X99.8361 Y135.3661
G01 X100.0161 Y135.3661
G01 X100.0161 Y134.5661
G01 X100.1961 Y134.5661
G01 X100.1961 Y135.3661
G01 X100.3761 Y135.3661
G01 X100.3761 Y134.5661
G01 X100.5561 Y134.5661
G01 X100.5561 Y135.3661
G01 X100.7361 Y135.3661
G01 X100.7361 Y134.5661
G01 X100.9161 Y134.5661
G01 X100.9161 Y135.3661
G01 X101.0961 Y135.3661
G01 X101.0961 Y134.5661
G01 X101.2761 Y134.5661
G01 X101.2761 Y135.3661
G01 X101.4561 Y135.3661
G01 X101.4561 Y134.5661
G01 X101.6361 Y134.5661
G01 X101.6361 Y135.3661
G01 X101.8161 Y135.3661
G01 X101.8161 Y134.5661
G01 X101.9961 Y134.5661
G01 X101.9961 Y135.3661
G01 X102.1761 Y135.3661
G01 X102.1761 Y134.5661
G01 X102.3561 Y134.5661
G01 X102.3561 Y135.3661
G01 X102.5361 Y135.3661
G01 X102.5361 Y134.5661
G01 X102.7161 Y134.5661
G01 X102.7161 Y135.3661
G01 X102.8961 Y135.3661
G01 X102.8961 Y134.5661
G01 X103.0761 Y134.5661
G01 X103.0761 Y135.3661
G01 X103.2561 Y135.3661
G01 X103.2561 Y134.5661
G01 X103.4361 Y134.5661
G01 X103.4361 Y135.3661
G01 X103.6161 Y135.3661
G01 X103.6161 Y134.5661
G01 X103.7961 Y134.5661
G01 X103.7961 Y135.3661
G01 X103.9761 Y135.3661
G01 X103.9761 Y134.5661
G01 X104.1561 Y134.5661
G01 X104.1561 Y135.3661
G01 X104.3361 Y135.3661
G01 X104.3361 Y134.5661
G01 X104.5161 Y134.5661
G01 X104.5161 Y135.3661
G01 X104.6961 Y135.3661
G01 X104.6961 Y134.5661
G01 X104.8761 Y134.5661
G01 X104.8761 Y135.3661
G01 X105.0561 Y135.3661
G01 X105.0561 Y134.5661
G01 X105.2361 Y134.5661
G01 X105.2361 Y135.3661
G01 X105.4161 Y135.3661
G01 X105.4161 Y134.5661
G01 X105.5961 Y134.5661
G01 X105.5961 Y135.3661
G01 X105.7761 Y135.3661
G01 X105.7761 Y134.5661
G01 X105.9561 Y134.5661
G01 X105.9561 Y135.3661
G01 X106.1361 Y135.3661
G01 X106.1361 Y134.5661
G01 X106.3161 Y134.5661
G01 X106.3161 Y135.3661
G01 X106.4961 Y135.3661
G01 X106.4961 Y134.5661
G01 X106.6761 Y134.5661
G01 X106.6761 Y135.3661
G01 X106.8561 Y135.3661
G01 X106.8561 Y134.5661
G01 X107.0361 Y134.5661
G01 X107.0361 Y135.3661
G01 X107.2161 Y135.3661
G01 X107.2161 Y134.5661
G01 X107.3961 Y134.5661
G01 X107.3961 Y135.3661
G01 X107.5761 Y135.3661
G01 X107.5761 Y134.5661
G01 X107.7561 Y134.5661
G01 X107.7561 Y135.3661
G01 X107.9361 Y135.3661
G01 X107.9361 Y134.5661
G01 X108.1161 Y134.5661
G01 X108.1161 Y135.3661
G01 X108.2961 Y135.3661
G01 X108.2961 Y134.5661
G01 X108.4761 Y134.5661
G01 X108.4761 Y135.3661
G01 X108.6561 Y135.3661
G01 X108.6561 Y134.5661
G01 X108.8361 Y134.5661
G01 X108.8361 Y135.3661
G01 X109.0161 Y135.3661
G01 X109.0161 Y134.5661
G01 X109.1961 Y134.5661
G01 X109.1961 Y135.3661
G01 X109.3761 Y135.3661
G01 X109.3761 Y134.5661
G01 X109.5561 Y134.5661
G01 X109.5561 Y135.3661
G01 X109.7361 Y135.3661
G01 X109.7361 Y134.5661
G01 X109.9161 Y134.5661
G01 X109.9161 Y135.3661
G01 X110.0961 Y135.3661
G01 X110.0961 Y134.5661
G01 X110.2761 Y134.5661
G01 X110.2761 Y135.3661
G01 X110.4561 Y135.3661
G01 X110.4561 Y134.5661
G01 X110.6361 Y134.5661
G01 X110.6361 Y135.3661
G01 X110.8161 Y135.3661
G01 X110.8161 Y134.5661
G01 X110.9961 Y134.5661
G01 X110.9961 Y135.3661
G01 X111.1761 Y135.3661
G01 X111.1761 Y134.5661
G01 X111.3561 Y134.5661
G01 X111.3561 Y135.3661
G01 X111.5361 Y135.3661
G01 X111.5361 Y134.5661
G01 X111.7161 Y134.5661
G01 X111.7161 Y135.3661
G01 X111.8961 Y135.3661
G01 X111.8961 Y134.5661
G01 X112.0761 Y134.5661
G01 X112.0761 Y135.3661
G01 X112.2561 Y135.3661
G01 X112.2561 Y134.5661
G01 X112.4361 Y134.5661
G01 X112.4361 Y135.3661
G01 X112.6161 Y135.3661
G01 X112.6161 Y134.5661
G01 X112.7961 Y134.5661
G01 X112.7961 Y135.3661
G01 X112.9761 Y135.3661
G01 X112.9761 Y134.5661
G01 X113.1561 Y134.5661
G01 X113.1561 Y135.3661
G01 X113.3361 Y135.3661
G01 X113.3361 Y134.5661
G01 X113.5161 Y134.5661
G01 X113.5161 Y135.3661
G01 X113.6961 Y135.3661
G01 X113.6961 Y134.5661
G01 X113.8761 Y134.5661
G01 X113.8761 Y135.3661
G01 X114.0561 Y135.3661
G01 X114.0561 Y134.5661
G01 X114.2361 Y134.5661
G01 X114.2361 Y135.3661
G01 X114.4161 Y135.3661
G01 X114.4161 Y134.5661
G01 X114.5961 Y134.5661
G01 X114.5961 Y135.3661
G01 X114.7761 Y135.3661
G01 X114.7761 Y134.5661
G01 X114.9561 Y134.5661
G01 X114.9561 Y135.3661
G01 X115.1361 Y135.3661
G01 X115.1361 Y134.5661
G01 X115.3161 Y134.5661
G01 X115.3161 Y135.3661
G01 X115.4961 Y135.3661
G01 X115.4961 Y134.5661
G01 X115.6761 Y134.5661
G01 X115.6761 Y135.3661
G01 X115.8561 Y135.3661
G01 X115.8561 Y134.5661
G01 X116.0361 Y134.5661
G01 X116.0361 Y135.3661
G01 X116.2161 Y135.3661
G01 X116.2161 Y134.5661
G01 X116.3961 Y134.5661
G01 X116.3961 Y135.3661
G01 X116.5761 Y135.3661
G01 X116.5761 Y134.5661
G01 X116.7561 Y134.5661
G01 X116.7561 Y135.3661
G01 X116.9361 Y135.3661
G01 X116.9361 Y134.5661
G01 X117.1161 Y134.5661
G01 X117.1161 Y135.3661
G01 X117.2961 Y135.3661
G01 X117.2961 Y134.5661
G01 X117.4761 Y134.5661
G01 X117.4761 Y135.3661
G01 X117.6561 Y135.3661
G01 X117.6561 Y134.5661
G01 X117.8361 Y134.5661
G01 X117.8361 Y135.3661
G01 X118.0161 Y135.3661
G01 X118.0161 Y134.5661
G01 X118.1961 Y134.5661
G01 X118.1961 Y135.3661
G01 X118.3761 Y135.3661
G01 X118.3761 Y134.5661
G01 X118.5561 Y134.5661
G01 X118.5561 Y135.3661
G01 X118.7361 Y135.3661
G01 X118.7361 Y134.5661
G01 X118.9161 Y134.5661
G01 X118.9161 Y135.3661
G01 X119.0961 Y135.3661
G01 X119.0961 Y134.5661
G01 X119.2761 Y134.5661
G01 X119.2761 Y135.3661
G01 X119.4561 Y135.3661
G01 X119.4561 Y134.5661
G01 X119.6361 Y134.5661
G01 X119.6361 Y135.3661
G01 X119.8161 Y135.3661
G01 X119.8161 Y134.5661
G01 X119.9961 Y134.5661
G01 X119.9961 Y135.3661
G01 X120.1761 Y135.3661
G01 X120.1761 Y134.5661
G01 X120.3561 Y134.5762
G01 X120.3561 Y135.3949
G00 Z0.0200
G00 X120.5361 Y135.5050
G01 F60.00
G01 Z-0.0200
G01 F2000.00
G01 X120.5361 Y134.6133
G01 X120.7161 Y134.6773
G01 X120.7161 Y138.0217
G01 X120.8961 Y138.3335
G01 X120.8961 Y134.7746
G01 X121.0761 Y134.9146
G01 X121.0761 Y138.5944
G01 X121.2561 Y138.7744
G01 X121.2561 Y135.1211
G01 X121.4361 Y135.4610
G01 X121.4361 Y139.1479
G00 Z0.0200
G00 X121.4361 Y139.1569
G01 F60.00
G01 Z-0.0200
G01 F2000.00
G01 X121.4361 Y139.1686
G00 Z0.0200
G00 X121.4361 Y139.1816
G01 F60.00
G01 Z-0.0200
G01 F2000.00
G01 X121.4361 Y140.2834
G01 X121.6161 Y140.2834
G01 X121.6161 Y135.8543
G01 X121.7961 Y136.2475
G01 X121.7961 Y140.2856
G00 Z0.0200
G00 X121.9761 Y140.3371
G01 F60.00
G01 Z-0.0200
G01 F2000.00
G01 X121.9761 Y136.6408
G01 X122.1561 Y137.0340
G01 X122.1561 Y140.4797
G01 X122.3361 Y140.6597
G01 X122.3361 Y137.4272
G01 X122.5161 Y137.8205
G01 X122.5161 Y140.8397
G01 X122.6961 Y141.0197
G01 X122.6961 Y138.2137
G01 X122.8761 Y138.6070
G01 X122.8761 Y141.1997
G01 X123.0561 Y141.3797
G01 X123.0561 Y139.0002
G01 X123.2361 Y139.3934
G01 X123.2361 Y141.5597
G00 Z0.0200
G00 X123.4161 Y141.7445
G01 F60.00
G01 Z-0.0200
G01 F2000.00
G01 X123.4161 Y139.7867
G01 X123.5961 Y140.1799
G01 X123.5961 Y161.6095
G01 X123.4161 Y161.9695
G01 X123.4161 Y160.1806
G01 X123.2361 Y160.5406
G01 X123.2361 Y162.3295
G01 X123.0561 Y162.6895
G01 X123.0561 Y160.9006
G01 X122.8761 Y161.2606
G01 X122.8761 Y163.0420
G01 X122.6961 Y163.2825
G01 X122.6961 Y161.6206
G01 X122.5161 Y161.9806
G01 X122.5161 Y163.4384
G01 X122.3361 Y163.5475
G01 X122.3361 Y162.3406
G00 Z0.0200
G00 X122.1561 Y162.6823
G01 F60.00
G01 Z-0.0200
G01 F2000.00
G01 X122.1561 Y163.6382
G01 X121.9761 Y163.7288
G01 X121.9761 Y162.8328
G00 Z0.0200
G00 X121.7961 Y162.8844
G01 F60.00
G01 Z-0.0200
G01 F2000.00
G01 X121.7961 Y163.8195
G01 X121.6161 Y163.9102
G01 X121.6161 Y162.8866
G01 X121.4361 Y162.8866
G01 X121.4361 Y164.0009
G01 X121.2561 Y164.0916
G01 X121.2561 Y162.8866
G01 X121.0761 Y162.8866
G01 X121.0761 Y164.1823
G01 X120.8961 Y164.2729
G01 X120.8961 Y162.8866
G01 X120.7161 Y162.8866
G01 X120.7161 Y164.3636
G01 X120.5361 Y164.4543
G01 X120.5361 Y162.8866
G01 X120.3561 Y162.8866
G01 X120.3561 Y164.5450
G01 X120.1761 Y164.6357
G01 X120.1761 Y162.8866
G01 X119.9961 Y162.8866
G01 X119.9961 Y164.7264
G01 X119.8161 Y164.8170
G01 X119.8161 Y162.8866
G01 X119.6361 Y162.8866
G01 X119.6361 Y164.9077
G01 X119.4561 Y164.9984
G01 X119.4561 Y162.8866
G01 X119.2761 Y162.8866
G01 X119.2761 Y165.0891
G01 X119.0961 Y165.1798
G01 X119.0961 Y162.8866
G01 X118.9161 Y162.8866
G01 X118.9161 Y165.2705
G01 X118.7361 Y165.3611
G01 X118.7361 Y162.8866
G01 X118.5561 Y162.8866
G01 X118.5561 Y165.4518
G01 X118.3761 Y165.5425
G01 X118.3761 Y162.8866
G01 X118.1961 Y162.8866
G01 X118.1961 Y165.6332
G01 X118.0161 Y165.7239
G01 X118.0161 Y162.8866
G00 Z0.0200
G00 X117.8361 Y162.8757
G01 F60.00
G01 Z-0.0200
G01 F2000.00
G01 X117.8361 Y165.8145
G01 X117.6561 Y165.9052
G01 X117.6561 Y162.7995
G00 Z0.0200
G00 X117.4761 Y162.6325
G01 F60.00
G01 Z-0.0200
G01 F2000.00
G01 X117.4761 Y165.9959
G01 X117.2961 Y166.0866
G01 X117.2961 Y162.4525
G01 X117.1161 Y162.2725
G01 X117.1161 Y166.1773
G01 X116.9361 Y166.2680
G01 X116.9361 Y162.0925
G01 X116.7561 Y161.9125
G01 X116.7561 Y166.3586
G01 X116.5761 Y166.4493
G01 X116.5761 Y161.7325
G01 X116.3961 Y161.5525
G01 X116.3961 Y166.5400
G01 X116.2161 Y166.6307
G01 X116.2161 Y161.3725
G01 X116.0361 Y161.1925
G01 X116.0361 Y166.7214
G01 X115.8561 Y166.8121
G01 X115.8561 Y161.0125
G01 X115.6761 Y160.8325
G01 X115.6761 Y166.9027
G01 X115.4961 Y166.9934
G01 X115.4961 Y160.6525
G01 X115.3161 Y160.4725
G01 X115.3161 Y167.0841
G01 X115.1361 Y167.1748
G01 X115.1361 Y160.3466
G01 X114.9561 Y160.3466
G01 X114.9561 Y167.2655
G01 X114.7761 Y167.3562
G01 X114.7761 Y160.3466
G01 X114.5961 Y160.3466
G01 X114.5961 Y167.4468
G01 X114.4161 Y167.5375
G01 X114.4161 Y160.3466
G01 X114.2361 Y160.3466
G01 X114.2361 Y167.6282
G01 X114.0561 Y167.6947
G01 X114.0561 Y160.3282
G00 Z0.0200
G00 X113.8761 Y160.2400
G01 F60.00
G01 Z-0.0200
G01 F2000.00
G01 X113.8761 Y162.9267
G00 Z0.0200
G00 X113.6961 Y162.9200
G01 F60.00
G01 Z-0.0200
G01 F2000.00
G01 X113.6961 Y160.2400
G01 X113.5161 Y160.2400
G01 X113.5161 Y162.9200
G01 X113.3361 Y162.9200
G01 X113.3361 Y160.2400
G01 X113.1561 Y160.2400
G01 X113.1561 Y162.9200
G01 X112.9761 Y162.8897
G01 X112.9761 Y159.1703
G01 X113.1561 Y159.0766
G01 X113.1561 Y159.4400
G01 X113.3361 Y159.4400
G01 X113.3361 Y159.0766
G01 X113.5161 Y159.0766
G01 X113.5161 Y159.4400
G01 X113.6961 Y159.4400
G01 X113.6961 Y159.0766
G01 X113.8761 Y159.0766
G01 X113.8761 Y159.4400
G00 Z0.0200
G00 X114.0561 Y159.3518
G01 F60.00
G01 Z-0.0200
G01 F2000.00
G01 X114.0561 Y159.0766
G01 X114.2361 Y159.0766
G01 X114.2361 Y159.3334
G01 X114.4161 Y159.3334
G01 X114.4161 Y159.0766
G01 X114.5961 Y159.0766
G01 X114.5961 Y159.3334
G01 X114.7761 Y159.3334
G01 X114.7761 Y159.0766
G01 X114.9561 Y159.0766
G01 X114.9561 Y159.3334
G01 X115.1361 Y159.3334
G01 X115.1361 Y159.0766
G01 X115.3161 Y159.0766
G01 X115.3161 Y159.3334
G00 Z0.0200
G00 X115.4961 Y159.3426
G01 F60.00
G01 Z-0.0200
G01 F2000.00
G01 X115.4961 Y159.0766
G01 X115.6761 Y159.0766
G01 X115.6761 Y159.4154
G00 Z0.0200
G00 X115.8561 Y159.5797
G01 F60.00
G01 Z-0.0200
G01 F2000.00
G01 X115.8561 Y159.0766
G01 X116.0361 Y159.0766
G01 X116.0361 Y159.7597
G01 X116.2161 Y159.9397
G01 X116.2161 Y159.0766
G01 X116.3961 Y159.0766
G01 X116.3961 Y160.1197
G01 X116.5761 Y160.2997
G01 X116.5761 Y159.1925
G01 X116.7561 Y159.3725
G01 X116.7561 Y160.4797
G01 X116.9361 Y160.6597
G01 X116.9361 Y159.5525
G01 X117.1161 Y159.7325
G01 X117.1161 Y160.8397
G01 X117.2961 Y161.0197
G01 X117.2961 Y159.9125
G01 X117.4761 Y160.0925
G01 X117.4761 Y161.1997
G01 X117.6561 Y161.3797
G01 X117.6561 Y160.2595
G00 Z0.0200
G00 X117.8361 Y160.3357
G01 F60.00
G01 Z-0.0200
G01 F2000.00
G01 X117.8361 Y161.5597
G01 X118.0161 Y161.7397
G01 X118.0161 Y160.3466
G01 X118.1961 Y160.3466
G01 X118.1961 Y161.8734
G01 X118.3761 Y161.8734
G01 X118.3761 Y160.3466
G01 X118.5561 Y160.3466
G01 X118.5561 Y161.8734
G01 X118.7361 Y161.8734
G01 X118.7361 Y160.3466
G01 X118.9161 Y160.3466
G01 X118.9161 Y161.8734
G01 X119.0961 Y161.8734
G01 X119.0961 Y160.3466
G01 X119.2761 Y160.3466
G01 X119.2761 Y161.8734
G01 X119.4561 Y161.8734
G01 X119.4561 Y160.3466
G01 X119.6361 Y160.3466
G01 X119.6361 Y161.8734
G01 X119.8161 Y161.8734
G01 X119.8161 Y160.3466
G01 X119.9961 Y160.3466
G01 X119.9961 Y161.8734
G01 X120.1761 Y161.8734
G01 X120.1761 Y160.3466
G01 X120.3561 Y160.3466
G01 X120.3561 Y161.8734
G01 X120.5361 Y161.8734
G01 X120.5361 Y160.3433
G00 Z0.0200
G00 X120.7161 Y160.2882
G01 F60.00
G01 Z-0.0200
G01 F2000.00
G01 X120.7161 Y161.8734
G01 X120.8961 Y161.8734
G01 X120.8961 Y160.1403
G01 X121.0761 Y159.9603
G01 X121.0761 Y161.8734
G01 X121.2561 Y161.8734
G01 X121.2561 Y159.7803
G01 X121.4361 Y159.6003
G01 X121.4361 Y161.8734
G01 X121.6161 Y161.5150
G01 X121.6161 Y159.4203
G01 X121.7961 Y159.2403
G01 X121.7961 Y161.1550
G01 X121.9761 Y160.7950
G01 X121.9761 Y159.0603
G00 Z0.0200
G00 X122.1561 Y158.8720
G01 F60.00
G01 Z-0.0200
G01 F2000.00
G01 X122.1561 Y160.4350
G01 X122.3361 Y160.0750
G01 X122.3361 Y142.0925
G01 X122.1561 Y141.9125
G01 X122.1561 Y145.5680
G00 Z0.0200
G00 X121.9761 Y145.3797
G01 F60.00
G01 Z-0.0200
G01 F2000.00
G01 X121.9761 Y141.7325
G01 X121.7961 Y141.5525
G01 X121.7961 Y145.1997
G01 X121.6161 Y145.0197
G01 X121.6161 Y141.3725
G01 X121.4361 Y141.2966
G01 X121.4361 Y144.8397
G01 X121.2561 Y144.6597
G01 X121.2561 Y141.2966
G01 X121.0761 Y141.2966
G01 X121.0761 Y144.4797
G01 X120.8961 Y144.2997
G01 X120.8961 Y141.2966
G01 X120.7161 Y141.2966
G01 X120.7161 Y144.1015
G01 X120.5361 Y143.8970
G01 X120.5361 Y141.2966
G01 X120.3561 Y141.2966
G01 X120.3561 Y143.6926
G00 Z0.0200
G00 X119.6361 Y144.4081
G01 F60.00
G01 Z-0.0200
G01 F2000.00
G01 X119.6361 Y145.3390
G00 Z0.0200
G00 X119.8161 Y145.5292
G01 F60.00
G01 Z-0.0200
G01 F2000.00
G01 X119.8161 Y144.6125
G01 X119.9961 Y144.8170
G01 X119.9961 Y145.6990
G01 X120.1761 Y145.8790
G01 X120.1761 Y145.0125
G01 X120.3561 Y145.1925
G01 X120.3561 Y146.0590
G00 Z0.0200
G00 X120.5361 Y146.2498
G01 F60.00
G01 Z-0.0200
G01 F2000.00
G01 X120.5361 Y145.3725
G01 X120.7161 Y145.5525
G01 X120.7161 Y158.8875
G01 X120.5361 Y159.0675
G01 X120.5361 Y148.3843
G00 Z0.0200
G00 X120.3561 Y148.5388
G01 F60.00
G01 Z-0.0200
G01 F2000.00
G01 X120.3561 Y159.2475
G01 X120.1761 Y159.3334
G01 X120.1761 Y157.7024
G00 Z0.0200
G00 X119.9961 Y157.9845
G01 F60.00
G01 Z-0.0200
G01 F2000.00
G01 X119.9961 Y159.3334
G01 X119.8161 Y159.3334
G01 X119.8161 Y158.1487
G00 Z0.0200
G00 X119.6361 Y158.2549
G01 F60.00
G01 Z-0.0200
G01 F2000.00
G01 X119.6361 Y159.3334
G01 X119.4561 Y159.3334
G01 X119.4561 Y158.3210
G00 Z0.0200
G00 X119.2761 Y158.3547
G01 F60.00
G01 Z-0.0200
G01 F2000.00
G01 X119.2761 Y159.3334
G01 X119.0961 Y159.3334
G01 X119.0961 Y158.3564
G00 Z0.0200
G00 X118.9161 Y158.3291
G01 F60.00
G01 Z-0.0200
G01 F2000.00
G01 X118.9161 Y159.3334
G01 X118.7361 Y159.3334
G01 X118.7361 Y158.2702
G00 Z0.0200
G00 X118.5561 Y158.1727
G01 F60.00
G01 Z-0.0200
G01 F2000.00
G01 X118.5561 Y159.3334
G01 X118.3761 Y159.3334
G01 X118.3761 Y158.0203
G00 Z0.0200
G00 X118.1961 Y157.7744
G01 F60.00
G01 Z-0.0200
G01 F2000.00
G01 X118.1961 Y159.3334
G01 X118.0161 Y159.1997
G01 X118.0161 Y157.7758
G01 X117.8361 Y157.7773
G01 X117.8361 Y159.0197
G01 X117.6561 Y158.8397
G01 X117.6561 Y157.7787
G01 X117.4761 Y157.7802
G01 X117.4761 Y158.6597
G01 X117.2961 Y158.4797
G01 X117.2961 Y157.7816
G01 X117.1161 Y157.7831
G01 X117.1161 Y158.2997
G00 Z0.0200
G00 X116.9361 Y158.1394
G01 F60.00
G01 Z-0.0200
G01 F2000.00
G01 X116.9361 Y157.7845
G01 X116.7561 Y157.7860
G01 X116.7561 Y158.0711
G00 Z0.0200
G00 X116.5761 Y158.0634
G01 F60.00
G01 Z-0.0200
G01 F2000.00
G01 X116.5761 Y157.7874
G01 X116.3961 Y157.7889
G01 X116.3961 Y158.0634
G01 X116.2161 Y158.0634
G01 X116.2161 Y157.7903
G01 X116.0361 Y157.7918
G01 X116.0361 Y158.0634
G01 X115.8561 Y158.0634
G01 X115.8561 Y157.7932
G01 X115.6761 Y157.7947
G01 X115.6761 Y158.0634
G01 X115.4961 Y158.0634
G01 X115.4961 Y157.7961
G01 X115.3161 Y157.7976
G01 X115.3161 Y158.0634
G01 X115.1361 Y158.0634
G01 X115.1361 Y157.7990
G01 X114.9561 Y157.8005
G01 X114.9561 Y158.0634
G01 X114.7761 Y158.0634
G01 X114.7761 Y157.8019
G01 X114.5961 Y157.8033
G01 X114.5961 Y158.0634
G01 X114.4161 Y158.0634
G01 X114.4161 Y157.8048
G01 X114.2361 Y157.8062
G01 X114.2361 Y158.0634
G01 X114.0561 Y158.0634
G01 X114.0561 Y157.7883
G00 Z0.0200
G00 X113.8761 Y157.7000
G01 F60.00
G01 Z-0.0200
G01 F2000.00
G01 X113.8761 Y158.0634
G01 X113.6961 Y158.0634
G01 X113.6961 Y157.7000
G01 X113.5161 Y157.7000
G01 X113.5161 Y158.0634
G01 X113.3361 Y158.0634
G01 X113.3361 Y157.7000
G01 X113.1561 Y157.7000
G01 X113.1561 Y158.0634
G01 X112.9761 Y158.0634
G01 X112.9761 Y155.2666
G01 X113.1561 Y155.2666
G01 X113.1561 Y155.6300
G01 X113.3361 Y155.6300
G01 X113.3361 Y155.2666
G01 X113.5161 Y155.2666
G01 X113.5161 Y155.6300
G01 X113.6961 Y155.6300
G01 X113.6961 Y155.2666
G01 X113.8761 Y155.2666
G01 X113.8761 Y155.6300
G00 Z0.0200
G00 X114.0561 Y155.5418
G01 F60.00
G01 Z-0.0200
G01 F2000.00
G01 X114.0561 Y155.2666
G00 Z0.0200
G00 X114.2361 Y155.2644
G01 F60.00
G01 Z-0.0200
G01 F2000.00
G01 X114.2361 Y155.5234
G01 X114.4161 Y155.5234
G01 X114.4161 Y155.2129
G01 X114.5961 Y155.1600
G01 X114.5961 Y155.5234
G01 X114.7761 Y155.5234
G01 X114.7761 Y155.1600
G01 X114.9561 Y155.1600
G01 X114.9561 Y155.5234
G01 X115.1361 Y155.5234
G01 X115.1361 Y155.1600
G00 Z0.0200
G00 X115.3161 Y155.1565
G01 F60.00
G01 Z-0.0200
G01 F2000.00
G01 X115.3161 Y155.5056
G01 X115.4961 Y155.4156
G01 X115.4961 Y153.9874
G00 Z0.0200
G00 X115.3161 Y153.9966
G01 F60.00
G01 Z-0.0200
G01 F2000.00
G01 X115.3161 Y154.3635
G00 Z0.0200
G00 X115.1361 Y154.3600
G01 F60.00
G01 Z-0.0200
G01 F2000.00
G01 X115.1361 Y153.9966
G01 X114.9561 Y153.9966
G01 X114.9561 Y154.3600
G01 X114.7761 Y154.3600
G01 X114.7761 Y153.9966
G01 X114.5961 Y153.9966
G01 X114.5961 Y154.3600
G01 X114.4161 Y154.3071
G01 X114.4161 Y153.9966
G01 X114.2361 Y153.9966
G01 X114.2361 Y154.2556
G00 Z0.0200
G00 X114.0561 Y154.2534
G01 F60.00
G01 Z-0.0200
G01 F2000.00
G01 X114.0561 Y153.9782
G00 Z0.0200
G00 X113.8761 Y153.8900
G01 F60.00
G01 Z-0.0200
G01 F2000.00
G01 X113.8761 Y154.2534
G01 X113.6961 Y154.2534
G01 X113.6961 Y153.8900
G01 X113.5161 Y153.8900
G01 X113.5161 Y154.2534
G01 X113.3361 Y154.2534
G01 X113.3361 Y153.8900
G01 X113.1561 Y153.8900
G01 X113.1561 Y154.2534
G01 X112.9761 Y154.1597
G01 X112.9761 Y149.2425
G01 X112.7961 Y149.0625
G01 X112.7961 Y153.9797
G01 X112.6161 Y153.7997
G01 X112.6161 Y148.8825
G00 Z0.0200
G00 X112.4361 Y148.6872
G01 F60.00
G01 Z-0.0200
G01 F2000.00
G01 X112.4361 Y153.6197
G01 X112.2561 Y153.4397
G01 X112.2561 Y145.9825
G01 X112.0761 Y145.8025
G01 X112.0761 Y150.8082
G00 Z0.0200
G00 X111.8961 Y150.5466
G01 F60.00
G01 Z-0.0200
G01 F2000.00
G01 X111.8961 Y145.6225
G01 X111.7161 Y145.4425
G01 X111.7161 Y150.4467
G01 X111.5361 Y150.3567
G01 X111.5361 Y145.2625
G01 X111.3561 Y145.0825
G01 X111.3561 Y150.2667
G01 X111.1761 Y150.1767
G01 X111.1761 Y144.9025
G01 X110.9961 Y144.7225
G01 X110.9961 Y150.0867
G01 X110.8161 Y149.9967
G01 X110.8161 Y144.5425
G01 X110.6361 Y144.3625
G01 X110.6361 Y149.9067
G01 X110.4561 Y149.8167
G01 X110.4561 Y144.1825
G01 X110.2761 Y144.0025
G01 X110.2761 Y149.7267
G01 X110.0961 Y149.6367
G01 X110.0961 Y143.8435
G01 X109.9161 Y143.8489
G01 X109.9161 Y144.8180
G01 X109.7361 Y144.8180
G01 X109.7361 Y143.8543
G01 X109.5561 Y143.8597
G01 X109.5561 Y144.8180
G01 X109.3761 Y144.8180
G01 X109.3761 Y143.8651
G01 X109.1961 Y143.8705
G01 X109.1961 Y144.8180
G01 X109.0161 Y144.8180
G01 X109.0161 Y143.8758
G01 X108.8361 Y143.8812
G01 X108.8361 Y144.8180
G01 X108.6561 Y144.8180
G01 X108.6561 Y143.8866
G01 X108.4761 Y143.8920
G01 X108.4761 Y144.8180
G01 X108.2961 Y144.8180
G01 X108.2961 Y143.8974
G01 X108.1161 Y143.9028
G01 X108.1161 Y144.8234
G00 Z0.0200
G00 X107.9361 Y144.8071
G01 F60.00
G01 Z-0.0200
G01 F2000.00
G01 X107.9361 Y143.9082
G01 X107.7561 Y143.9135
G01 X107.7561 Y144.6121
G00 Z0.0200
G00 X107.5761 Y144.5425
G01 F60.00
G01 Z-0.0200
G01 F2000.00
G01 X107.5761 Y143.9189
G01 X107.3961 Y143.9243
G01 X107.3961 Y144.5372
G01 X107.2161 Y144.5427
G01 X107.2161 Y143.9297
G01 X107.0361 Y143.9351
G01 X107.0361 Y144.5509
G00 Z0.0200
G00 X106.8561 Y144.6072
G01 F60.00
G01 Z-0.0200
G01 F2000.00
G01 X106.8561 Y143.9405
G01 X106.6761 Y143.9459
G01 X106.6761 Y144.7556
G01 X106.4961 Y144.9067
G01 X106.4961 Y143.9512
G01 X106.3161 Y143.9566
G01 X106.3161 Y144.9813
G01 X106.1361 Y144.9949
G01 X106.1361 Y144.3820
G01 X105.9561 Y144.3820
G01 X105.9561 Y144.9949
G01 X105.7761 Y144.9949
G01 X105.7761 Y144.3820
G01 X105.5961 Y144.3820
G01 X105.5961 Y144.9949
G01 X105.4161 Y144.9949
G01 X105.4161 Y144.3820
G01 X105.2361 Y144.3820
G01 X105.2361 Y144.9949
G01 X105.0561 Y144.9949
G01 X105.0561 Y144.3820
G01 X104.8761 Y144.3820
G01 X104.8761 Y144.9949
G01 X104.6961 Y144.9949
G01 X104.6961 Y144.3820
G01 X104.5161 Y144.3820
G01 X104.5161 Y144.9949
G01 X104.3361 Y144.9949
G01 X104.3361 Y144.3820
G01 X104.1561 Y144.9781
G01 X104.1561 Y143.3365
G01 X103.9761 Y143.2093
G01 X103.9761 Y144.9035
G01 X103.7961 Y144.7478
G01 X103.7961 Y143.0821
G01 X103.6161 Y142.9549
G01 X103.6161 Y143.8767
G00 Z0.0200
G00 X103.4361 Y143.5802
G01 F60.00
G01 Z-0.0200
G01 F2000.00
G01 X103.4361 Y142.8277
G01 X103.2561 Y142.7006
G01 X103.2561 Y143.4507
G01 X103.0761 Y143.3235
G01 X103.0761 Y142.5734
G01 X102.8961 Y142.4462
G01 X102.8961 Y143.1964
G01 X102.7161 Y143.0692
G01 X102.7161 Y142.3190
G01 X102.5361 Y142.1918
G01 X102.5361 Y142.9420
G01 X102.3561 Y142.8148
G01 X102.3561 Y142.0646
G01 X102.1761 Y141.9375
G01 X102.1761 Y142.6876
G00 Z0.0200
G00 X101.9961 Y142.5651
G01 F60.00
G01 Z-0.0200
G01 F2000.00
G01 X101.9961 Y141.8103
G01 X101.9346 Y141.7668
G01 X101.8510 Y141.8063
G01 X101.7540 Y141.8411
G01 X101.7446 Y141.8439
G01 X101.6494 Y141.8678
G01 X101.6398 Y141.8697
G01 X101.5378 Y141.8847
G01 X101.4300 Y141.8900
G01 X101.3222 Y141.8847
G01 X101.2154 Y141.8689
G01 X101.1107 Y141.8426
G01 X101.0136 Y141.8080
G01 X101.0068 Y141.8053
G01 X100.9115 Y141.7601
G01 X100.8230 Y141.7072
G01 X100.8149 Y141.7018
G01 X100.7322 Y141.6403
G01 X100.6557 Y141.5712
G01 X100.6488 Y141.5643
G01 X100.5829 Y141.4915
G01 X100.5767 Y141.4840
G01 X100.5154 Y141.4011
G01 X100.4599 Y141.3085
G01 X100.4137 Y141.2110
G01 X100.3774 Y141.1093
G01 X100.3511 Y141.0046
G01 X100.3353 Y140.8978
G01 X100.3300 Y140.7900
G01 X100.3353 Y140.6822
G01 X100.3511 Y140.5754
G01 X100.3774 Y140.4707
G01 X100.4137 Y140.3690
G01 X100.4599 Y140.2715
G01 X100.5154 Y140.1789
G01 X100.5797 Y140.0922
G01 X100.6522 Y140.0122
G01 X100.7322 Y139.9397
G01 X100.8189 Y139.8754
G01 X100.9115 Y139.8199
G01 X101.0090 Y139.7737
G01 X101.1107 Y139.7374
G01 X101.2106 Y139.7122
G01 X101.2202 Y139.7103
G01 X101.3222 Y139.6953
G01 X101.4251 Y139.6901
G01 X101.4349 Y139.6901
G01 X101.5378 Y139.6953
G01 X101.6446 Y139.7111
G01 X101.7493 Y139.7374
G01 X101.8464 Y139.7720
G01 X101.8554 Y139.7757
G01 X101.9485 Y139.8199
G01 X102.0370 Y139.8728
G01 X102.0451 Y139.8782
G01 X102.1259 Y139.9382
G01 X102.1315 Y139.9429
G01 X102.2078 Y140.0122
G01 X102.2771 Y140.0885
G01 X102.2833 Y140.0960
G01 X102.3446 Y140.1789
G01 X102.3977 Y140.2672
G01 X102.4023 Y140.2758
G01 X102.4443 Y140.3646
G01 X102.4472 Y140.3713
G01 X102.4811 Y140.4660
G01 X102.4839 Y140.4754
G01 X102.5089 Y140.5754
G01 X102.5244 Y140.6797
G01 X102.5251 Y140.6871
G01 X102.5299 Y140.7851
G01 X102.5300 Y140.7925
G01 X102.5249 Y140.8954
G01 X102.5187 Y140.9389
G01 X104.8441 Y142.5820
G01 X106.1415 Y142.5820
G01 X106.1537 Y142.5828
G01 X106.1658 Y142.5850
G01 X106.1729 Y142.5870
G01 X106.1798 Y142.5896
G01 X106.1865 Y142.5927
G01 X106.1929 Y142.5962
G01 X106.1991 Y142.6002
G01 X106.2049 Y142.6047
G01 X106.2139 Y142.6130
G01 X106.2218 Y142.6224
G01 X106.2260 Y142.6285
G01 X106.2297 Y142.6349
G01 X106.2329 Y142.6415
G01 X106.2357 Y142.6483
G01 X106.2379 Y142.6553
G01 X106.2396 Y142.6625
G01 X106.2410 Y142.6722
G01 X106.2415 Y142.6820
G01 X106.2415 Y142.9452
G01 X110.3074 Y142.8236
G01 X110.3564 Y142.8247
G01 X110.4026 Y142.8303
G01 X110.4127 Y142.8320
G01 X110.4530 Y142.8413
G01 X110.4628 Y142.8441
G01 X110.5068 Y142.8591
G01 X110.5538 Y142.8806
G01 X110.5983 Y142.9067
G01 X110.6359 Y142.9341
G01 X110.6438 Y142.9405
G01 X110.6782 Y142.9718
G01 X113.2182 Y145.5118
G01 X113.2516 Y145.5486
G01 X113.2784 Y145.5845
G01 X113.2839 Y145.5927
G01 X113.3079 Y145.6334
G01 X113.3261 Y145.6716
G01 X113.3298 Y145.6807
G01 X113.3448 Y145.7229
G01 X113.3558 Y145.7664
G01 X113.3577 Y145.7760
G01 X113.3642 Y145.8203
G01 X113.3666 Y145.8675
G01 X113.3666 Y148.2002
G01 X114.4899 Y149.3235
G01 X114.5207 Y149.3575
G01 X114.5496 Y149.3961
G01 X114.5747 Y149.4372
G01 X114.5948 Y149.4784
G01 X114.6126 Y149.5258
G01 X114.6250 Y149.5724
G01 X114.6330 Y149.6199
G01 X114.6364 Y149.6657
G01 X114.6873 Y151.8200
G01 X115.2949 Y151.8201
G01 X115.3047 Y151.8211
G01 X115.3143 Y151.8230
G01 X115.3237 Y151.8258
G01 X115.3328 Y151.8296
G01 X115.3414 Y151.8342
G01 X115.3496 Y151.8397
G01 X115.3572 Y151.8459
G01 X115.3641 Y151.8528
G01 X115.3703 Y151.8604
G01 X115.3745 Y151.8665
G01 X115.3793 Y151.8750
G01 X115.3833 Y151.8840
G01 X115.3864 Y151.8933
G01 X115.3881 Y151.9005
G01 X115.3895 Y151.9102
G01 X115.3900 Y151.9200
G01 X115.3900 Y152.5225
G01 X115.3892 Y152.5322
G01 X115.3881 Y152.5395
G01 X115.3864 Y152.5467
G01 X115.3842 Y152.5537
G01 X115.3814 Y152.5605
G01 X115.3782 Y152.5671
G01 X115.3745 Y152.5735
G01 X115.3703 Y152.5796
G01 X115.3641 Y152.5872
G01 X115.3553 Y152.5957
G01 X115.3456 Y152.6031
G01 X115.3371 Y152.6082
G01 X115.3260 Y152.6133
G01 X115.3167 Y152.6164
G01 X115.3047 Y152.6189
G01 X115.2949 Y152.6199
G01 X114.5001 Y152.6200
G01 X114.4793 Y152.6358
G01 X114.4371 Y152.6622
G01 X114.3949 Y152.6833
G01 X114.3508 Y152.7004
G01 X114.3053 Y152.7132
G01 X114.2957 Y152.7153
G01 X114.2515 Y152.7229
G01 X114.1995 Y152.7265
G01 X114.1523 Y152.7252
G01 X114.1029 Y152.7191
G01 X114.0544 Y152.7081
G01 X114.0119 Y152.6941
G01 X114.0027 Y152.6906
G01 X113.9662 Y152.6744
G01 X113.9575 Y152.6700
G01 X113.9186 Y152.6478
G01 X113.8791 Y152.6200
G01 X113.0851 Y152.6199
G01 X113.0729 Y152.6185
G01 X113.0610 Y152.6157
G01 X113.0495 Y152.6114
G01 X113.0386 Y152.6058
G01 X113.0285 Y152.5988
G01 X113.0193 Y152.5907
G01 X113.0112 Y152.5815
G01 X113.0042 Y152.5714
G01 X112.9986 Y152.5605
G01 X112.9943 Y152.5490
G01 X112.9924 Y152.5419
G01 X112.9911 Y152.5347
G01 X112.9900 Y152.5225
G01 X112.9900 Y151.9175
G01 X112.9908 Y151.9078
G01 X112.9919 Y151.9005
G01 X112.9943 Y151.8910
G01 X112.9976 Y151.8817
G01 X113.0007 Y151.8750
G01 X113.0055 Y151.8665
G01 X113.0112 Y151.8585
G01 X113.0159 Y151.8528
G01 X113.0228 Y151.8459
G01 X113.0304 Y151.8397
G01 X113.0386 Y151.8342
G01 X113.0472 Y151.8296
G01 X113.0563 Y151.8258
G01 X113.0657 Y151.8230
G01 X113.0753 Y151.8211
G01 X113.0851 Y151.8201
G01 X113.6738 Y151.8200
G01 X113.6283 Y149.8948
G01 X112.5001 Y148.7665
G01 X112.4684 Y148.7314
G01 X112.4416 Y148.6955
G01 X112.4361 Y148.6873
G01 X112.4132 Y148.6488
G01 X112.3939 Y148.6084
G01 X112.3902 Y148.5993
G01 X112.3760 Y148.5594
G01 X112.3642 Y148.5136
G01 X112.3623 Y148.5040
G01 X112.3558 Y148.4597
G01 X112.3534 Y148.4100
G01 X112.3534 Y146.0798
G01 X110.1165 Y143.8429
G01 X106.2415 Y143.9589
G01 X106.2415 Y144.2820
G01 X106.2410 Y144.2918
G01 X106.2400 Y144.2991
G01 X106.2385 Y144.3063
G01 X106.2365 Y144.3134
G01 X106.2339 Y144.3203
G01 X106.2308 Y144.3270
G01 X106.2273 Y144.3334
G01 X106.2233 Y144.3396
G01 X106.2188 Y144.3454
G01 X106.2139 Y144.3510
G01 X106.2087 Y144.3561
G01 X106.2030 Y144.3608
G01 X106.1971 Y144.3651
G01 X106.1908 Y144.3690
G01 X106.1843 Y144.3724
G01 X106.1775 Y144.3753
G01 X106.1705 Y144.3777
G01 X106.1634 Y144.3796
G01 X106.1513 Y144.3815
G01 X106.1415 Y144.3820
G01 X104.3385 Y144.3820
G01 X104.3263 Y144.3812
G01 X104.3142 Y144.3790
G01 X104.3071 Y144.3770
G01 X104.3002 Y144.3744
G01 X104.2935 Y144.3713
G01 X104.2871 Y144.3678
G01 X104.2789 Y144.3623
G01 X104.2732 Y144.3577
G01 X104.2678 Y144.3527
G01 X104.2628 Y144.3473
G01 X104.2582 Y144.3416
G01 X104.2527 Y144.3334
G01 X104.2492 Y144.3270
G01 X104.2461 Y144.3203
G01 X104.2435 Y144.3134
G01 X104.2415 Y144.3063
G01 X104.2396 Y144.2967
G01 X104.2388 Y144.2894
G01 X104.2385 Y144.2820
G01 X104.2385 Y143.3947
G01 X101.9346 Y141.7668
G00 Z0.0200
G00 X101.8161 Y141.8189
G01 F60.00
G01 Z-0.0200
G01 F2000.00
G01 X101.8161 Y142.5078
G00 Z0.0200
G00 X101.6361 Y142.5029
G01 F60.00
G01 Z-0.0200
G01 F2000.00
G01 X101.6361 Y141.8702
G00 Z0.0200
G00 X101.4561 Y141.8888
G01 F60.00
G01 Z-0.0200
G01 F2000.00
G01 X101.4561 Y142.5029
G01 X101.2761 Y142.5029
G01 X101.2761 Y141.8780
G00 Z0.0200
G00 X101.0961 Y141.8375
G01 F60.00
G01 Z-0.0200
G01 F2000.00
G01 X101.0961 Y142.5029
G01 X100.9161 Y142.4312
G01 X100.9161 Y141.7624
G00 Z0.0200
G00 X100.7361 Y141.6434
G01 F60.00
G01 Z-0.0200
G01 F2000.00
G01 X100.7361 Y142.3566
G01 X100.5561 Y142.2820
G01 X100.5561 Y141.4562
G00 Z0.0200
G00 X100.3761 Y141.1047
G01 F60.00
G01 Z-0.0200
G01 F2000.00
G01 X100.3761 Y142.1585
G01 X100.1961 Y141.9785
G01 X100.1961 Y139.6015
G01 X100.0161 Y139.7815
G01 X100.0161 Y141.7985
G01 X99.8361 Y141.4180
G01 X99.8361 Y140.1620
G01 X100.3761 Y140.4753
G01 X100.3761 Y139.4215
G01 X100.5561 Y139.2980
G01 X100.5561 Y140.1238
G00 Z0.0200
G00 X100.7361 Y139.9366
G01 F60.00
G01 Z-0.0200
G01 F2000.00
G01 X100.7361 Y139.2234
G01 X100.9161 Y139.1488
G01 X100.9161 Y139.8176
G00 Z0.0200
G00 X101.0961 Y139.7425
G01 F60.00
G01 Z-0.0200
G01 F2000.00
G01 X101.0961 Y139.0771
G01 X101.2761 Y139.0771
G01 X101.2761 Y139.7020
G00 Z0.0200
G00 X101.4561 Y139.6912
G01 F60.00
G01 Z-0.0200
G01 F2000.00
G01 X101.4561 Y139.0771
G01 X101.6361 Y139.0771
G01 X101.6361 Y139.7098
G00 Z0.0200
G00 X101.8161 Y139.7611
G01 F60.00
G01 Z-0.0200
G01 F2000.00
G01 X101.8161 Y139.0959
G01 X101.9961 Y139.1705
G01 X101.9961 Y139.8483
G00 Z0.0200
G00 X102.1761 Y139.9833
G01 F60.00
G01 Z-0.0200
G01 F2000.00
G01 X102.1761 Y139.2450
G01 X102.3561 Y139.3196
G01 X102.3561 Y140.1978
G01 X102.7161 Y139.6537
G01 X102.7161 Y141.0784
G01 X102.8961 Y141.2056
G01 X102.8961 Y139.8246
G00 Z0.0200
G00 X103.0761 Y139.9077
G01 F60.00
G01 Z-0.0200
G01 F2000.00
G01 X103.0761 Y141.3327
G01 X103.2561 Y141.4599
G01 X103.2561 Y139.9176
G00 Z0.0200
G00 X103.4361 Y139.8596
G01 F60.00
G01 Z-0.0200
G01 F2000.00
G01 X103.4361 Y141.5871
G01 X103.6161 Y141.7143
G01 X103.6161 Y139.6949
G00 Z0.0200
G00 X103.7961 Y139.3722
G01 F60.00
G01 Z-0.0200
G01 F2000.00
G01 X103.7961 Y141.8415
G01 X103.9761 Y141.9687
G01 X103.9761 Y139.2165
G01 X104.1561 Y139.1419
G01 X104.1561 Y142.0958
G01 X104.3361 Y142.2230
G01 X104.3361 Y141.5380
G00 Z0.0200
G00 X104.3385 Y141.5380
G01 F60.00
G01 Z-0.0200
G01 F2000.00
G01 X104.3287 Y141.5375
G01 X104.3190 Y141.5361
G01 X104.3095 Y141.5337
G01 X104.3002 Y141.5304
G01 X104.2914 Y141.5262
G01 X104.2829 Y141.5211
G01 X104.2751 Y141.5153
G01 X104.2678 Y141.5087
G01 X104.2612 Y141.5014
G01 X104.2554 Y141.4936
G01 X104.2503 Y141.4851
G01 X104.2461 Y141.4763
G01 X104.2428 Y141.4670
G01 X104.2404 Y141.4575
G01 X104.2390 Y141.4478
G01 X104.2385 Y141.4380
G01 X104.2386 Y139.8331
G01 X104.2393 Y139.8258
G01 X104.2409 Y139.8161
G01 X104.2428 Y139.8090
G01 X104.2461 Y139.7997
G01 X104.2492 Y139.7930
G01 X104.2540 Y139.7845
G01 X104.2597 Y139.7765
G01 X104.2644 Y139.7708
G01 X104.2695 Y139.7656
G01 X104.2751 Y139.7607
G01 X104.2829 Y139.7549
G01 X104.2892 Y139.7510
G01 X104.2957 Y139.7476
G01 X104.3048 Y139.7438
G01 X104.3118 Y139.7416
G01 X104.3214 Y139.7395
G01 X104.3311 Y139.7383
G01 X104.3385 Y139.7380
G01 X106.1415 Y139.7380
G01 X106.1513 Y139.7385
G01 X106.1610 Y139.7399
G01 X106.1682 Y139.7416
G01 X106.1752 Y139.7438
G01 X106.1820 Y139.7466
G01 X106.1886 Y139.7498
G01 X106.1950 Y139.7535
G01 X106.2011 Y139.7577
G01 X106.2068 Y139.7623
G01 X106.2122 Y139.7673
G01 X106.2172 Y139.7727
G01 X106.2218 Y139.7784
G01 X106.2260 Y139.7845
G01 X106.2297 Y139.7909
G01 X106.2329 Y139.7975
G01 X106.2357 Y139.8043
G01 X106.2379 Y139.8113
G01 X106.2396 Y139.8185
G01 X106.2410 Y139.8282
G01 X106.2415 Y139.8380
G01 X106.2415 Y140.1314
G01 X113.0780 Y140.1314
G01 X113.0780 Y139.8885
G01 X113.0788 Y139.8763
G01 X113.0810 Y139.8642
G01 X113.0830 Y139.8571
G01 X113.0856 Y139.8502
G01 X113.0887 Y139.8435
G01 X113.0922 Y139.8371
G01 X113.0962 Y139.8309
G01 X113.1007 Y139.8251
G01 X113.1056 Y139.8195
G01 X113.1108 Y139.8144
G01 X113.1165 Y139.8097
G01 X113.1224 Y139.8054
G01 X113.1287 Y139.8015
G01 X113.1352 Y139.7981
G01 X113.1420 Y139.7952
G01 X113.1490 Y139.7928
G01 X113.1609 Y139.7900
G01 X113.1682 Y139.7890
G01 X113.1780 Y139.7885
G01 X114.7805 Y139.7885
G01 X114.7902 Y139.7893
G01 X114.7999 Y139.7909
G01 X114.8117 Y139.7943
G01 X114.8208 Y139.7981
G01 X114.8294 Y139.8027
G01 X114.8376 Y139.8082
G01 X114.8452 Y139.8144
G01 X114.8521 Y139.8213
G01 X114.8568 Y139.8270
G01 X114.8625 Y139.8350
G01 X114.8673 Y139.8435
G01 X114.8704 Y139.8502
G01 X114.8737 Y139.8595
G01 X114.8761 Y139.8690
G01 X114.8772 Y139.8763
G01 X114.8780 Y139.8860
G01 X114.8780 Y141.6915
G01 X114.8772 Y141.7037
G01 X114.8750 Y141.7158
G01 X114.8722 Y141.7252
G01 X114.8673 Y141.7365
G01 X114.8611 Y141.7471
G01 X114.8537 Y141.7568
G01 X114.8470 Y141.7639
G01 X114.8376 Y141.7718
G01 X114.8315 Y141.7760
G01 X114.8230 Y141.7808
G01 X114.8163 Y141.7839
G01 X114.8094 Y141.7865
G01 X114.7999 Y141.7891
G01 X114.7927 Y141.7904
G01 X114.7854 Y141.7912
G01 X114.7780 Y141.7915
G01 X113.1780 Y141.7915
G01 X113.1658 Y141.7907
G01 X113.1561 Y141.7891
G01 X113.1490 Y141.7872
G01 X113.1420 Y141.7848
G01 X113.1352 Y141.7819
G01 X113.1287 Y141.7785
G01 X113.1224 Y141.7746
G01 X113.1146 Y141.7688
G01 X113.1090 Y141.7639
G01 X113.1039 Y141.7587
G01 X113.0992 Y141.7530
G01 X113.0949 Y141.7471
G01 X113.0910 Y141.7408
G01 X113.0866 Y141.7320
G01 X113.0838 Y141.7252
G01 X113.0816 Y141.7182
G01 X113.0799 Y141.7110
G01 X113.0788 Y141.7037
G01 X113.0780 Y141.6915
G01 X113.0780 Y141.1446
G01 X112.0966 Y141.1446
G01 X112.0966 Y141.8502
G01 X114.4882 Y144.2418
G01 X114.5216 Y144.2786
G01 X114.5512 Y144.3185
G01 X114.5768 Y144.3612
G01 X114.5961 Y144.4016
G01 X114.5998 Y144.4107
G01 X114.6148 Y144.4529
G01 X114.6258 Y144.4964
G01 X114.6277 Y144.5060
G01 X114.6342 Y144.5503
G01 X114.6366 Y144.5975
G01 X114.6366 Y146.9302
G01 X117.0299 Y149.3235
G01 X117.0584 Y149.3549
G01 X117.0646 Y149.3625
G01 X117.0912 Y149.3985
G01 X117.1144 Y149.4369
G01 X117.1190 Y149.4456
G01 X117.1380 Y149.4861
G01 X117.1548 Y149.5329
G01 X117.1658 Y149.5764
G01 X117.1677 Y149.5860
G01 X117.1742 Y149.6303
G01 X117.1766 Y149.6800
G01 X117.1766 Y152.2200
G01 X117.1742 Y152.2697
G01 X117.1677 Y152.3140
G01 X117.1658 Y152.3236
G01 X117.1540 Y152.3694
G01 X117.1380 Y152.4139
G01 X117.1190 Y152.4544
G01 X117.1144 Y152.4631
G01 X117.0912 Y152.5015
G01 X117.0646 Y152.5375
G01 X117.0584 Y152.5451
G01 X117.0299 Y152.5765
G01 X115.7582 Y153.8482
G01 X115.7195 Y153.8831
G01 X115.6815 Y153.9112
G01 X115.6431 Y153.9344
G01 X115.6344 Y153.9390
G01 X115.5939 Y153.9580
G01 X115.5471 Y153.9748
G01 X115.5036 Y153.9858
G01 X115.4940 Y153.9877
G01 X115.4472 Y153.9944
G01 X115.4000 Y153.9966
G01 X114.1875 Y153.9966
G01 X114.1403 Y153.9942
G01 X114.0960 Y153.9877
G01 X114.0864 Y153.9858
G01 X114.0477 Y153.9761
G01 X114.0383 Y153.9732
G01 X113.9961 Y153.9580
G01 X113.9512 Y153.9368
G01 X113.9085 Y153.9112
G01 X113.8797 Y153.8900
G01 X113.0900 Y153.8900
G01 X113.0826 Y153.8897
G01 X113.0753 Y153.8889
G01 X113.0681 Y153.8876
G01 X113.0610 Y153.8857
G01 X113.0540 Y153.8833
G01 X113.0472 Y153.8804
G01 X113.0407 Y153.8770
G01 X113.0344 Y153.8731
G01 X113.0285 Y153.8688
G01 X113.0228 Y153.8641
G01 X113.0176 Y153.8590
G01 X113.0127 Y153.8534
G01 X113.0082 Y153.8476
G01 X113.0018 Y153.8371
G01 X112.9986 Y153.8305
G01 X112.9958 Y153.8237
G01 X112.9930 Y153.8143
G01 X112.9915 Y153.8071
G01 X112.9903 Y153.7974
G01 X112.9900 Y153.7900
G01 X112.9900 Y153.1900
G01 X112.9903 Y153.1826
G01 X112.9919 Y153.1705
G01 X112.9950 Y153.1586
G01 X112.9996 Y153.1472
G01 X113.0055 Y153.1365
G01 X113.0127 Y153.1266
G01 X113.0210 Y153.1176
G01 X113.0304 Y153.1097
G01 X113.0407 Y153.1030
G01 X113.0517 Y153.0976
G01 X113.0633 Y153.0936
G01 X113.0753 Y153.0911
G01 X113.0875 Y153.0900
G01 X113.8797 Y153.0900
G01 X113.9085 Y153.0688
G01 X113.9490 Y153.0444
G01 X113.9916 Y153.0239
G01 X113.9984 Y153.0210
G01 X114.0429 Y153.0052
G01 X114.0864 Y152.9942
G01 X114.0960 Y152.9923
G01 X114.1355 Y152.9864
G01 X114.1452 Y152.9855
G01 X114.1900 Y152.9834
G01 X115.1902 Y152.9834
G01 X116.1634 Y152.0102
G01 X116.1634 Y149.8898
G01 X113.7718 Y147.4982
G01 X113.7416 Y147.4651
G01 X113.7354 Y147.4575
G01 X113.7088 Y147.4215
G01 X113.6844 Y147.3810
G01 X113.6620 Y147.3339
G01 X113.6468 Y147.2917
G01 X113.6439 Y147.2823
G01 X113.6331 Y147.2388
G01 X113.6264 Y147.1945
G01 X113.6255 Y147.1848
G01 X113.6234 Y147.1425
G01 X113.6234 Y144.8098
G01 X111.2318 Y142.4182
G01 X111.1984 Y142.3814
G01 X111.1702 Y142.3435
G01 X111.1432 Y142.2988
G01 X111.1239 Y142.2584
G01 X111.1202 Y142.2493
G01 X111.1052 Y142.2071
G01 X111.0942 Y142.1636
G01 X111.0923 Y142.1540
G01 X111.0856 Y142.1072
G01 X111.0834 Y142.0600
G01 X111.0834 Y141.1446
G01 X106.2415 Y141.1446
G01 X106.2415 Y141.4380
G01 X106.2410 Y141.4478
G01 X106.2396 Y141.4575
G01 X106.2379 Y141.4647
G01 X106.2357 Y141.4717
G01 X106.2329 Y141.4785
G01 X106.2297 Y141.4851
G01 X106.2260 Y141.4915
G01 X106.2218 Y141.4976
G01 X106.2172 Y141.5033
G01 X106.2122 Y141.5087
G01 X106.2068 Y141.5137
G01 X106.2011 Y141.5183
G01 X106.1950 Y141.5225
G01 X106.1886 Y141.5262
G01 X106.1820 Y141.5294
G01 X106.1752 Y141.5322
G01 X106.1682 Y141.5344
G01 X106.1610 Y141.5361
G01 X106.1513 Y141.5375
G01 X106.1415 Y141.5380
G01 X104.3385 Y141.5380
G01 X104.5161 Y141.5380
G01 X104.5161 Y142.3502
G01 X104.6961 Y142.4774
G01 X104.6961 Y141.5380
G01 X104.8761 Y141.5380
G01 X104.8761 Y142.5820
G01 X105.0561 Y142.5820
G01 X105.0561 Y141.5380
G01 X105.2361 Y141.5380
G01 X105.2361 Y142.5820
G01 X105.4161 Y142.5820
G01 X105.4161 Y141.5380
G01 X105.5961 Y141.5380
G01 X105.5961 Y142.5820
G01 X105.7761 Y142.5820
G01 X105.7761 Y141.5380
G01 X105.9561 Y141.5380
G01 X105.9561 Y142.5820
G01 X106.1361 Y142.5820
G01 X106.1361 Y141.5380
G00 Z0.0200
G00 X106.3161 Y141.1446
G01 F60.00
G01 Z-0.0200
G01 F2000.00
G01 X106.3161 Y142.9430
G01 X106.4961 Y142.9376
G01 X106.4961 Y141.1446
G01 X106.6761 Y141.1446
G01 X106.6761 Y142.9322
G01 X106.8561 Y142.9268
G01 X106.8561 Y141.1446
G01 X107.0361 Y141.1446
G01 X107.0361 Y142.9214
G01 X107.2161 Y142.9160
G01 X107.2161 Y141.1446
G01 X107.3961 Y141.1446
G01 X107.3961 Y142.9107
G01 X107.5761 Y142.9053
G01 X107.5761 Y141.1446
G01 X107.7561 Y141.1446
G01 X107.7561 Y142.8999
G01 X107.9361 Y142.8945
G01 X107.9361 Y141.1446
G01 X108.1161 Y141.1446
G01 X108.1161 Y142.8891
G01 X108.2961 Y142.8837
G01 X108.2961 Y141.1446
G01 X108.4761 Y141.1446
G01 X108.4761 Y142.8783
G01 X108.6561 Y142.8730
G01 X108.6561 Y141.1446
G01 X108.8361 Y141.1446
G01 X108.8361 Y142.8676
G01 X109.0161 Y142.8622
G01 X109.0161 Y141.1446
G01 X109.1961 Y141.1446
G01 X109.1961 Y142.8568
G01 X109.3761 Y142.8514
G01 X109.3761 Y141.1446
G01 X109.5561 Y141.1446
G01 X109.5561 Y142.8460
G01 X109.7361 Y142.8406
G01 X109.7361 Y141.1446
G01 X109.9161 Y141.1446
G01 X109.9161 Y142.8353
G01 X110.0961 Y142.8299
G01 X110.0961 Y141.1446
G01 X110.2761 Y141.1446
G01 X110.2761 Y142.8245
G00 Z0.0200
G00 X110.4561 Y142.8420
G01 F60.00
G01 Z-0.0200
G01 F2000.00
G01 X110.4561 Y141.1446
G01 X110.6361 Y141.1446
G01 X110.6361 Y142.9342
G00 Z0.0200
G00 X110.8161 Y143.1097
G01 F60.00
G01 Z-0.0200
G01 F2000.00
G01 X110.8161 Y141.1446
G01 X110.9961 Y141.1446
G01 X110.9961 Y143.2897
G01 X111.1761 Y143.4697
G01 X111.1761 Y142.3515
G00 Z0.0200
G00 X111.3561 Y142.5425
G01 F60.00
G01 Z-0.0200
G01 F2000.00
G01 X111.3561 Y143.6497
G01 X111.5361 Y143.8297
G01 X111.5361 Y142.7225
G01 X111.7161 Y142.9025
G01 X111.7161 Y144.0097
G01 X111.8961 Y144.1897
G01 X111.8961 Y143.0825
G01 X112.0761 Y143.2625
G01 X112.0761 Y144.3697
G01 X112.2561 Y144.5497
G01 X112.2561 Y143.4425
G01 X112.4361 Y143.6225
G01 X112.4361 Y144.7297
G01 X112.6161 Y144.9097
G01 X112.6161 Y143.8025
G01 X112.7961 Y143.9825
G01 X112.7961 Y145.0897
G01 X112.9761 Y145.2697
G01 X112.9761 Y144.1625
G01 X113.1561 Y144.3425
G01 X113.1561 Y145.4497
G00 Z0.0200
G00 X113.3361 Y145.6983
G01 F60.00
G01 Z-0.0200
G01 F2000.00
G01 X113.3361 Y144.5225
G01 X113.5161 Y144.7025
G01 X113.5161 Y148.3497
G01 X113.6961 Y148.5297
G01 X113.6961 Y147.4005
G00 Z0.0200
G00 X113.8761 Y147.6025
G01 F60.00
G01 Z-0.0200
G01 F2000.00
G01 X113.8761 Y148.7097
G01 X114.0561 Y148.8897
G01 X114.0561 Y147.7825
G01 X114.2361 Y147.9625
G01 X114.2361 Y149.0697
G01 X114.4161 Y149.2497
G01 X114.4161 Y148.1425
G01 X114.5961 Y148.3225
G01 X114.5961 Y149.4815
G00 Z0.0200
G00 X115.1361 Y148.8625
G01 F60.00
G01 Z-0.0200
G01 F2000.00
G01 X115.1361 Y151.8200
G01 X114.9561 Y151.8200
G01 X114.9561 Y148.6825
G01 X114.7761 Y148.5025
G01 X114.7761 Y151.8200
G00 Z0.0200
G00 X115.3161 Y151.8235
G01 F60.00
G01 Z-0.0200
G01 F2000.00
G01 X115.3161 Y149.0425
G01 X115.4961 Y149.2225
G01 X115.4961 Y152.6775
G00 Z0.0200
G00 X115.3161 Y152.6165
G01 F60.00
G01 Z-0.0200
G01 F2000.00
G01 X115.3161 Y152.8575
G01 X115.1361 Y152.9834
G01 X115.1361 Y152.6200
G01 X114.9561 Y152.6200
G01 X114.9561 Y152.9834
G01 X114.7761 Y152.9834
G01 X114.7761 Y152.6200
G01 X114.5961 Y152.6200
G01 X114.5961 Y152.9834
G01 X114.4161 Y152.9834
G01 X114.4161 Y152.6728
G00 Z0.0200
G00 X114.2361 Y152.7241
G01 F60.00
G01 Z-0.0200
G01 F2000.00
G01 X114.2361 Y152.9834
G00 Z0.0200
G00 X114.0561 Y153.0018
G01 F60.00
G01 Z-0.0200
G01 F2000.00
G01 X114.0561 Y152.7086
G00 Z0.0200
G00 X113.8761 Y152.6200
G01 F60.00
G01 Z-0.0200
G01 F2000.00
G01 X113.8761 Y153.0900
G01 X113.6961 Y153.0900
G01 X113.6961 Y152.6200
G01 X113.5161 Y152.6200
G01 X113.5161 Y153.0900
G01 X113.3361 Y153.0900
G01 X113.3361 Y152.6200
G01 X113.1561 Y152.6200
G01 X113.1561 Y153.0900
G00 Z0.0200
G00 X113.1561 Y151.8200
G01 F60.00
G01 Z-0.0200
G01 F2000.00
G01 X113.1561 Y149.4225
G01 X113.3361 Y149.6025
G01 X113.3361 Y151.8200
G01 X113.5161 Y151.8200
G01 X113.5161 Y149.7825
G00 Z0.0200
G00 X115.6761 Y149.4025
G01 F60.00
G01 Z-0.0200
G01 F2000.00
G01 X115.6761 Y152.4975
G01 X115.8561 Y152.3175
G01 X115.8561 Y149.5825
G01 X116.0361 Y149.7625
G01 X116.0361 Y152.1375
G00 Z0.0200
G00 X116.7561 Y152.8503
G01 F60.00
G01 Z-0.0200
G01 F2000.00
G01 X116.7561 Y154.7856
G01 X116.5761 Y154.8756
G01 X116.5761 Y153.0303
G01 X116.3961 Y153.2103
G01 X116.3961 Y154.9656
G01 X116.2161 Y155.0556
G01 X116.2161 Y153.3903
G01 X116.0361 Y153.5703
G01 X116.0361 Y155.1456
G01 X115.8561 Y155.2356
G01 X115.8561 Y153.7503
G00 Z0.0200
G00 X115.6761 Y153.9146
G01 F60.00
G01 Z-0.0200
G01 F2000.00
G01 X115.6761 Y155.3256
G00 Z0.0200
G00 X116.2161 Y156.1883
G01 F60.00
G01 Z-0.0200
G01 F2000.00
G01 X116.2161 Y156.7771
G01 X116.3961 Y156.7756
G01 X116.3961 Y156.0983
G01 X116.5761 Y156.0083
G01 X116.5761 Y156.7742
G01 X116.7561 Y156.7727
G01 X116.7561 Y155.9183
G01 X116.9361 Y155.8283
G01 X116.9361 Y156.7713
G01 X117.1161 Y156.7698
G01 X117.1161 Y155.7383
G01 X117.2961 Y155.6505
G01 X117.2961 Y156.7684
G01 X117.4761 Y156.7669
G01 X117.4761 Y155.7561
G00 Z0.0200
G00 X117.6561 Y155.8216
G01 F60.00
G01 Z-0.0200
G01 F2000.00
G01 X117.6561 Y156.7655
G01 X117.8361 Y156.7640
G01 X117.8361 Y155.8550
G00 Z0.0200
G00 X118.0161 Y155.8564
G01 F60.00
G01 Z-0.0200
G01 F2000.00
G01 X118.0161 Y156.7626
G01 X118.1961 Y156.7489
G01 X118.1961 Y155.8286
G00 Z0.0200
G00 X118.3761 Y155.7692
G01 F60.00
G01 Z-0.0200
G01 F2000.00
G01 X118.3761 Y156.4995
G00 Z0.0200
G00 X118.5561 Y156.3471
G01 F60.00
G01 Z-0.0200
G01 F2000.00
G01 X118.5561 Y155.6711
G00 Z0.0200
G00 X118.7361 Y155.5178
G01 F60.00
G01 Z-0.0200
G01 F2000.00
G01 X118.7361 Y156.2496
G00 Z0.0200
G00 X118.9161 Y156.1907
G01 F60.00
G01 Z-0.0200
G01 F2000.00
G01 X118.9161 Y155.2662
G01 X119.0961 Y156.1634
G01 X119.0961 Y153.6528
G01 X118.9161 Y153.9944
G01 X118.9161 Y154.2538
G01 X119.2761 Y153.3112
G01 X119.2761 Y156.1651
G00 Z0.0200
G00 X119.4561 Y156.1988
G01 F60.00
G01 Z-0.0200
G01 F2000.00
G01 X119.4561 Y153.2500
G01 X119.6361 Y153.2500
G01 X119.6361 Y156.2649
G00 Z0.0200
G00 X119.8161 Y156.3711
G01 F60.00
G01 Z-0.0200
G01 F2000.00
G01 X119.8161 Y153.2500
G01 X119.9961 Y153.2500
G01 X119.9961 Y156.5353
G00 Z0.0200
G00 X120.1761 Y156.8174
G01 F60.00
G01 Z-0.0200
G01 F2000.00
G01 X120.1761 Y153.2250
G00 Z0.0200
G00 X120.1761 Y151.4750
G01 F60.00
G01 Z-0.0200
G01 F2000.00
G01 X120.1761 Y150.4250
G00 Z0.0200
G00 X119.9961 Y150.4500
G01 F60.00
G01 Z-0.0200
G01 F2000.00
G01 X119.9961 Y151.4500
G01 X119.8161 Y151.4500
G01 X119.8161 Y150.4500
G01 X119.6361 Y150.4500
G01 X119.6361 Y151.4500
G01 X119.4561 Y151.4500
G01 X119.4561 Y150.4500
G01 X119.2761 Y150.4500
G01 X119.2761 Y151.4500
G01 X119.0961 Y151.4500
G01 X119.0961 Y150.4500
G01 X118.9161 Y150.4500
G01 X118.9161 Y151.4500
G01 X118.7361 Y151.4500
G01 X118.7361 Y150.4500
G01 X118.5561 Y150.4500
G01 X118.5561 Y151.4500
G01 X118.3761 Y151.4500
G01 X118.3761 Y150.4500
G00 Z0.0200
G00 X117.8361 Y148.9304
G01 F60.00
G01 Z-0.0200
G01 F2000.00
G01 X117.8361 Y153.6650
G00 Z0.0200
G00 X117.6561 Y153.6984
G01 F60.00
G01 Z-0.0200
G01 F2000.00
G01 X117.6561 Y148.9370
G00 Z0.0200
G00 X117.4761 Y148.8770
G01 F60.00
G01 Z-0.0200
G01 F2000.00
G01 X117.4761 Y153.7639
G00 Z0.0200
G00 X117.2961 Y153.8695
G01 F60.00
G01 Z-0.0200
G01 F2000.00
G01 X117.2961 Y148.7232
G01 X117.1161 Y148.5432
G01 X117.1161 Y149.4399
G00 Z0.0200
G00 X116.9361 Y149.2297
G01 F60.00
G01 Z-0.0200
G01 F2000.00
G01 X116.9361 Y148.3632
G01 X116.7561 Y148.1832
G01 X116.7561 Y149.0497
G01 X116.5761 Y148.8697
G01 X116.5761 Y148.0032
G01 X116.3961 Y147.8232
G01 X116.3961 Y148.6897
G01 X116.2161 Y148.5097
G01 X116.2161 Y147.6432
G01 X116.0361 Y147.4632
G01 X116.0361 Y148.3297
G01 X115.8561 Y148.1497
G01 X115.8561 Y147.2832
G01 X115.6761 Y147.1032
G01 X115.6761 Y147.9697
G01 X115.4961 Y147.7897
G01 X115.4961 Y146.9232
G00 Z0.0200
G00 X115.3161 Y146.7164
G01 F60.00
G01 Z-0.0200
G01 F2000.00
G01 X115.3161 Y147.6097
G01 X115.1361 Y147.4297
G01 X115.1361 Y139.2652
G00 Z0.0200
G00 X115.3161 Y139.3249
G01 F60.00
G01 Z-0.0200
G01 F2000.00
G01 X115.3161 Y145.2010
G00 Z0.0200
G00 X115.2495 Y145.4443
G01 F60.00
G01 Z-0.0200
G01 F2000.00
G01 X115.2494 Y145.4371
G01 X115.2499 Y145.4300
G01 X115.2564 Y145.3660
G01 X115.2598 Y145.3484
G01 X115.2661 Y145.3251
G01 X115.2719 Y145.3013
G01 X115.2790 Y145.2799
G01 X115.2997 Y145.2304
G01 X115.3074 Y145.2154
G01 X115.3199 Y145.1946
G01 X115.3320 Y145.1735
G01 X115.3448 Y145.1548
G01 X115.3779 Y145.1135
G01 X115.3903 Y145.1001
G01 X115.4081 Y145.0838
G01 X115.4255 Y145.0669
G01 X115.4427 Y145.0527
G01 X115.4870 Y145.0215
G01 X115.5015 Y145.0128
G01 X115.5233 Y145.0019
G01 X115.5446 Y144.9906
G01 X115.5655 Y144.9815
G01 X115.6162 Y144.9640
G01 X115.6327 Y144.9596
G01 X115.6567 Y144.9551
G01 X115.6802 Y144.9501
G01 X115.7006 Y144.9474
G01 X115.7556 Y144.9444
G01 X117.4598 Y144.9444
G01 X117.7462 Y144.8257
G01 X117.7533 Y144.8231
G01 X117.7624 Y144.8203
G01 X117.7814 Y144.8127
G01 X117.7883 Y144.8104
G01 X117.8224 Y144.8021
G01 X117.8376 Y144.7977
G01 X117.8595 Y144.7937
G01 X117.8831 Y144.7913
G01 X117.9064 Y144.7884
G01 X117.9233 Y144.7874
G01 X117.9306 Y144.7873
G01 X117.9538 Y144.7883
G01 X117.9770 Y144.7887
G01 X118.0012 Y144.7910
G01 X118.0242 Y144.7952
G01 X118.0522 Y144.7998
G01 X118.0709 Y144.8045
G01 X118.0931 Y144.8119
G01 X118.1183 Y144.8197
G01 X118.1338 Y144.8257
G01 X118.4202 Y144.9444
G01 X119.0666 Y144.9444
G01 X119.1327 Y144.9493
G01 X119.1395 Y144.9502
G01 X119.1496 Y144.9523
G01 X119.1608 Y144.9539
G01 X119.1839 Y144.9599
G01 X119.2052 Y144.9648
G01 X119.2178 Y144.9690
G01 X119.2296 Y144.9725
G01 X119.2513 Y144.9816
G01 X119.2709 Y144.9890
G01 X119.2839 Y144.9955
G01 X119.2948 Y145.0005
G01 X119.3149 Y145.0124
G01 X119.3335 Y145.0226
G01 X119.3454 Y145.0309
G01 X119.3555 Y145.0373
G01 X119.3739 Y145.0520
G01 X119.3909 Y145.0648
G01 X119.4122 Y145.0840
G01 X119.4265 Y145.0994
G01 X119.4416 Y145.1144
G01 X119.4615 Y145.1369
G01 X119.4684 Y145.1457
G01 X119.4772 Y145.1557
G01 X119.5151 Y145.2102
G01 X119.5198 Y145.2183
G01 X119.5244 Y145.2273
G01 X119.6537 Y145.3566
G01 X119.6614 Y145.3655
G01 X119.6740 Y145.3784
G01 X119.7945 Y145.5151
G01 X119.8223 Y145.5332
G01 X119.8299 Y145.5389
G01 X119.8794 Y145.5823
G01 X120.4824 Y146.1853
G01 X120.4937 Y146.1983
G01 X120.5096 Y146.2148
G01 X120.5153 Y146.2219
G01 X120.5333 Y146.2464
G01 X120.5420 Y146.2572
G01 X120.5528 Y146.2733
G01 X120.5665 Y146.2985
G01 X120.5781 Y146.3187
G01 X120.5860 Y146.3353
G01 X120.6051 Y146.3847
G01 X120.6107 Y146.4025
G01 X120.6170 Y146.4303
G01 X120.6225 Y146.4529
G01 X120.6256 Y146.4717
G01 X120.6302 Y146.5241
G01 X120.6307 Y146.5433
G01 X120.6306 Y148.1032
G01 X120.6244 Y148.1694
G01 X120.6202 Y148.1919
G01 X120.6139 Y148.2152
G01 X120.6081 Y148.2390
G01 X120.6027 Y148.2558
G01 X120.5825 Y148.3050
G01 X120.5726 Y148.3249
G01 X120.5601 Y148.3457
G01 X120.5480 Y148.3668
G01 X120.5352 Y148.3855
G01 X120.5198 Y148.4043
G01 X120.5051 Y148.4233
G01 X120.4930 Y148.4368
G01 X120.4526 Y148.4751
G01 X120.4373 Y148.4876
G01 X120.4173 Y148.5015
G01 X120.3975 Y148.5159
G01 X120.3785 Y148.5275
G01 X120.3567 Y148.5384
G01 X120.3354 Y148.5497
G01 X120.3191 Y148.5570
G01 X120.2689 Y148.5748
G01 X120.2473 Y148.5807
G01 X120.1953 Y148.5909
G01 X120.1771 Y148.5931
G01 X120.1529 Y148.5941
G01 X120.1290 Y148.5958
G01 X119.7163 Y148.5959
G01 X119.7163 Y148.6500
G01 X120.1100 Y148.6500
G01 X120.1174 Y148.6503
G01 X120.1247 Y148.6511
G01 X120.1319 Y148.6524
G01 X120.1390 Y148.6543
G01 X120.1460 Y148.6567
G01 X120.1528 Y148.6596
G01 X120.1593 Y148.6630
G01 X120.1656 Y148.6669
G01 X120.1715 Y148.6712
G01 X120.1772 Y148.6759
G01 X120.1824 Y148.6810
G01 X120.1873 Y148.6866
G01 X120.1918 Y148.6924
G01 X120.1958 Y148.6986
G01 X120.1993 Y148.7050
G01 X120.2024 Y148.7117
G01 X120.2050 Y148.7186
G01 X120.2070 Y148.7257
G01 X120.2092 Y148.7378
G01 X120.2100 Y148.7500
G01 X120.2100 Y150.3525
G01 X120.2092 Y150.3622
G01 X120.2081 Y150.3695
G01 X120.2057 Y150.3790
G01 X120.2024 Y150.3883
G01 X120.1982 Y150.3971
G01 X120.1931 Y150.4056
G01 X120.1873 Y150.4134
G01 X120.1807 Y150.4207
G01 X120.1734 Y150.4273
G01 X120.1656 Y150.4331
G01 X120.1571 Y150.4382
G01 X120.1483 Y150.4424
G01 X120.1390 Y150.4457
G01 X120.1295 Y150.4481
G01 X120.1198 Y150.4495
G01 X120.1100 Y150.4500
G01 X118.3075 Y150.4500
G01 X118.2978 Y150.4492
G01 X118.2881 Y150.4476
G01 X118.2786 Y150.4450
G01 X118.2695 Y150.4414
G01 X118.2607 Y150.4370
G01 X118.2544 Y150.4331
G01 X118.2466 Y150.4273
G01 X118.2393 Y150.4207
G01 X118.2327 Y150.4134
G01 X118.2269 Y150.4056
G01 X118.2218 Y150.3971
G01 X118.2176 Y150.3883
G01 X118.2143 Y150.3790
G01 X118.2119 Y150.3695
G01 X118.2108 Y150.3622
G01 X118.2100 Y150.3525
G01 X118.2100 Y148.7500
G01 X118.2108 Y148.7378
G01 X118.2130 Y148.7257
G01 X118.2150 Y148.7186
G01 X118.2176 Y148.7117
G01 X118.2207 Y148.7050
G01 X118.2242 Y148.6986
G01 X118.2282 Y148.6924
G01 X118.2327 Y148.6866
G01 X118.2376 Y148.6810
G01 X118.2428 Y148.6759
G01 X118.2485 Y148.6712
G01 X118.2544 Y148.6669
G01 X118.2607 Y148.6630
G01 X118.2672 Y148.6596
G01 X118.2740 Y148.6567
G01 X118.2810 Y148.6543
G01 X118.2881 Y148.6524
G01 X118.2953 Y148.6511
G01 X118.3026 Y148.6503
G01 X118.3100 Y148.6500
G01 X118.7037 Y148.6500
G01 X118.7037 Y148.5959
G01 X118.2949 Y148.5959
G01 X118.2651 Y148.6019
G01 X118.2371 Y148.6134
G01 X118.2118 Y148.6304
G01 X118.1904 Y148.6517
G01 X118.1450 Y148.7197
G01 X118.1359 Y148.7312
G01 X118.1243 Y148.7479
G01 X118.1200 Y148.7535
G01 X118.0963 Y148.7794
G01 X118.0876 Y148.7900
G01 X118.0738 Y148.8037
G01 X118.0304 Y148.8405
G01 X118.0148 Y148.8517
G01 X117.9947 Y148.8639
G01 X117.9712 Y148.8789
G01 X117.9539 Y148.8880
G01 X117.9323 Y148.8974
G01 X117.9109 Y148.9074
G01 X117.8911 Y148.9148
G01 X117.8659 Y148.9218
G01 X117.8433 Y148.9287
G01 X117.8202 Y148.9336
G01 X117.7966 Y148.9367
G01 X117.7733 Y148.9403
G01 X117.7548 Y148.9418
G01 X117.7023 Y148.9421
G01 X117.6837 Y148.9410
G01 X117.6268 Y148.9330
G01 X117.6084 Y148.9289
G01 X117.5859 Y148.9222
G01 X117.5630 Y148.9159
G01 X117.5406 Y148.9077
G01 X117.5193 Y148.8979
G01 X117.4976 Y148.8885
G01 X117.4785 Y148.8784
G01 X117.4567 Y148.8644
G01 X117.4366 Y148.8523
G01 X117.4307 Y148.8482
G01 X117.4175 Y148.8383
G01 X117.3995 Y148.8227
G01 X117.3794 Y148.8061
G01 X117.3673 Y148.7944
G01 X115.3976 Y146.8247
G01 X115.3863 Y146.8117
G01 X115.3719 Y146.7968
G01 X115.3675 Y146.7917
G01 X115.3467 Y146.7636
G01 X115.3380 Y146.7528
G01 X115.3272 Y146.7367
G01 X115.3135 Y146.7115
G01 X115.3019 Y146.6913
G01 X115.2986 Y146.6847
G01 X115.2920 Y146.6698
G01 X115.2733 Y146.6205
G01 X115.2680 Y146.6026
G01 X115.2630 Y146.5797
G01 X115.2566 Y146.5524
G01 X115.2538 Y146.5332
G01 X115.2520 Y146.5096
G01 X115.2498 Y146.4859
G01 X115.2493 Y146.4667
G01 X115.2495 Y145.4443
G00 Z0.0200
G00 X115.4961 Y145.0160
G01 F60.00
G01 Z-0.0200
G01 F2000.00
G01 X115.4961 Y139.3235
G00 Z0.0200
G00 X115.6761 Y139.2602
G01 F60.00
G01 Z-0.0200
G01 F2000.00
G01 X115.6761 Y142.3377
G00 Z0.0200
G00 X115.8561 Y142.3285
G01 F60.00
G01 Z-0.0200
G01 F2000.00
G01 X115.8561 Y139.1856
G01 X116.0361 Y139.1756
G01 X116.0361 Y139.7885
G01 X116.2161 Y139.7885
G01 X116.2161 Y139.1756
G01 X116.3961 Y139.1756
G01 X116.3961 Y139.7885
G01 X116.5761 Y139.7885
G01 X116.5761 Y139.1756
G01 X116.7561 Y139.1756
G01 X116.7561 Y139.7885
G01 X116.9361 Y139.7885
G01 X116.9361 Y139.1756
G01 X117.1161 Y139.1756
G01 X117.1161 Y139.7885
G01 X117.2961 Y139.7885
G01 X117.2961 Y139.1756
G01 X117.4761 Y139.1756
G01 X117.4761 Y139.7885
G00 Z0.0200
G00 X117.6561 Y139.7945
G01 F60.00
G01 Z-0.0200
G01 F2000.00
G01 X117.6561 Y139.1756
G01 X117.8361 Y139.2056
G01 X117.8361 Y140.2834
G01 X118.0161 Y140.2834
G01 X118.0161 Y139.2801
G01 X118.1961 Y139.4544
G01 X118.1961 Y140.2834
G01 X118.3761 Y140.2834
G01 X118.3761 Y139.6070
G00 Z0.0200
G00 X118.5561 Y139.6655
G01 F60.00
G01 Z-0.0200
G01 F2000.00
G01 X118.5561 Y140.2834
G01 X118.7361 Y140.2834
G01 X118.7361 Y139.6707
G01 X118.9161 Y139.6707
G01 X118.9161 Y140.2834
G01 X119.0961 Y140.2834
G01 X119.0961 Y139.6707
G01 X119.2761 Y139.6707
G01 X119.2761 Y140.2834
G01 X119.4561 Y140.2834
G01 X119.4561 Y139.6707
G01 X119.6361 Y139.6707
G01 X119.6361 Y140.2834
G01 X119.8161 Y140.2834
G01 X119.8161 Y139.6707
G01 X119.9961 Y139.6707
G01 X119.9961 Y140.2834
G01 X120.1761 Y140.2834
G01 X120.1761 Y139.6707
G01 X120.3561 Y139.6707
G01 X120.3561 Y140.2834
G01 X120.5361 Y140.2834
G01 X120.5361 Y139.6707
G01 X120.7161 Y139.6707
G01 X120.7161 Y140.2834
G01 X120.8961 Y140.2834
G01 X120.8961 Y139.6707
G00 Z0.0200
G00 X121.0761 Y139.6490
G01 F60.00
G01 Z-0.0200
G01 F2000.00
G01 X121.0761 Y140.2834
G01 X121.2561 Y140.2834
G01 X121.2561 Y139.5518
G00 Z0.0200
G00 X120.1761 Y141.2966
G01 F60.00
G01 Z-0.0200
G01 F2000.00
G01 X120.1761 Y142.3295
G00 Z0.0200
G00 X119.9961 Y142.3285
G01 F60.00
G01 Z-0.0200
G01 F2000.00
G01 X119.9961 Y141.2966
G01 X119.8161 Y141.2966
G01 X119.8161 Y142.3285
G01 X119.6361 Y142.3285
G01 X119.6361 Y141.2966
G01 X119.4561 Y141.2966
G01 X119.4561 Y142.3285
G01 X119.2761 Y142.3285
G01 X119.2761 Y141.2966
G01 X119.0961 Y141.2966
G01 X119.0961 Y142.3285
G01 X118.9161 Y142.3285
G01 X118.9161 Y141.2966
G01 X118.7361 Y141.2966
G01 X118.7361 Y142.3285
G00 Z0.0200
G00 X118.5561 Y142.3287
G01 F60.00
G01 Z-0.0200
G01 F2000.00
G01 X118.5561 Y141.2966
G01 X118.3761 Y141.2966
G01 X118.3761 Y144.9261
G01 X118.5561 Y144.9444
G01 X118.5561 Y144.3313
G00 Z0.0200
G00 X118.7361 Y144.3315
G01 F60.00
G01 Z-0.0200
G01 F2000.00
G01 X118.7361 Y144.9444
G01 X118.9161 Y144.9444
G01 X118.9161 Y144.3315
G01 X119.0961 Y144.3315
G01 X119.0961 Y144.9464
G00 Z0.0200
G00 X119.2761 Y144.9914
G01 F60.00
G01 Z-0.0200
G01 F2000.00
G01 X119.2761 Y144.3315
G01 X119.4561 Y144.3315
G01 X119.4561 Y145.1308
G00 Z0.0200
G00 X118.1961 Y144.8515
G01 F60.00
G01 Z-0.0200
G01 F2000.00
G01 X118.1961 Y141.2966
G01 X118.0161 Y141.2966
G01 X118.0161 Y144.7937
G00 Z0.0200
G00 X117.8361 Y144.7981
G01 F60.00
G01 Z-0.0200
G01 F2000.00
G01 X117.8361 Y141.2966
G00 Z0.0200
G00 X117.6561 Y141.7855
G01 F60.00
G01 Z-0.0200
G01 F2000.00
G01 X117.6561 Y144.8631
G01 X117.4761 Y144.9376
G01 X117.4761 Y141.7915
G00 Z0.0200
G00 X116.2161 Y141.7915
G01 F60.00
G01 Z-0.0200
G01 F2000.00
G01 X116.2161 Y142.3285
G01 X116.0361 Y142.3285
G01 X116.0361 Y141.7915
G01 X114.7761 Y141.7915
G01 X114.7761 Y147.0697
G01 X114.9561 Y147.2497
G01 X114.9561 Y139.1906
G01 X114.7761 Y139.1756
G01 X114.7761 Y139.7885
G01 X114.5961 Y139.7885
G01 X114.5961 Y139.1756
G01 X114.4161 Y139.1756
G01 X114.4161 Y139.7885
G01 X114.2361 Y139.7885
G01 X114.2361 Y139.1756
G01 X114.0561 Y139.1756
G01 X114.0561 Y139.7885
G01 X113.8761 Y139.7885
G01 X113.8761 Y139.1756
G01 X113.6961 Y139.1756
G01 X113.6961 Y139.7885
G01 X113.5161 Y139.7885
G01 X113.5161 Y139.1756
G01 X113.3361 Y139.1756
G01 X113.3361 Y139.7885
G00 Z0.0200
G00 X113.1561 Y139.7909
G01 F60.00
G01 Z-0.0200
G01 F2000.00
G01 X113.1561 Y139.1756
G01 X112.9761 Y139.2005
G01 X112.9761 Y140.1314
G01 X112.7961 Y140.1314
G01 X112.7961 Y139.2751
G00 Z0.0200
G00 X112.6161 Y139.4299
G01 F60.00
G01 Z-0.0200
G01 F2000.00
G01 X112.6161 Y140.1314
G01 X112.4361 Y140.1314
G01 X112.4361 Y139.5066
G00 Z0.0200
G00 X112.2561 Y139.5187
G01 F60.00
G01 Z-0.0200
G01 F2000.00
G01 X112.2561 Y140.1314
G01 X112.0761 Y140.1314
G01 X112.0761 Y139.5187
G01 X111.8961 Y139.5187
G01 X111.8961 Y140.1314
G01 X111.7161 Y140.1314
G01 X111.7161 Y139.5187
G01 X111.5361 Y139.5187
G01 X111.5361 Y140.1314
G01 X111.3561 Y140.1314
G01 X111.3561 Y139.5187
G01 X111.1761 Y139.5187
G01 X111.1761 Y140.1314
G01 X110.9961 Y140.1314
G01 X110.9961 Y139.5187
G01 X110.8161 Y139.5187
G01 X110.8161 Y140.1314
G01 X110.6361 Y140.1314
G01 X110.6361 Y139.5187
G01 X110.4561 Y139.5187
G01 X110.4561 Y140.1314
G01 X110.2761 Y140.1314
G01 X110.2761 Y139.5187
G01 X110.0961 Y139.5187
G01 X110.0961 Y140.1314
G01 X109.9161 Y140.1314
G01 X109.9161 Y139.5187
G01 X109.7361 Y139.5187
G01 X109.7361 Y140.1314
G01 X109.5561 Y140.1314
G01 X109.5561 Y139.5187
G01 X109.3761 Y139.5187
G01 X109.3761 Y140.1314
G01 X109.1961 Y140.1314
G01 X109.1961 Y139.5187
G01 X109.0161 Y139.5187
G01 X109.0161 Y140.1314
G01 X108.8361 Y140.1314
G01 X108.8361 Y139.5187
G01 X108.6561 Y139.5187
G01 X108.6561 Y140.1314
G01 X108.4761 Y140.1314
G01 X108.4761 Y139.5187
G01 X108.2961 Y139.5187
G01 X108.2961 Y140.1314
G01 X108.1161 Y140.1314
G01 X108.1161 Y139.5187
G01 X107.9361 Y139.5187
G01 X107.9361 Y140.1314
G01 X107.7561 Y140.1314
G01 X107.7561 Y139.5187
G01 X107.5761 Y139.5187
G01 X107.5761 Y140.1314
G01 X107.3961 Y140.1314
G01 X107.3961 Y139.5187
G01 X107.2161 Y139.5187
G01 X107.2161 Y140.1314
G01 X107.0361 Y140.1314
G01 X107.0361 Y139.5186
G00 Z0.0200
G00 X106.8561 Y139.4841
G01 F60.00
G01 Z-0.0200
G01 F2000.00
G01 X106.8561 Y140.1314
G01 X106.6761 Y140.1314
G01 X106.6761 Y139.3644
G01 X106.4961 Y139.2133
G01 X106.4961 Y140.1314
G01 X106.3161 Y140.1314
G01 X106.3161 Y139.1387
G01 X106.1361 Y139.1251
G01 X106.1361 Y139.7380
G01 X105.9561 Y139.7380
G01 X105.9561 Y139.1251
G01 X105.7761 Y139.1251
G01 X105.7761 Y139.7380
G01 X105.5961 Y139.7380
G01 X105.5961 Y139.1251
G01 X105.4161 Y139.1251
G01 X105.4161 Y139.7380
G01 X105.2361 Y139.7380
G01 X105.2361 Y139.1251
G01 X105.0561 Y139.1251
G01 X105.0561 Y139.7380
G01 X104.8761 Y139.7380
G01 X104.8761 Y139.1251
G01 X104.6961 Y139.1251
G01 X104.6961 Y139.7380
G01 X104.5161 Y139.7380
G01 X104.5161 Y139.1251
G01 X104.3361 Y139.1251
G01 X104.3361 Y139.7380
G00 Z0.0200
G00 X102.5361 Y139.4737
G01 F60.00
G01 Z-0.0200
G01 F2000.00
G01 X102.5361 Y140.9512
G00 Z0.0200
G00 X102.1761 Y146.7956
G01 F60.00
G01 Z-0.0200
G01 F2000.00
G01 X102.1761 Y147.4891
G00 Z0.0200
G00 X101.9961 Y147.4085
G01 F60.00
G01 Z-0.0200
G01 F2000.00
G01 X101.9961 Y146.7956
G01 X101.8161 Y146.7956
G01 X101.8161 Y147.4085
G01 X101.6361 Y147.4085
G01 X101.6361 Y146.7956
G01 X101.4561 Y146.7956
G01 X101.4561 Y147.4085
G01 X101.2761 Y147.4085
G01 X101.2761 Y146.7956
G01 X101.0961 Y146.7956
G01 X101.0961 Y147.4085
G01 X100.9161 Y147.4085
G01 X100.9161 Y146.7956
G01 X100.7361 Y146.7956
G01 X100.7361 Y147.4085
G01 X100.5561 Y147.4085
G01 X100.5561 Y146.7956
G01 X100.3761 Y146.7956
G01 X100.3761 Y150.4434
G01 X100.1961 Y150.4434
G01 X100.1961 Y146.8536
G01 X100.0161 Y146.9622
G01 X100.0161 Y150.4434
G01 X99.8361 Y150.4434
G01 X99.8361 Y147.1953
G00 Z0.0200
G00 X100.5561 Y149.4115
G01 F60.00
G01 Z-0.0200
G01 F2000.00
G01 X100.5561 Y150.4434
G01 X100.7361 Y150.4434
G01 X100.7361 Y149.4115
G01 X99.6561 Y149.6368
G01 X99.6561 Y150.4434
G01 X99.4761 Y150.4434
G01 X99.4761 Y149.7812
G00 Z0.0200
G00 X99.2961 Y149.8286
G01 F60.00
G01 Z-0.0200
G01 F2000.00
G01 X99.2961 Y150.4434
G01 X99.1161 Y150.4434
G01 X99.1161 Y149.8307
G01 X98.9361 Y149.8307
G01 X98.9361 Y150.4434
G00 Z0.0200
G00 X98.7561 Y150.4618
G01 F60.00
G01 Z-0.0200
G01 F2000.00
G01 X98.7561 Y149.8307
G01 X98.5761 Y149.8685
G01 X98.5761 Y150.5527
G00 Z0.0200
G00 X98.3961 Y150.7275
G01 F60.00
G01 Z-0.0200
G01 F2000.00
G01 X98.3961 Y149.9431
G01 X98.2161 Y150.0410
G01 X98.2161 Y150.9075
G01 X98.0361 Y151.0875
G01 X98.0361 Y150.1769
G00 Z0.0200
G00 X97.8561 Y150.2224
G01 F60.00
G01 Z-0.0200
G01 F2000.00
G01 X97.8561 Y151.2675
G01 X97.6761 Y151.4475
G01 X97.6761 Y150.2022
G00 Z0.0200
G00 X97.4961 Y150.1037
G01 F60.00
G01 Z-0.0200
G01 F2000.00
G01 X97.4961 Y151.6275
G01 X97.3161 Y151.8075
G01 X97.3161 Y149.3847
G01 X97.1361 Y148.9502
G01 X97.1361 Y152.0702
G01 X96.5961 Y151.8025
G01 X96.5961 Y150.0975
G00 Z0.0200
G00 X96.4161 Y150.3223
G01 F60.00
G01 Z-0.0200
G01 F2000.00
G01 X96.4161 Y151.5777
G00 Z0.0200
G00 X96.2361 Y151.4534
G01 F60.00
G01 Z-0.0200
G01 F2000.00
G01 X96.2361 Y150.4466
G00 Z0.0200
G00 X96.0561 Y150.5144
G01 F60.00
G01 Z-0.0200
G01 F2000.00
G01 X96.0561 Y151.3856
G00 Z0.0200
G00 X95.8761 Y151.3592
G01 F60.00
G01 Z-0.0200
G01 F2000.00
G01 X95.8761 Y150.5408
G00 Z0.0200
G00 X95.6961 Y150.5424
G01 F60.00
G01 Z-0.0200
G01 F2000.00
G01 X95.6961 Y151.3576
G01 X95.5161 Y151.3576
G01 X95.5161 Y150.5424
G01 X95.3361 Y150.5424
G01 X95.3361 Y151.3576
G01 X95.1561 Y151.3576
G01 X95.1561 Y150.5424
G01 X94.9761 Y150.5424
G01 X94.9761 Y151.3576
G01 X94.7961 Y151.3576
G01 X94.7961 Y150.5424
G01 X94.6161 Y150.5424
G01 X94.6161 Y151.3576
G01 X94.4361 Y151.3576
G01 X94.4361 Y150.5424
G00 Z0.0200
G00 X94.2561 Y150.5395
G01 F60.00
G01 Z-0.0200
G01 F2000.00
G01 X94.2561 Y151.3605
G00 Z0.0200
G00 X94.0761 Y151.3925
G01 F60.00
G01 Z-0.0200
G01 F2000.00
G01 X94.0761 Y150.5075
G00 Z0.0200
G00 X93.8961 Y150.4315
G01 F60.00
G01 Z-0.0200
G01 F2000.00
G01 X93.8961 Y151.4685
G00 Z0.0200
G00 X93.7161 Y151.6029
G01 F60.00
G01 Z-0.0200
G01 F2000.00
G01 X93.7161 Y150.2971
G00 Z0.0200
G00 X93.5361 Y150.0417
G01 F60.00
G01 Z-0.0200
G01 F2000.00
G01 X93.5361 Y150.9839
G01 X93.3561 Y150.8039
G01 X93.3561 Y148.5561
G01 X93.1761 Y148.7361
G01 X93.1761 Y150.6239
G01 X92.9961 Y150.3427
G01 X92.9961 Y149.0173
G01 X93.5361 Y149.3183
G01 X93.5361 Y148.3761
G00 Z0.0200
G00 X93.8961 Y147.8915
G01 F60.00
G01 Z-0.0200
G01 F2000.00
G01 X93.8961 Y148.9285
G00 Z0.0200
G00 X94.0761 Y148.8525
G01 F60.00
G01 Z-0.0200
G01 F2000.00
G01 X94.0761 Y147.9675
G00 Z0.0200
G00 X94.2561 Y147.9995
G01 F60.00
G01 Z-0.0200
G01 F2000.00
G01 X94.2561 Y148.8205
G00 Z0.0200
G00 X94.4361 Y148.8176
G01 F60.00
G01 Z-0.0200
G01 F2000.00
G01 X94.4361 Y148.0024
G01 X94.6161 Y148.0024
G01 X94.6161 Y148.8176
G01 X94.7961 Y148.8176
G01 X94.7961 Y148.0024
G01 X94.9761 Y148.0024
G01 X94.9761 Y148.8176
G01 X95.1561 Y148.8176
G01 X95.1561 Y148.0024
G01 X95.3361 Y148.0024
G01 X95.3361 Y148.8176
G01 X95.5161 Y148.8176
G01 X95.5161 Y148.0024
G01 X95.6961 Y148.0024
G01 X95.6961 Y148.8176
G01 X95.8420 Y148.8176
G01 X95.8445 Y148.8176
G01 X95.9265 Y148.8218
G01 X96.0102 Y148.8342
G01 X96.0876 Y148.8534
G01 X96.0947 Y148.8555
G01 X96.1674 Y148.8815
G01 X96.1765 Y148.8853
G01 X96.2485 Y148.9194
G01 X96.3170 Y148.9603
G01 X96.3251 Y148.9658
G01 X96.3891 Y149.0134
G01 X96.4500 Y149.0685
G01 X96.4552 Y149.0738
G01 X96.5086 Y149.1329
G01 X96.5562 Y149.1969
G01 X96.5617 Y149.2050
G01 X96.6026 Y149.2735
G01 X96.6367 Y149.3455
G01 X96.6405 Y149.3546
G01 X96.6657 Y149.4250
G01 X96.6686 Y149.4344
G01 X96.6878 Y149.5118
G01 X96.7002 Y149.5955
G01 X96.7044 Y149.6800
G01 X96.7006 Y149.7596
G01 X96.7000 Y149.7670
G01 X96.6878 Y149.8482
G01 X96.6686 Y149.9256
G01 X96.6657 Y149.9350
G01 X96.6387 Y150.0100
G01 X96.6026 Y150.0865
G01 X96.5617 Y150.1550
G01 X96.5562 Y150.1631
G01 X96.5086 Y150.2271
G01 X96.4552 Y150.2862
G01 X96.4482 Y150.2932
G01 X96.3891 Y150.3466
G01 X96.3211 Y150.3970
G01 X96.2485 Y150.4406
G01 X96.1765 Y150.4747
G01 X96.1674 Y150.4785
G01 X96.0923 Y150.5052
G01 X96.0150 Y150.5247
G01 X96.0054 Y150.5266
G01 X95.9265 Y150.5382
G01 X95.8445 Y150.5424
G01 X94.3180 Y150.5424
G01 X94.2384 Y150.5386
G01 X94.2310 Y150.5380
G01 X94.1498 Y150.5258
G01 X94.0724 Y150.5066
G01 X94.0630 Y150.5037
G01 X93.9880 Y150.4767
G01 X93.9115 Y150.4406
G01 X93.8430 Y150.3997
G01 X93.8349 Y150.3942
G01 X93.7709 Y150.3466
G01 X93.7118 Y150.2932
G01 X93.7048 Y150.2862
G01 X93.6514 Y150.2271
G01 X93.6010 Y150.1591
G01 X93.5599 Y150.0908
G01 X93.5552 Y150.0821
G01 X93.5213 Y150.0100
G01 X93.4943 Y149.9350
G01 X93.4914 Y149.9256
G01 X93.4722 Y149.8482
G01 X93.4604 Y149.7694
G01 X93.4594 Y149.7596
G01 X93.4556 Y149.6800
G01 X93.4594 Y149.6004
G01 X93.4604 Y149.5906
G01 X93.4714 Y149.5166
G01 X93.4733 Y149.5070
G01 X93.4928 Y149.4297
G01 X93.5195 Y149.3546
G01 X93.5233 Y149.3455
G01 X93.5574 Y149.2735
G01 X93.5983 Y149.2050
G01 X93.6038 Y149.1969
G01 X93.6514 Y149.1329
G01 X93.7065 Y149.0720
G01 X93.7118 Y149.0668
G01 X93.7709 Y149.0134
G01 X93.8349 Y148.9658
G01 X93.8430 Y148.9603
G01 X93.9072 Y148.9219
G01 X93.9159 Y148.9172
G01 X93.9880 Y148.8833
G01 X94.0677 Y148.8548
G01 X94.1498 Y148.8342
G01 X94.2310 Y148.8220
G01 X94.2384 Y148.8214
G01 X94.3180 Y148.8176
G01 X95.8420 Y148.8176
G00 Z0.0200
G00 X95.8761 Y148.8192
G01 F60.00
G01 Z-0.0200
G01 F2000.00
G01 X95.8761 Y148.0008
G00 Z0.0200
G00 X96.0561 Y147.9744
G01 F60.00
G01 Z-0.0200
G01 F2000.00
G01 X96.0561 Y148.8456
G00 Z0.0200
G00 X96.2361 Y148.9134
G01 F60.00
G01 Z-0.0200
G01 F2000.00
G01 X96.2361 Y147.9066
G00 Z0.0200
G00 X96.4161 Y147.7823
G01 F60.00
G01 Z-0.0200
G01 F2000.00
G01 X96.4161 Y149.0377
G00 Z0.0200
G00 X96.5961 Y149.2625
G01 F60.00
G01 Z-0.0200
G01 F2000.00
G01 X96.5961 Y148.3464
G00 Z0.0200
G00 X96.7761 Y148.5283
G01 F60.00
G01 Z-0.0200
G01 F2000.00
G01 X96.7761 Y165.6590
G00 Z0.0200
G00 X96.9561 Y165.8405
G01 F60.00
G01 Z-0.0200
G01 F2000.00
G01 X96.9561 Y148.7083
G00 Z0.0200
G00 X96.5961 Y147.6605
G01 F60.00
G01 Z-0.0200
G01 F2000.00
G01 X96.5961 Y147.6463
G00 Z0.0200
G00 X96.4980 Y146.4537
G01 F60.00
G01 Z-0.0200
G01 F2000.00
G01 X96.3628 Y146.4537
G00 Z0.0200
G00 X96.4643 Y146.2737
G01 F60.00
G01 Z-0.0200
G01 F2000.00
G01 X93.6952 Y146.2737
G00 Z0.0200
G00 X93.6628 Y146.0937
G01 F60.00
G01 Z-0.0200
G01 F2000.00
G01 X96.4972 Y146.0937
G00 Z0.0200
G00 X96.6141 Y145.9137
G01 F60.00
G01 Z-0.0200
G01 F2000.00
G01 X93.5459 Y145.9137
G01 X93.3659 Y145.7337
G01 X96.7941 Y145.7337
G00 Z0.0200
G00 X96.4665 Y145.1937
G01 F60.00
G01 Z-0.0200
G01 F2000.00
G01 X97.1925 Y145.1937
G01 X97.2671 Y145.0137
G01 X96.5984 Y145.0137
G00 Z0.0200
G00 X96.6715 Y144.8337
G01 F60.00
G01 Z-0.0200
G01 F2000.00
G01 X97.3169 Y144.8337
G01 X97.3169 Y144.6537
G01 X96.7019 Y144.6537
G00 Z0.0200
G00 X96.6942 Y144.4737
G01 F60.00
G01 Z-0.0200
G01 F2000.00
G01 X97.3169 Y144.4737
G01 X97.3116 Y144.2937
G01 X96.6474 Y144.2937
G00 Z0.0200
G00 X96.5539 Y144.1137
G01 F60.00
G01 Z-0.0200
G01 F2000.00
G01 X97.2370 Y144.1137
G01 X97.1624 Y143.9337
G01 X96.3895 Y143.9337
G00 Z0.0200
G00 X96.0076 Y143.7537
G01 F60.00
G01 Z-0.0200
G01 F2000.00
G01 X97.0815 Y143.7537
G00 Z0.0200
G00 X96.5536 Y143.2137
G01 F60.00
G01 Z-0.0200
G01 F2000.00
G01 X93.6056 Y143.2137
G00 Z0.0200
G00 X93.6843 Y143.0337
G01 F60.00
G01 Z-0.0200
G01 F2000.00
G01 X96.4756 Y143.0337
G00 Z0.0200
G00 X96.4702 Y142.8537
G01 F60.00
G01 Z-0.0200
G01 F2000.00
G01 X96.1787 Y142.8537
G00 Z0.0200
G00 X96.4477 Y142.6737
G01 F60.00
G01 Z-0.0200
G01 F2000.00
G01 X96.5320 Y142.6737
G00 Z0.0200
G00 X96.5390 Y141.5537
G01 F60.00
G01 Z-0.0200
G01 F2000.00
G01 X96.5086 Y141.5129
G01 X96.4535 Y141.4520
G01 X96.3928 Y141.3966
G01 X96.3872 Y141.3918
G01 X96.3251 Y141.3458
G01 X96.3170 Y141.3403
G01 X96.2485 Y141.2994
G01 X96.1743 Y141.2642
G01 X96.0970 Y141.2363
G01 X96.0876 Y141.2334
G01 X96.0102 Y141.2142
G01 X95.9290 Y141.2020
G01 X95.9216 Y141.2014
G01 X95.8445 Y141.1976
G01 X95.5863 Y141.1976
G01 X95.5863 Y141.1439
G01 X95.9141 Y141.1439
G01 X96.0565 Y141.1664
G01 X96.1936 Y141.2111
G01 X96.3221 Y141.2765
G01 X96.4388 Y141.3613
G01 X96.5407 Y141.4632
G01 X96.6064 Y141.5537
G01 X96.5390 Y141.5537
G01 X96.4512 Y141.3737
G01 X96.3628 Y141.3737
G01 X96.1402 Y141.1937
G01 X95.5863 Y141.1937
G00 Z0.0200
G00 X94.5737 Y141.1937
G01 F60.00
G01 Z-0.0200
G01 F2000.00
G01 X94.0198 Y141.1937
G01 X93.7972 Y141.3737
G01 X93.7088 Y141.3737
G00 Z0.0200
G00 X93.5536 Y141.5537
G01 F60.00
G01 Z-0.0200
G01 F2000.00
G01 X93.6210 Y141.5537
G01 X93.6514 Y141.5129
G01 X93.7065 Y141.4520
G01 X93.7118 Y141.4468
G01 X93.7728 Y141.3918
G01 X93.8389 Y141.3430
G01 X93.9072 Y141.3019
G01 X93.9159 Y141.2972
G01 X93.9880 Y141.2633
G01 X94.0630 Y141.2363
G01 X94.0724 Y141.2334
G01 X94.1498 Y141.2142
G01 X94.2310 Y141.2020
G01 X94.2384 Y141.2014
G01 X94.3155 Y141.1976
G01 X94.5737 Y141.1976
G01 X94.5737 Y141.1439
G01 X94.2459 Y141.1439
G01 X94.1035 Y141.1664
G01 X93.9664 Y141.2111
G01 X93.8379 Y141.2765
G01 X93.7212 Y141.3613
G01 X93.6193 Y141.4632
G01 X93.5536 Y141.5537
G00 Z0.0200
G00 X93.6271 Y142.6737
G01 F60.00
G01 Z-0.0200
G01 F2000.00
G01 X93.7123 Y142.6737
G01 X93.6905 Y142.8537
G01 X93.9813 Y142.8537
G00 Z0.0200
G00 X93.4385 Y143.3937
G01 F60.00
G01 Z-0.0200
G01 F2000.00
G01 X96.7215 Y143.3937
G01 X96.9015 Y143.5737
G01 X93.2585 Y143.5737
G01 X93.0785 Y143.7537
G01 X94.1524 Y143.7537
G00 Z0.0200
G00 X93.7705 Y143.9337
G01 F60.00
G01 Z-0.0200
G01 F2000.00
G01 X92.9976 Y143.9337
G01 X92.9230 Y144.1137
G01 X93.6061 Y144.1137
G00 Z0.0200
G00 X93.5126 Y144.2937
G01 F60.00
G01 Z-0.0200
G01 F2000.00
G01 X92.8484 Y144.2937
G01 X92.8431 Y144.4737
G01 X93.4658 Y144.4737
G00 Z0.0200
G00 X93.4581 Y144.6537
G01 F60.00
G01 Z-0.0200
G01 F2000.00
G01 X92.8431 Y144.6537
G01 X92.8431 Y144.8337
G01 X93.4885 Y144.8337
G00 Z0.0200
G00 X93.5616 Y145.0137
G01 F60.00
G01 Z-0.0200
G01 F2000.00
G01 X92.8929 Y145.0137
G01 X92.9675 Y145.1937
G01 X93.6935 Y145.1937
G00 Z0.0200
G00 X93.9390 Y145.3737
G01 F60.00
G01 Z-0.0200
G01 F2000.00
G01 X93.0421 Y145.3737
G01 X93.1859 Y145.5537
G01 X96.9741 Y145.5537
G01 X97.1179 Y145.3737
G01 X96.2210 Y145.3737
G00 Z0.0200
G00 X95.8420 Y143.7376
G01 F60.00
G01 Z-0.0200
G01 F2000.00
G01 X95.9265 Y143.7418
G01 X96.0054 Y143.7534
G01 X96.0150 Y143.7553
G01 X96.0876 Y143.7734
G01 X96.0970 Y143.7763
G01 X96.1720 Y143.8033
G01 X96.2485 Y143.8394
G01 X96.3211 Y143.8830
G01 X96.3852 Y143.9304
G01 X96.3928 Y143.9366
G01 X96.4482 Y143.9868
G01 X96.4552 Y143.9938
G01 X96.5086 Y144.0529
G01 X96.5590 Y144.1209
G01 X96.6026 Y144.1935
G01 X96.6367 Y144.2655
G01 X96.6405 Y144.2746
G01 X96.6657 Y144.3450
G01 X96.6686 Y144.3544
G01 X96.6878 Y144.4318
G01 X96.7002 Y144.5155
G01 X96.7044 Y144.6000
G01 X96.7006 Y144.6796
G01 X96.6996 Y144.6894
G01 X96.6886 Y144.7634
G01 X96.6867 Y144.7730
G01 X96.6672 Y144.8503
G01 X96.6387 Y144.9300
G01 X96.6026 Y145.0065
G01 X96.5617 Y145.0750
G01 X96.5562 Y145.0831
G01 X96.5116 Y145.1432
G01 X96.5054 Y145.1508
G01 X96.4518 Y145.2098
G01 X96.3891 Y145.2666
G01 X96.3211 Y145.3170
G01 X96.2507 Y145.3594
G01 X96.2441 Y145.3628
G01 X96.1720 Y145.3967
G01 X96.0970 Y145.4237
G01 X96.0876 Y145.4266
G01 X96.0150 Y145.4447
G01 X96.0054 Y145.4466
G01 X95.9265 Y145.4582
G01 X95.8469 Y145.4623
G01 X94.3180 Y145.4624
G01 X94.2384 Y145.4586
G01 X94.2310 Y145.4580
G01 X94.1546 Y145.4466
G01 X94.1450 Y145.4447
G01 X94.0677 Y145.4252
G01 X93.9926 Y145.3985
G01 X93.9835 Y145.3947
G01 X93.9115 Y145.3606
G01 X93.8389 Y145.3170
G01 X93.7709 Y145.2666
G01 X93.7118 Y145.2132
G01 X93.7048 Y145.2062
G01 X93.6514 Y145.1471
G01 X93.6038 Y145.0831
G01 X93.5983 Y145.0750
G01 X93.5586 Y145.0087
G01 X93.5552 Y145.0021
G01 X93.5213 Y144.9300
G01 X93.4928 Y144.8503
G01 X93.4722 Y144.7682
G01 X93.4598 Y144.6845
G01 X93.4556 Y144.6000
G01 X93.4598 Y144.5155
G01 X93.4722 Y144.4318
G01 X93.4928 Y144.3497
G01 X93.5213 Y144.2700
G01 X93.5574 Y144.1935
G01 X93.6010 Y144.1209
G01 X93.6514 Y144.0529
G01 X93.7082 Y143.9902
G01 X93.7709 Y143.9334
G01 X93.8389 Y143.8830
G01 X93.9093 Y143.8406
G01 X93.9159 Y143.8372
G01 X93.9880 Y143.8033
G01 X94.0677 Y143.7748
G01 X94.1498 Y143.7542
G01 X94.2286 Y143.7424
G01 X94.2384 Y143.7414
G01 X94.3180 Y143.7376
G01 X95.8420 Y143.7376
G00 Z0.0200
G00 X93.5501 Y145.9180
G01 F60.00
G01 Z-0.0200
G01 F2000.00
G01 X93.5558 Y145.9241
G01 X93.5943 Y145.9693
G01 X93.6112 Y145.9930
G01 X93.6223 Y146.0122
G01 X93.6330 Y146.0291
G01 X93.6365 Y146.0355
G01 X93.6401 Y146.0434
G01 X93.6463 Y146.0550
G01 X93.6545 Y146.0753
G01 X93.6626 Y146.0932
G01 X93.6723 Y146.1208
G01 X93.6777 Y146.1423
G01 X93.6832 Y146.1614
G01 X93.6849 Y146.1687
G01 X93.6861 Y146.1768
G01 X93.6889 Y146.1899
G01 X93.6912 Y146.2121
G01 X93.6940 Y146.2318
G01 X93.6956 Y146.2602
G01 X93.6948 Y146.2827
G01 X93.6949 Y146.3023
G01 X93.6945 Y146.3094
G01 X93.6934 Y146.3183
G01 X93.6925 Y146.3307
G01 X93.6886 Y146.3533
G01 X93.6858 Y146.3730
G01 X93.6794 Y146.4014
G01 X93.6725 Y146.4225
G01 X93.6670 Y146.4415
G01 X93.6647 Y146.4481
G01 X93.6612 Y146.4561
G01 X93.6567 Y146.4685
G01 X93.6469 Y146.4885
G01 X93.6386 Y146.5070
G01 X93.6251 Y146.5314
G01 X93.6123 Y146.5502
G01 X93.6005 Y146.5690
G01 X93.5536 Y146.6337
G01 X93.6210 Y146.6337
G01 X93.6514 Y146.5929
G01 X93.7065 Y146.5320
G01 X93.7118 Y146.5268
G01 X93.7690 Y146.4750
G01 X93.7748 Y146.4704
G01 X93.8389 Y146.4230
G01 X93.9093 Y146.3806
G01 X93.9159 Y146.3772
G01 X93.9880 Y146.3433
G01 X94.0630 Y146.3163
G01 X94.0724 Y146.3134
G01 X94.1450 Y146.2953
G01 X94.1546 Y146.2934
G01 X94.2335 Y146.2818
G01 X94.3180 Y146.2776
G01 X95.8420 Y146.2776
G01 X95.9265 Y146.2818
G01 X96.0102 Y146.2942
G01 X96.0923 Y146.3148
G01 X96.1674 Y146.3415
G01 X96.1765 Y146.3453
G01 X96.2485 Y146.3794
G01 X96.3170 Y146.4203
G01 X96.3251 Y146.4258
G01 X96.3872 Y146.4718
G01 X96.3928 Y146.4766
G01 X96.4535 Y146.5320
G01 X96.5086 Y146.5929
G01 X96.5390 Y146.6337
G01 X96.6064 Y146.6337
G01 X96.5566 Y146.5650
G01 X96.5209 Y146.5061
G01 X96.5160 Y146.4955
G01 X96.5103 Y146.4842
G01 X96.5022 Y146.4636
G01 X96.4933 Y146.4424
G01 X96.4855 Y146.4184
G01 X96.4802 Y146.3963
G01 X96.4750 Y146.3771
G01 X96.4695 Y146.3460
G01 X96.4678 Y146.3262
G01 X96.4651 Y146.3040
G01 X96.4643 Y146.2754
G01 X96.4653 Y146.2554
G01 X96.4658 Y146.2331
G01 X96.4674 Y146.2199
G01 X96.4683 Y146.2092
G01 X96.4728 Y146.1851
G01 X96.4763 Y146.1631
G01 X96.4829 Y146.1370
G01 X96.4901 Y146.1162
G01 X96.4966 Y146.0951
G01 X96.5017 Y146.0831
G01 X96.5047 Y146.0748
G01 X96.5078 Y146.0680
G01 X96.5168 Y146.0507
G01 X96.5262 Y146.0305
G01 X96.5397 Y146.0073
G01 X96.5524 Y145.9894
G01 X96.5631 Y145.9729
G01 X96.5810 Y145.9499
G01 X96.5962 Y145.9336
G01 X96.6125 Y145.9153
G01 X97.0923 Y145.4355
G01 X97.3169 Y144.8934
G01 X97.3169 Y144.3066
G01 X97.0923 Y143.7645
G01 X96.6057 Y143.2776
G01 X96.5657 Y143.2307
G01 X96.5488 Y143.2070
G01 X96.5377 Y143.1878
G01 X96.5270 Y143.1709
G01 X96.5235 Y143.1645
G01 X96.5199 Y143.1566
G01 X96.5137 Y143.1450
G01 X96.5055 Y143.1247
G01 X96.4965 Y143.1046
G01 X96.4877 Y143.0792
G01 X96.4823 Y143.0577
G01 X96.4756 Y143.0338
G01 X96.4739 Y143.0232
G01 X96.4711 Y143.0101
G01 X96.4688 Y142.9879
G01 X96.4655 Y142.9629
G01 X96.4644 Y142.9398
G01 X96.4652 Y142.9173
G01 X96.4653 Y142.8930
G01 X96.4666 Y142.8817
G01 X96.4675 Y142.8693
G01 X96.4714 Y142.8467
G01 X96.4750 Y142.8225
G01 X96.4806 Y142.7986
G01 X96.4875 Y142.7775
G01 X96.4945 Y142.7541
G01 X96.4988 Y142.7439
G01 X96.5033 Y142.7315
G01 X96.5131 Y142.7115
G01 X96.5226 Y142.6906
G01 X96.5349 Y142.6686
G01 X96.5477 Y142.6498
G01 X96.5595 Y142.6310
G01 X96.6064 Y142.5663
G01 X96.5390 Y142.5663
G01 X96.5086 Y142.6071
G01 X96.4535 Y142.6680
G01 X96.4482 Y142.6732
G01 X96.3910 Y142.7250
G01 X96.3852 Y142.7296
G01 X96.3211 Y142.7770
G01 X96.2507 Y142.8194
G01 X96.2441 Y142.8228
G01 X96.1720 Y142.8567
G01 X96.0970 Y142.8837
G01 X96.0876 Y142.8866
G01 X96.0150 Y142.9047
G01 X96.0054 Y142.9066
G01 X95.9265 Y142.9182
G01 X95.8420 Y142.9224
G01 X94.3180 Y142.9224
G01 X94.2335 Y142.9182
G01 X94.1498 Y142.9058
G01 X94.0677 Y142.8852
G01 X93.9926 Y142.8585
G01 X93.9835 Y142.8547
G01 X93.9115 Y142.8206
G01 X93.8430 Y142.7797
G01 X93.8349 Y142.7742
G01 X93.7728 Y142.7282
G01 X93.7672 Y142.7234
G01 X93.7065 Y142.6680
G01 X93.6514 Y142.6071
G01 X93.6210 Y142.5663
G01 X93.5536 Y142.5663
G01 X93.6034 Y142.6350
G01 X93.6391 Y142.6939
G01 X93.6440 Y142.7045
G01 X93.6497 Y142.7158
G01 X93.6578 Y142.7364
G01 X93.6676 Y142.7602
G01 X93.6752 Y142.7841
G01 X93.6798 Y142.8037
G01 X93.6850 Y142.8229
G01 X93.6865 Y142.8300
G01 X93.6877 Y142.8385
G01 X93.6903 Y142.8516
G01 X93.6922 Y142.8738
G01 X93.6951 Y142.8985
G01 X93.6951 Y142.9091
G01 X93.6958 Y142.9221
G01 X93.6938 Y142.9716
G01 X93.6926 Y142.9801
G01 X93.6914 Y142.9931
G01 X93.6826 Y143.0415
G01 X93.6764 Y143.0652
G01 X93.6699 Y143.0838
G01 X93.6634 Y143.1049
G01 X93.6583 Y143.1169
G01 X93.6553 Y143.1252
G01 X93.6522 Y143.1320
G01 X93.6432 Y143.1493
G01 X93.6338 Y143.1695
G01 X93.6190 Y143.1946
G01 X93.6076 Y143.2106
G01 X93.5969 Y143.2271
G01 X93.5925 Y143.2332
G01 X93.5868 Y143.2398
G01 X93.5790 Y143.2501
G01 X93.5638 Y143.2664
G01 X93.5507 Y143.2814
G01 X93.0677 Y143.7645
G01 X92.8431 Y144.3066
G01 X92.8431 Y144.8934
G01 X93.0677 Y145.4355
G01 X93.5501 Y145.9180
G00 Z0.0200
G00 X93.6623 Y146.4537
G01 F60.00
G01 Z-0.0200
G01 F2000.00
G01 X93.7972 Y146.4537
G00 Z0.0200
G00 X93.7161 Y147.7571
G01 F60.00
G01 Z-0.0200
G01 F2000.00
G01 X93.7161 Y149.0629
G00 Z0.0200
G00 X93.7161 Y152.8371
G01 F60.00
G01 Z-0.0200
G01 F2000.00
G01 X93.7161 Y154.1429
G00 Z0.0200
G00 X93.8961 Y154.0085
G01 F60.00
G01 Z-0.0200
G01 F2000.00
G01 X93.8961 Y152.9715
G00 Z0.0200
G00 X94.0761 Y153.0475
G01 F60.00
G01 Z-0.0200
G01 F2000.00
G01 X94.0761 Y153.9325
G00 Z0.0200
G00 X94.2561 Y153.9005
G01 F60.00
G01 Z-0.0200
G01 F2000.00
G01 X94.2561 Y153.0795
G00 Z0.0200
G00 X94.4361 Y153.0824
G01 F60.00
G01 Z-0.0200
G01 F2000.00
G01 X94.4361 Y153.8976
G01 X94.6161 Y153.8976
G01 X94.6161 Y153.0824
G01 X94.7961 Y153.0824
G01 X94.7961 Y153.8976
G01 X94.9761 Y153.8976
G01 X94.9761 Y153.0824
G01 X95.1561 Y153.0824
G01 X95.1561 Y153.8976
G01 X95.3361 Y153.8976
G01 X95.3361 Y153.0824
G01 X95.5161 Y153.0824
G01 X95.5161 Y153.8976
G01 X95.6961 Y153.8976
G01 X95.6961 Y153.0824
G00 Z0.0200
G00 X95.8761 Y153.0808
G01 F60.00
G01 Z-0.0200
G01 F2000.00
G01 X95.8761 Y153.8992
G00 Z0.0200
G00 X95.8420 Y153.8976
G01 F60.00
G01 Z-0.0200
G01 F2000.00
G01 X95.9265 Y153.9018
G01 X96.0054 Y153.9134
G01 X96.0150 Y153.9153
G01 X96.0876 Y153.9334
G01 X96.0970 Y153.9363
G01 X96.1720 Y153.9633
G01 X96.2485 Y153.9994
G01 X96.3211 Y154.0430
G01 X96.3852 Y154.0904
G01 X96.3928 Y154.0966
G01 X96.4482 Y154.1468
G01 X96.4552 Y154.1538
G01 X96.5086 Y154.2129
G01 X96.5590 Y154.2809
G01 X96.6026 Y154.3535
G01 X96.6367 Y154.4255
G01 X96.6405 Y154.4346
G01 X96.6657 Y154.5050
G01 X96.6686 Y154.5144
G01 X96.6878 Y154.5918
G01 X96.7002 Y154.6755
G01 X96.7044 Y154.7600
G01 X96.7006 Y154.8396
G01 X96.6996 Y154.8494
G01 X96.6886 Y154.9234
G01 X96.6867 Y154.9330
G01 X96.6672 Y155.0103
G01 X96.6387 Y155.0900
G01 X96.6026 Y155.1665
G01 X96.5617 Y155.2350
G01 X96.5562 Y155.2431
G01 X96.5116 Y155.3032
G01 X96.5054 Y155.3108
G01 X96.4518 Y155.3698
G01 X96.3891 Y155.4266
G01 X96.3211 Y155.4770
G01 X96.2507 Y155.5194
G01 X96.2441 Y155.5228
G01 X96.1720 Y155.5567
G01 X96.0970 Y155.5837
G01 X96.0876 Y155.5866
G01 X96.0150 Y155.6047
G01 X96.0054 Y155.6066
G01 X95.9265 Y155.6182
G01 X95.8469 Y155.6223
G01 X94.3180 Y155.6224
G01 X94.2384 Y155.6186
G01 X94.2310 Y155.6180
G01 X94.1546 Y155.6066
G01 X94.1450 Y155.6047
G01 X94.0677 Y155.5852
G01 X93.9926 Y155.5585
G01 X93.9835 Y155.5547
G01 X93.9115 Y155.5206
G01 X93.8389 Y155.4770
G01 X93.7709 Y155.4266
G01 X93.7118 Y155.3732
G01 X93.7048 Y155.3662
G01 X93.6514 Y155.3071
G01 X93.6038 Y155.2431
G01 X93.5983 Y155.2350
G01 X93.5586 Y155.1687
G01 X93.5552 Y155.1621
G01 X93.5213 Y155.0900
G01 X93.4928 Y155.0103
G01 X93.4722 Y154.9282
G01 X93.4598 Y154.8445
G01 X93.4556 Y154.7600
G01 X93.4598 Y154.6755
G01 X93.4722 Y154.5918
G01 X93.4928 Y154.5097
G01 X93.5213 Y154.4300
G01 X93.5574 Y154.3535
G01 X93.6010 Y154.2809
G01 X93.6514 Y154.2129
G01 X93.7082 Y154.1502
G01 X93.7709 Y154.0934
G01 X93.8389 Y154.0430
G01 X93.9093 Y154.0006
G01 X93.9159 Y153.9972
G01 X93.9880 Y153.9633
G01 X94.0677 Y153.9348
G01 X94.1498 Y153.9142
G01 X94.2286 Y153.9024
G01 X94.2384 Y153.9014
G01 X94.3180 Y153.8976
G01 X95.8420 Y153.8976
G00 Z0.0200
G00 X96.0561 Y153.9256
G01 F60.00
G01 Z-0.0200
G01 F2000.00
G01 X96.0561 Y153.0544
G00 Z0.0200
G00 X96.2361 Y152.9866
G01 F60.00
G01 Z-0.0200
G01 F2000.00
G01 X96.2361 Y153.9934
G00 Z0.0200
G00 X96.4161 Y154.1177
G01 F60.00
G01 Z-0.0200
G01 F2000.00
G01 X96.4161 Y152.8623
G00 Z0.0200
G00 X96.5961 Y152.6375
G01 F60.00
G01 Z-0.0200
G01 F2000.00
G01 X96.5961 Y154.3425
G00 Z0.0200
G00 X96.5961 Y155.1775
G01 F60.00
G01 Z-0.0200
G01 F2000.00
G01 X96.5961 Y156.8825
G00 Z0.0200
G00 X96.4161 Y156.6577
G01 F60.00
G01 Z-0.0200
G01 F2000.00
G01 X96.4161 Y155.4023
G00 Z0.0200
G00 X96.2361 Y155.5266
G01 F60.00
G01 Z-0.0200
G01 F2000.00
G01 X96.2361 Y156.5334
G00 Z0.0200
G00 X96.0561 Y156.4656
G01 F60.00
G01 Z-0.0200
G01 F2000.00
G01 X96.0561 Y155.5944
G00 Z0.0200
G00 X95.8761 Y155.6208
G01 F60.00
G01 Z-0.0200
G01 F2000.00
G01 X95.8761 Y156.4392
G00 Z0.0200
G00 X95.6961 Y156.4376
G01 F60.00
G01 Z-0.0200
G01 F2000.00
G01 X95.6961 Y155.6224
G01 X95.5161 Y155.6224
G01 X95.5161 Y156.4376
G01 X95.3361 Y156.4376
G01 X95.3361 Y155.6224
G01 X95.1561 Y155.6224
G01 X95.1561 Y156.4376
G01 X94.9761 Y156.4376
G01 X94.9761 Y155.6224
G01 X94.7961 Y155.6224
G01 X94.7961 Y156.4376
G01 X94.6161 Y156.4376
G01 X94.6161 Y155.6224
G01 X94.4361 Y155.6224
G01 X94.4361 Y156.4376
G00 Z0.0200
G00 X94.2561 Y156.4405
G01 F60.00
G01 Z-0.0200
G01 F2000.00
G01 X94.2561 Y155.6195
G00 Z0.0200
G00 X94.0761 Y155.5875
G01 F60.00
G01 Z-0.0200
G01 F2000.00
G01 X94.0761 Y156.4725
G00 Z0.0200
G00 X93.8961 Y156.5485
G01 F60.00
G01 Z-0.0200
G01 F2000.00
G01 X93.8961 Y155.5115
G00 Z0.0200
G00 X93.7161 Y155.3771
G01 F60.00
G01 Z-0.0200
G01 F2000.00
G01 X93.7161 Y156.6829
G00 Z0.0200
G00 X93.5361 Y156.9383
G01 F60.00
G01 Z-0.0200
G01 F2000.00
G01 X93.5361 Y155.1217
G01 X92.9961 Y155.4227
G01 X92.9961 Y154.0973
G01 X93.1761 Y153.8161
G01 X93.1761 Y155.7087
G00 Z0.0200
G00 X93.1761 Y156.3524
G01 F60.00
G01 Z-0.0200
G01 F2000.00
G01 X93.1761 Y158.2439
G01 X93.3561 Y158.4239
G01 X93.3561 Y153.6361
G01 X93.5361 Y153.4561
G01 X93.5361 Y154.3983
G00 Z0.0200
G00 X92.9961 Y156.6373
G01 F60.00
G01 Z-0.0200
G01 F2000.00
G01 X92.9961 Y157.9627
G01 X93.5361 Y157.6617
G01 X93.5361 Y158.6039
G00 Z0.0200
G00 X93.8961 Y159.0885
G01 F60.00
G01 Z-0.0200
G01 F2000.00
G01 X93.8961 Y158.0515
G00 Z0.0200
G00 X94.0761 Y158.1275
G01 F60.00
G01 Z-0.0200
G01 F2000.00
G01 X94.0761 Y159.0125
G00 Z0.0200
G00 X94.2561 Y158.9805
G01 F60.00
G01 Z-0.0200
G01 F2000.00
G01 X94.2561 Y158.1595
G00 Z0.0200
G00 X94.3180 Y158.1624
G01 F60.00
G01 Z-0.0200
G01 F2000.00
G01 X94.2335 Y158.1582
G01 X94.1546 Y158.1466
G01 X94.1450 Y158.1447
G01 X94.0677 Y158.1252
G01 X93.9926 Y158.0985
G01 X93.9835 Y158.0947
G01 X93.9115 Y158.0606
G01 X93.8389 Y158.0170
G01 X93.7748 Y157.9696
G01 X93.7672 Y157.9634
G01 X93.7082 Y157.9098
G01 X93.6514 Y157.8471
G01 X93.6038 Y157.7831
G01 X93.5983 Y157.7750
G01 X93.5574 Y157.7065
G01 X93.5213 Y157.6300
G01 X93.4928 Y157.5503
G01 X93.4733 Y157.4730
G01 X93.4714 Y157.4634
G01 X93.4598 Y157.3845
G01 X93.4556 Y157.3000
G01 X93.4594 Y157.2204
G01 X93.4604 Y157.2106
G01 X93.4722 Y157.1318
G01 X93.4928 Y157.0497
G01 X93.5195 Y156.9746
G01 X93.5233 Y156.9655
G01 X93.5574 Y156.8935
G01 X93.6010 Y156.8209
G01 X93.6484 Y156.7568
G01 X93.6546 Y156.7492
G01 X93.7082 Y156.6902
G01 X93.7709 Y156.6334
G01 X93.8389 Y156.5830
G01 X93.9115 Y156.5394
G01 X93.9835 Y156.5053
G01 X93.9926 Y156.5015
G01 X94.0630 Y156.4763
G01 X94.0724 Y156.4734
G01 X94.1498 Y156.4542
G01 X94.2335 Y156.4418
G01 X94.3180 Y156.4376
G01 X95.8420 Y156.4376
G01 X95.9265 Y156.4418
G01 X96.0078 Y156.4537
G01 X96.0150 Y156.4553
G01 X96.0923 Y156.4748
G01 X96.1674 Y156.5015
G01 X96.1765 Y156.5053
G01 X96.2485 Y156.5394
G01 X96.3170 Y156.5803
G01 X96.3251 Y156.5858
G01 X96.3891 Y156.6334
G01 X96.4482 Y156.6868
G01 X96.4552 Y156.6938
G01 X96.5086 Y156.7529
G01 X96.5562 Y156.8169
G01 X96.5617 Y156.8250
G01 X96.6026 Y156.8935
G01 X96.6387 Y156.9700
G01 X96.6672 Y157.0497
G01 X96.6867 Y157.1270
G01 X96.6886 Y157.1366
G01 X96.7002 Y157.2155
G01 X96.7043 Y157.2951
G01 X96.7043 Y157.3049
G01 X96.7002 Y157.3845
G01 X96.6878 Y157.4682
G01 X96.6686 Y157.5456
G01 X96.6657 Y157.5550
G01 X96.6387 Y157.6300
G01 X96.6048 Y157.7021
G01 X96.6001 Y157.7108
G01 X96.5604 Y157.7771
G01 X96.5562 Y157.7831
G01 X96.5086 Y157.8471
G01 X96.4518 Y157.9098
G01 X96.3891 Y157.9666
G01 X96.3211 Y158.0170
G01 X96.2485 Y158.0606
G01 X96.1720 Y158.0967
G01 X96.0923 Y158.1252
G01 X96.0150 Y158.1447
G01 X96.0078 Y158.1463
G01 X95.9265 Y158.1582
G01 X95.8420 Y158.1624
G01 X94.3180 Y158.1624
G01 X94.4361 Y158.1624
G01 X94.4361 Y158.9776
G01 X94.6161 Y158.9776
G01 X94.6161 Y158.1624
G01 X94.7961 Y158.1624
G01 X94.7961 Y158.9776
G01 X94.9761 Y158.9776
G01 X94.9761 Y158.1624
G01 X95.1561 Y158.1624
G01 X95.1561 Y158.9776
G01 X95.3361 Y158.9776
G01 X95.3361 Y158.1624
G01 X95.5161 Y158.1624
G01 X95.5161 Y158.9776
G01 X95.6961 Y158.9776
G01 X95.6961 Y158.1624
G00 Z0.0200
G00 X95.8761 Y158.1608
G01 F60.00
G01 Z-0.0200
G01 F2000.00
G01 X95.8761 Y158.9792
G00 Z0.0200
G00 X96.0561 Y159.0056
G01 F60.00
G01 Z-0.0200
G01 F2000.00
G01 X96.0561 Y158.1344
G00 Z0.0200
G00 X96.2361 Y158.0666
G01 F60.00
G01 Z-0.0200
G01 F2000.00
G01 X96.2361 Y159.0734
G00 Z0.0200
G00 X96.4161 Y159.1977
G01 F60.00
G01 Z-0.0200
G01 F2000.00
G01 X96.4161 Y157.9423
G00 Z0.0200
G00 X96.5961 Y157.7175
G01 F60.00
G01 Z-0.0200
G01 F2000.00
G01 X96.5961 Y159.4225
G00 Z0.0200
G00 X96.5961 Y160.2575
G01 F60.00
G01 Z-0.0200
G01 F2000.00
G01 X96.5961 Y161.9625
G00 Z0.0200
G00 X96.4161 Y161.7377
G01 F60.00
G01 Z-0.0200
G01 F2000.00
G01 X96.4161 Y160.4823
G00 Z0.0200
G00 X96.2361 Y160.6066
G01 F60.00
G01 Z-0.0200
G01 F2000.00
G01 X96.2361 Y161.6134
G00 Z0.0200
G00 X96.0561 Y161.5456
G01 F60.00
G01 Z-0.0200
G01 F2000.00
G01 X96.0561 Y160.6744
G00 Z0.0200
G00 X95.8761 Y160.7008
G01 F60.00
G01 Z-0.0200
G01 F2000.00
G01 X95.8761 Y161.5192
G00 Z0.0200
G00 X95.6961 Y161.5176
G01 F60.00
G01 Z-0.0200
G01 F2000.00
G01 X95.6961 Y160.7024
G01 X95.5161 Y160.7024
G01 X95.5161 Y161.5176
G01 X95.3361 Y161.5176
G01 X95.3361 Y160.7024
G01 X95.1561 Y160.7024
G01 X95.1561 Y161.5176
G01 X94.9761 Y161.5176
G01 X94.9761 Y160.7024
G01 X94.7961 Y160.7024
G01 X94.7961 Y161.5176
G01 X94.6161 Y161.5176
G01 X94.6161 Y160.7024
G01 X94.4361 Y160.7024
G01 X94.4361 Y161.5176
G00 Z0.0200
G00 X94.2561 Y161.5205
G01 F60.00
G01 Z-0.0200
G01 F2000.00
G01 X94.2561 Y160.6995
G00 Z0.0200
G00 X94.0761 Y160.6675
G01 F60.00
G01 Z-0.0200
G01 F2000.00
G01 X94.0761 Y161.5525
G00 Z0.0200
G00 X93.8961 Y161.6285
G01 F60.00
G01 Z-0.0200
G01 F2000.00
G01 X93.8961 Y160.5915
G00 Z0.0200
G00 X93.7161 Y160.4571
G01 F60.00
G01 Z-0.0200
G01 F2000.00
G01 X93.7161 Y161.7629
G00 Z0.0200
G00 X93.5361 Y162.0183
G01 F60.00
G01 Z-0.0200
G01 F2000.00
G01 X93.5361 Y161.0761
G01 X93.3561 Y161.2561
G01 X93.3561 Y163.5039
G01 X93.5361 Y163.6525
G01 X93.5361 Y162.7417
G00 Z0.0200
G00 X93.7161 Y162.9971
G01 F60.00
G01 Z-0.0200
G01 F2000.00
G01 X93.7161 Y163.7271
G01 X93.8961 Y163.8017
G01 X93.8961 Y163.1315
G00 Z0.0200
G00 X94.0761 Y163.2075
G01 F60.00
G01 Z-0.0200
G01 F2000.00
G01 X94.0761 Y163.8549
G01 X94.2561 Y163.8549
G01 X94.2561 Y163.2395
G00 Z0.0200
G00 X94.3180 Y163.2424
G01 F60.00
G01 Z-0.0200
G01 F2000.00
G01 X94.2335 Y163.2382
G01 X94.1546 Y163.2266
G01 X94.1450 Y163.2247
G01 X94.0677 Y163.2052
G01 X93.9926 Y163.1785
G01 X93.9835 Y163.1747
G01 X93.9115 Y163.1406
G01 X93.8389 Y163.0970
G01 X93.7748 Y163.0496
G01 X93.7672 Y163.0434
G01 X93.7082 Y162.9898
G01 X93.6514 Y162.9271
G01 X93.6038 Y162.8631
G01 X93.5983 Y162.8550
G01 X93.5574 Y162.7865
G01 X93.5213 Y162.7100
G01 X93.4928 Y162.6303
G01 X93.4733 Y162.5530
G01 X93.4714 Y162.5434
G01 X93.4598 Y162.4645
G01 X93.4556 Y162.3800
G01 X93.4594 Y162.3004
G01 X93.4604 Y162.2906
G01 X93.4722 Y162.2118
G01 X93.4928 Y162.1297
G01 X93.5195 Y162.0546
G01 X93.5233 Y162.0455
G01 X93.5574 Y161.9735
G01 X93.6010 Y161.9009
G01 X93.6484 Y161.8368
G01 X93.6546 Y161.8292
G01 X93.7082 Y161.7702
G01 X93.7709 Y161.7134
G01 X93.8389 Y161.6630
G01 X93.9115 Y161.6194
G01 X93.9835 Y161.5853
G01 X93.9926 Y161.5815
G01 X94.0630 Y161.5563
G01 X94.0724 Y161.5534
G01 X94.1498 Y161.5342
G01 X94.2335 Y161.5218
G01 X94.3180 Y161.5176
G01 X95.8420 Y161.5176
G01 X95.9265 Y161.5218
G01 X96.0078 Y161.5337
G01 X96.0150 Y161.5353
G01 X96.0923 Y161.5548
G01 X96.1674 Y161.5815
G01 X96.1765 Y161.5853
G01 X96.2485 Y161.6194
G01 X96.3170 Y161.6603
G01 X96.3251 Y161.6658
G01 X96.3891 Y161.7134
G01 X96.4482 Y161.7668
G01 X96.4552 Y161.7738
G01 X96.5086 Y161.8329
G01 X96.5562 Y161.8969
G01 X96.5617 Y161.9050
G01 X96.6026 Y161.9735
G01 X96.6387 Y162.0500
G01 X96.6672 Y162.1297
G01 X96.6867 Y162.2070
G01 X96.6886 Y162.2166
G01 X96.7002 Y162.2955
G01 X96.7043 Y162.3751
G01 X96.7043 Y162.3849
G01 X96.7002 Y162.4645
G01 X96.6878 Y162.5482
G01 X96.6686 Y162.6256
G01 X96.6657 Y162.6350
G01 X96.6387 Y162.7100
G01 X96.6048 Y162.7821
G01 X96.6001 Y162.7908
G01 X96.5590 Y162.8591
G01 X96.5086 Y162.9271
G01 X96.4518 Y162.9898
G01 X96.3891 Y163.0466
G01 X96.3211 Y163.0970
G01 X96.2485 Y163.1406
G01 X96.1720 Y163.1767
G01 X96.0923 Y163.2052
G01 X96.0150 Y163.2247
G01 X96.0078 Y163.2263
G01 X95.9265 Y163.2382
G01 X95.8420 Y163.2424
G01 X94.3180 Y163.2424
G01 X94.4361 Y163.2424
G01 X94.4361 Y163.8549
G01 X94.6161 Y163.8549
G01 X94.6161 Y163.2424
G01 X94.7961 Y163.2424
G01 X94.7961 Y163.8549
G01 X94.9761 Y163.8549
G01 X94.9761 Y163.2424
G01 X95.1561 Y163.2424
G01 X95.1561 Y163.8549
G01 X95.3361 Y163.8549
G01 X95.3361 Y163.2424
G01 X95.5161 Y163.2424
G01 X95.5161 Y163.8549
G01 X95.6961 Y163.8549
G01 X95.6961 Y163.2424
G00 Z0.0200
G00 X95.8761 Y163.2408
G01 F60.00
G01 Z-0.0200
G01 F2000.00
G01 X95.8761 Y163.8549
G00 Z0.0200
G00 X96.0561 Y163.8594
G01 F60.00
G01 Z-0.0200
G01 F2000.00
G01 X96.0561 Y163.2144
G00 Z0.0200
G00 X96.2361 Y163.1466
G01 F60.00
G01 Z-0.0200
G01 F2000.00
G01 X96.2361 Y163.9168
G00 Z0.0200
G00 X96.4161 Y164.0817
G01 F60.00
G01 Z-0.0200
G01 F2000.00
G01 X96.4161 Y163.0223
G00 Z0.0200
G00 X96.5961 Y162.7975
G01 F60.00
G01 Z-0.0200
G01 F2000.00
G01 X96.5961 Y165.3729
G01 X97.1361 Y165.0698
G01 X97.1361 Y166.0540
G01 X97.6761 Y165.7359
G01 X97.6761 Y167.7546
G01 X97.8561 Y167.8044
G01 X97.8561 Y167.1489
G00 Z0.0200
G00 X98.0361 Y167.1915
G01 F60.00
G01 Z-0.0200
G01 F2000.00
G01 X98.0361 Y167.8044
G01 X98.2161 Y167.8044
G01 X98.2161 Y167.1915
G01 X98.3961 Y167.1915
G01 X98.3961 Y167.8044
G01 X98.5761 Y167.8044
G01 X98.5761 Y167.1915
G01 X98.7561 Y167.1915
G01 X98.7561 Y167.8044
G01 X98.9361 Y167.8044
G01 X98.9361 Y167.1915
G01 X99.1161 Y167.1915
G01 X99.1161 Y167.8044
G01 X99.2961 Y167.8044
G01 X99.2961 Y167.1915
G01 X99.4761 Y167.1915
G01 X99.4761 Y167.8044
G01 X99.6561 Y167.8044
G01 X99.6561 Y163.8443
G00 Z0.0200
G00 X99.8361 Y164.0425
G01 F60.00
G01 Z-0.0200
G01 F2000.00
G01 X99.8361 Y167.7396
G00 Z0.0200
G00 X100.0161 Y167.6684
G01 F60.00
G01 Z-0.0200
G01 F2000.00
G01 X100.0161 Y164.2225
G01 X100.1961 Y164.4025
G01 X100.1961 Y167.6486
G00 Z0.0200
G00 X100.3761 Y167.6950
G01 F60.00
G01 Z-0.0200
G01 F2000.00
G01 X100.3761 Y164.5825
G01 X100.5561 Y164.7625
G01 X100.5561 Y167.7696
G01 X100.7361 Y167.8044
G01 X100.7361 Y167.1803
G00 Z0.0200
G00 X100.9161 Y167.1915
G01 F60.00
G01 Z-0.0200
G01 F2000.00
G01 X100.9161 Y167.8044
G01 X101.0961 Y167.8044
G01 X101.0961 Y167.1915
G01 X101.2761 Y167.1915
G01 X101.2761 Y167.8044
G01 X101.4561 Y167.8044
G01 X101.4561 Y167.1915
G01 X101.6361 Y167.1915
G01 X101.6361 Y167.8044
G01 X101.8161 Y167.8044
G01 X101.8161 Y167.1915
G01 X101.9961 Y167.1915
G01 X101.9961 Y167.8044
G01 X102.1761 Y167.8044
G01 X102.1761 Y167.1915
G01 X102.3561 Y167.1915
G01 X102.3561 Y167.8044
G00 Z0.0200
G00 X102.5361 Y167.8053
G01 F60.00
G01 Z-0.0200
G01 F2000.00
G01 X102.5361 Y166.7425
G01 X102.7161 Y166.9225
G01 X102.7161 Y167.8437
G00 Z0.0200
G00 X102.8961 Y167.9690
G01 F60.00
G01 Z-0.0200
G01 F2000.00
G01 X102.8961 Y167.1025
G01 X103.0761 Y167.2825
G01 X103.0761 Y168.1490
G00 Z0.0200
G00 X103.2561 Y168.3831
G01 F60.00
G01 Z-0.0200
G01 F2000.00
G01 X103.2561 Y167.4625
G01 X103.4361 Y167.6425
G01 X103.4361 Y169.7817
G01 X103.6161 Y169.7463
G01 X103.6161 Y167.8223
G00 Z0.0200
G00 X103.7961 Y167.9353
G01 F60.00
G01 Z-0.0200
G01 F2000.00
G01 X103.7961 Y169.7110
G01 X103.9761 Y169.6756
G01 X103.9761 Y167.9666
G01 X104.1561 Y167.9666
G01 X104.1561 Y169.6402
G01 X104.3361 Y169.6049
G01 X104.3361 Y167.9666
G01 X104.5161 Y167.9666
G01 X104.5161 Y169.5695
G01 X104.6961 Y169.5341
G01 X104.6961 Y167.9666
G01 X104.8761 Y167.9666
G01 X104.8761 Y169.4987
G01 X105.0561 Y169.4634
G01 X105.0561 Y167.9666
G01 X105.2361 Y167.9666
G01 X105.2361 Y169.4280
G01 X105.4161 Y169.3926
G01 X105.4161 Y167.9666
G01 X105.5961 Y167.9666
G01 X105.5961 Y169.3572
G01 X105.7761 Y169.3219
G01 X105.7761 Y167.9666
G01 X105.9561 Y167.9666
G01 X105.9561 Y169.2865
G01 X106.1361 Y169.2511
G01 X106.1361 Y167.9666
G01 X106.3161 Y167.9666
G01 X106.3161 Y169.2158
G01 X106.4961 Y169.1804
G01 X106.4961 Y167.9666
G00 Z0.0200
G00 X106.6761 Y167.9381
G01 F60.00
G01 Z-0.0200
G01 F2000.00
G01 X106.6761 Y169.1450
G01 X106.8561 Y169.1096
G01 X106.8561 Y167.8294
G00 Z0.0200
G00 X107.0361 Y167.6503
G01 F60.00
G01 Z-0.0200
G01 F2000.00
G01 X107.0361 Y169.0743
G01 X107.2161 Y169.0389
G01 X107.2161 Y167.4703
G01 X107.3961 Y167.2903
G01 X107.3961 Y169.0035
G01 X107.5761 Y168.9682
G01 X107.5761 Y167.1103
G01 X107.7561 Y166.9303
G01 X107.7561 Y168.9328
G01 X107.9361 Y168.8974
G01 X107.9361 Y166.7503
G01 X108.1161 Y166.5844
G01 X108.1161 Y168.8620
G01 X108.2961 Y168.8267
G01 X108.2961 Y166.4876
G01 X108.4761 Y166.3907
G01 X108.4761 Y168.7913
G01 X108.6561 Y168.7559
G01 X108.6561 Y166.2938
G01 X108.8361 Y166.1970
G01 X108.8361 Y168.7205
G01 X109.0161 Y168.6852
G01 X109.0161 Y166.1001
G01 X109.1961 Y166.0032
G01 X109.1961 Y168.6498
G01 X109.3761 Y168.6144
G01 X109.3761 Y165.9200
G01 X109.5561 Y165.9200
G01 X109.5561 Y168.5791
G01 X109.7361 Y168.5437
G01 X109.7361 Y165.9200
G01 X109.9161 Y165.9200
G01 X109.9161 Y168.5083
G01 X110.0961 Y168.4729
G01 X110.0961 Y165.9200
G01 X110.2761 Y165.9200
G01 X110.2761 Y168.4376
G01 X110.4561 Y168.4022
G01 X110.4561 Y165.9200
G01 X110.6361 Y165.9200
G01 X110.6361 Y168.3668
G01 X110.8161 Y168.3314
G01 X110.8161 Y165.9200
G00 Z0.0200
G00 X110.9961 Y165.9028
G01 F60.00
G01 Z-0.0200
G01 F2000.00
G01 X110.9961 Y168.2961
G01 X111.1761 Y168.2607
G01 X111.1761 Y162.5115
G00 Z0.0200
G00 X111.3561 Y162.7025
G01 F60.00
G01 Z-0.0200
G01 F2000.00
G01 X111.3561 Y168.2253
G01 X111.5361 Y168.1900
G01 X111.5361 Y162.8825
G01 X111.7161 Y163.0625
G01 X111.7161 Y168.1546
G01 X111.8961 Y168.1192
G01 X111.8961 Y163.2425
G01 X112.0761 Y163.4225
G01 X112.0761 Y168.0838
G01 X112.2561 Y168.0485
G01 X112.2561 Y166.9200
G01 X112.2400 Y166.9200
G01 X112.2326 Y166.9197
G01 X112.2229 Y166.9185
G01 X112.2133 Y166.9164
G01 X112.2040 Y166.9133
G01 X112.1950 Y166.9093
G01 X112.1865 Y166.9045
G01 X112.1766 Y166.8973
G01 X112.1693 Y166.8907
G01 X112.1612 Y166.8815
G01 X112.1555 Y166.8735
G01 X112.1507 Y166.8650
G01 X112.1458 Y166.8537
G01 X112.1430 Y166.8443
G01 X112.1408 Y166.8322
G01 X112.1400 Y166.8225
G01 X112.1400 Y165.5175
G01 X112.1411 Y165.5053
G01 X112.1436 Y165.4933
G01 X112.1476 Y165.4817
G01 X112.1518 Y165.4729
G01 X112.1582 Y165.4624
G01 X112.1659 Y165.4528
G01 X112.1747 Y165.4443
G01 X112.1824 Y165.4382
G01 X112.1886 Y165.4342
G01 X112.1950 Y165.4307
G01 X112.2017 Y165.4276
G01 X112.2086 Y165.4250
G01 X112.2181 Y165.4224
G01 X112.2253 Y165.4211
G01 X112.2326 Y165.4203
G01 X112.2400 Y165.4200
G01 X113.8449 Y165.4201
G01 X113.8522 Y165.4208
G01 X113.8619 Y165.4224
G01 X113.8714 Y165.4250
G01 X113.8805 Y165.4286
G01 X113.8893 Y165.4330
G01 X113.8956 Y165.4369
G01 X113.9034 Y165.4427
G01 X113.9090 Y165.4476
G01 X113.9141 Y165.4528
G01 X113.9203 Y165.4604
G01 X113.9258 Y165.4686
G01 X113.9293 Y165.4750
G01 X113.9333 Y165.4840
G01 X113.9364 Y165.4933
G01 X113.9381 Y165.5005
G01 X113.9395 Y165.5102
